/* XPM */
static char *easter_egg5[] = {
/* columns rows colors chars-per-pixel */
"128 128 251 2 ",
"   c #0C0508",
".  c #0E040B",
"X  c #130107",
"o  c #12060C",
"O  c #19070D",
"+  c #14090D",
"@  c #19090E",
"#  c #130610",
"$  c #190612",
"%  c #160A13",
"&  c #1C0B14",
"*  c #180E16",
"=  c #1E0D19",
"-  c #22050E",
";  c #280616",
":  c #230B14",
">  c #2B0C16",
",  c #240D1A",
"<  c #2B0D1C",
"1  c #330917",
"2  c #320C1C",
"3  c #3A0C1C",
"4  c #241116",
"5  c #24111C",
"6  c #2A101E",
"7  c #33111D",
"8  c #3A111D",
"9  c #2B230F",
"0  c #3B2F17",
"q  c #2C0D22",
"w  c #290827",
"e  c #340E22",
"r  c #3B0C23",
"t  c #390B27",
"y  c #2D1222",
"u  c #2B1324",
"i  c #341224",
"p  c #3B1225",
"a  c #391A27",
"s  c #351329",
"d  c #3C152A",
"f  c #3D192B",
"g  c #3A0835",
"h  c #3C1733",
"j  c #450D1D",
"k  c #691B1A",
"l  c #43331B",
"z  c #4B3B1B",
"x  c #573F1F",
"c  c #430C24",
"v  c #470C27",
"b  c #510C2F",
"n  c #471525",
"m  c #43142B",
"M  c #4B142C",
"N  c #431B2D",
"B  c #53142C",
"V  c #581629",
"C  c #4C1532",
"Z  c #441B32",
"A  c #4B1C33",
"S  c #481836",
"D  c #541432",
"F  c #5B1533",
"G  c #541A37",
"H  c #5C1A34",
"J  c #5C1B3B",
"K  c #64172A",
"L  c #661938",
"P  c #70153A",
"I  c #4F2529",
"U  c #4C2438",
"Y  c #56263B",
"T  c #54233C",
"R  c #69262D",
"E  c #6A2437",
"W  c #75263B",
"Q  c #5F5F00",
"!  c #6B6B00",
"~  c #5F4323",
"^  c #6F4B27",
"/  c #774F2B",
"(  c #4F1745",
")  c #6A1A44",
"_  c #771A4A",
"`  c #720F50",
"'  c #7B1856",
"]  c #5A2844",
"[  c #582B4D",
"{  c #662848",
"}  c #772746",
"|  c #66344D",
" . c #763348",
".. c #662B57",
"X. c #792554",
"o. c #6C3654",
"O. c #773959",
"+. c #6C146E",
"@. c #783966",
"#. c #74316F",
"$. c #744359",
"%. c #7C4665",
"&. c #7C4F6F",
"*. c #973130",
"=. c #99411E",
"-. c #9B452B",
";. c #83532F",
":. c #8B5B33",
">. c #935F37",
",. c #B24F28",
"<. c #C65F30",
"1. c #8E1A4F",
"2. c #841B57",
"3. c #A41756",
"4. c #872948",
"5. c #88374B",
"6. c #94374C",
"7. c #882657",
"8. c #942A56",
"9. c #883856",
"0. c #963757",
"q. c #A5335B",
"w. c #881667",
"e. c #8C2766",
"r. c #962968",
"t. c #993666",
"y. c #992775",
"u. c #973274",
"i. c #AA306E",
"p. c #A73969",
"a. c #A72C7A",
"s. c #A83778",
"d. c #B43978",
"f. c #C33D7D",
"g. c #944554",
"h. c #AD564D",
"j. c #A6495A",
"k. c #874769",
"l. c #924E6F",
"z. c #884975",
"x. c #8B5376",
"c. c #975879",
"v. c #AA4768",
"b. c #B75468",
"n. c #AB4776",
"m. c #B54878",
"M. c #B55471",
"N. c #9C6768",
"B. c #AD6678",
"V. c #CB6D4A",
"C. c #C44E79",
"Z. c #C35D77",
"A. c #CE6578",
"S. c #878700",
"D. c #939300",
"F. c #AFAF00",
"G. c #BBBB00",
"H. c #D7D700",
"J. c #C28378",
"K. c #7C3385",
"L. c #7F5386",
"P. c #AF1E86",
"I. c #853986",
"U. c #883C90",
"Y. c #A93886",
"T. c #B73887",
"R. c #B53192",
"E. c #C73A8D",
"W. c #C83C96",
"Q. c #CD3BA3",
"!. c #8B4486",
"~. c #944A89",
"^. c #9A5886",
"/. c #9B528C",
"(. c #8E4594",
"). c #984B95",
"_. c #9D5392",
"`. c #9D5899",
"'. c #B84785",
"]. c #B25387",
"[. c #B54394",
"{. c #A15595",
"}. c #A35A95",
"|. c #A4559B",
" X c #A65C9A",
".X c #A95D9C",
"XX c #9E638B",
"oX c #A7688A",
"OX c #B06F8C",
"+X c #A96896",
"@X c #AB629D",
"#X c #B06C9C",
"$X c #AD7498",
"%X c #B57497",
"&X c #B4749C",
"*X c #B3799C",
"=X c #B97A9D",
"-X c #9E57A2",
";X c #A85BA2",
":X c #AC5FB0",
">X c #AD64A1",
",X c #AE6AA3",
"<X c #AC65AB",
"1X c #B165A3",
"2X c #B26CA4",
"3X c #B46AAB",
"4X c #B26BAF",
"5X c #B573A3",
"6X c #B876A5",
"7X c #B47AA4",
"8X c #BB7AA3",
"9X c #B673A9",
"0X c #B976AB",
"qX c #BB79AD",
"wX c #BD79B2",
"eX c #CE4C89",
"rX c #C75687",
"tX c #CA4597",
"yX c #D44999",
"uX c #CB5996",
"iX c #D95796",
"pX c #E3589D",
"aX c #CF6495",
"sX c #D74BA4",
"dX c #CE50A2",
"fX c #DA55A6",
"gX c #E659A5",
"hX c #D16AA8",
"jX c #C37BB6",
"kX c #E563B0",
"lX c #BB8299",
"zX c #BC85A2",
"xX c #CA8899",
"cX c #C383A4",
"vX c #C788A7",
"bX c #C788A9",
"nX c #CA8BAB",
"mX c #CC8DAC",
"MX c #C491A8",
"NX c #CD90AE",
"BX c #D091AE",
"VX c #CD8DB2",
"CX c #C985B9",
"ZX c #D38DB5",
"AX c #D38BB8",
"SX c #D191B6",
"DX c #D494B9",
"FX c #DFAFBA",
"GX c #CC89C1",
"HX c #D48BC3",
"JX c #D48AC7",
/* pixels */
"/ / / / / / / / / / / / / / / / / / / / / / / / / / / / / / / / / / / / / / / / / / / / / / / / / / / / / / / / / / / / / / / / / / / / / / / / / / / / / / / / / / / / / / / / / / / / / / / / / / / / / / / / / / / / / / / / / / / / / / / / / / / / / / / / ",
"~ ~ ~ ~ ~ ~ ~ ~ ~ ~ ~ ~ ~ ~ ~ ~ ~ ~ ~ ~ ~ ~ ~ ~ ~ ~ ~ ~ ~ ~ ~ ~ ~ ~ ~ ~ ~ ~ ~ ~ ~ ~ ~ ~ ~ ~ ~ ~ ~ ~ ~ ~ ~ ~ ~ ~ ~ ~ ~ ~ ~ ~ ~ ~ ~ ~ ~ ~ ~ ~ ~ ~ ~ ~ ~ ~ ~ ~ ~ ~ ~ ~ ~ ~ ~ ~ ~ ~ ~ ~ ~ ~ ~ ~ ~ ~ ~ ~ ~ ~ ~ ~ ~ ~ ~ ~ ~ ~ ~ ~ ~ ~ ~ ~ ~ ~ ~ ~ ~ ~ ~ ~ ~ ~ ~ ~ ~ ~ ",
":.:.:.:.:.:.:.:.:.:.:.:.:.:.:.:.:.:.:.:.:.:.:.:.:.:.:.:.:.:.:.:.:.:.:.:.:.:.:.:.:.:.:.:.:.:.:.:.:.:.:.:.:.:.:.:.:.:.:.:.:.:.:.:.:.:.:.:.:.:.:.:.:.:.:.:.:.:.:.:.:.:.:.:.:.:.:.:.:.:.:.:.:.:.:.:.:.:.:.:.:.:.:.:.:.:.:.:.:.:.:.:.:.:.:.:.:.:.:.:.:.:.:.:.:.:.:.:.",
">.>.>.>.>.>.>.>.>.>.>.>.>.>.>.>.>.>.>.>.>.>.>.>.>.>.>.>.>.>.>.>.>.>.>.>.>.>.>.>.>.>.>.>.>.>.>.>.>.>.>.>.>.>.>.>.>.>.>.>.>.>.>.>.>.>.>.>.>.>.>.>.>.>.>.>.>.>.>.>.>.>.>.>.>.>.>.>.>.>.>.>.>.>.>.>.>.>.>.>.>.>.>.>.>.>.>.>.>.>.>.>.>.>.>.>.>.>.>.>.>.>.>.>.>.>.>.>.",
";.;.;.;.;.;.;.;.;.;.;.;.;.;.;.;.;.;.;.;.;.;.;.;.;.;.;.;.;.;.;.;.;.;.;.;.;.;.;.;.;.;.;.;.;.;.;.;.;.;.;.;.;.;.;.;.;.;.;.;.;.;.;.;.;.;.;.;.;.;.;.;.;.;.;.;.;.;.;.;.;.;.;.;.;.;.;.;.;.;.;.;.;.;.;.;.;.;.;.;.;.;.;.;.;.;.;.;.;.;.;.;.;.;.;.;.;.;.;.;.;.;.;.;.;.;.;.;.",
"^ ^ ^ ^ ^ ^ ^ ^ ^ ^ ^ ^ ^ ^ ^ ^ ~ x z x x z x ~ ^ ^ ^ ^ ^ ^ ^ ^ ^ ^ ^ ^ ^ ^ ^ ^ ^ ^ ^ ^ ^ ^ ^ ^ ^ ^ ^ ^ ~ x z x x z x ~ ^ ^ ^ ^ ^ ^ ^ ^ ~ x z x x z x ~ ^ ^ ^ ^ ^ ^ ^ ^ ^ ^ ^ ^ ~ x z x x z x ~ ^ ^ ^ ^ ^ ^ ^ ^ ^ ^ ^ ^ ^ ^ ^ ^ ^ ^ ^ ^ ^ ^ ~ x z x x z x ~ ^ ^ ",
"x x x x x x x x x x x x x x l 0 z x 0 9 0 l x x x z l l l l l l l l z x x x l l x x l l x x l l l l x x z x 0 9 0 l x x x x l l x x 0 0 z x 0 9 0 l x x x z l l l l l l z x 0 0 z x 0 9 0 l x x l z x x z l l z x x z l z x l l x x x x x z z x 0 9 0 l x x x x ",
"x x x x x ~ ~ ~ ~ ~ ~ ~ ~ ~ l 0 ~ / 0 9 0 x / x x z l l l l l l l l z x x x l l x x l l x x l l l l x x ~ / 0 9 0 x / x x x l l x x 0 0 ~ / 0 9 0 x / x x z l l l l l l z x 0 0 ~ / 0 9 0 x / x l z x x z l l z x x z l z x l l x x x x x z ~ / 0 9 0 x / x x x ",
"z z z z x ^ / / / / / / / ^ z x / >.x 0 x ^ >.^ ~ x z z z z z z z z ~ / / / z z ~ ^ z z ~ ^ z z z z x x / >.x 0 x ^ >.^ / / z z ^ / x x / >.x 0 x ^ >.^ ~ ~ z z z z z z ~ ~ x x / >.x 0 x ^ >.^ z ~ / / ~ z z x / / x z ~ / x z ~ / / / / ^ / >.x 0 x ^ >.^ ~ ^ ",
"z z z z x ^ / / / / / / / ^ z x / >.x 0 x ^ >.^ ~ x z z z z z z z z ~ / / / z z ~ ^ z z ~ ^ z z z z x x / >.x 0 x ^ >.^ / ^ z z ^ / x x / >.x 0 x ^ >.^ ~ ~ x z z z z x ~ ~ x x / >.x 0 x ^ >.^ z ~ / / ~ z z x / / x z ~ / x z ~ / / / / ^ / >.x 0 x ^ >.^ x ^ ",
"z z z z x ^ / / / / / / ^ ~ z x / >.x 0 x ^ >.^ ^ x z z z z z z z x ~ / / ^ z z ~ ^ z z ~ ^ z z z z x x / >.x 0 x ^ >.^ / ^ z z ^ / x x / >.x 0 x ^ >.^ ^ ~ x z z z z x ~ / x x / >.x 0 x ^ >.^ z ~ / / ~ z z x / / x z ~ / x z ~ / / / / ^ / >.x 0 x ^ >.^ z ~ ",
"z z z z x ~ / / / / / / ^ ~ z x / >.x 0 x ^ >.^ ^ ~ z z z z z z z x ~ / / ^ z z ~ ^ z z ~ ^ z z z z x x / >.x 0 x ^ >.^ / ^ z z ^ / x x / >.x 0 x ^ >.^ ^ ^ ~ x z z x ~ ^ / x x / >.x 0 x ^ >.^ z ~ / / ~ z z x / / x z ~ / x z x / / / / ^ / >.x 0 x ^ >.^ z ~ ",
"z z z z x ~ ^ / / / / / ^ x z x / >.x 0 x ^ >.^ / ~ x z z z z z z x ^ / / ~ z z ~ ^ z z ~ ^ z z z z x x / >.x 0 x ^ >.^ ^ ^ z z ^ / x x / >.x 0 x ^ >.^ / ^ ~ ~ x x ~ ~ ^ / x x / >.x 0 x ^ >.^ z ~ / / ~ z z x / / x z ~ / x z x / / / / ^ / >.x 0 x ^ >.^ z ~ ",
"z z z z x ~ ^ / / / H.H.H.H.H.H.H.H.H.H.H.H.H.H.H.H.H.H.H.H.H.H.H.H.H.H.H.H.H.H.H.H.H.H.H.H.H.H.H.H.H.H.H.H.H.H.H.H.H.H.H.H.H.H.H.H.H.H.H.H.H.H.H.H.H.H.H.H.H.H.H.H.H.H.H.H.H.H.H.H.H.H.H.H.H.H.H.H.H.H.H.H.H.H.H.H.H.H.H.H.H.H.H.H.H.H.H.S./ >.x 0 x ^ >.^ z ~ ",
"x z z z x x ^ ^ / / H.F.F.F.F.F.F.F.F.F.F.F.F.F.F.F.F.F.F.F.F.F.F.F.F.F.F.F.F.F.F.F.F.F.F.F.F.F.F.F.F.F.F.F.F.F.F.F.F.F.F.F.F.F.F.F.F.F.F.F.F.F.F.F.F.F.F.F.F.F.F.F.F.F.F.F.F.F.F.F.F.F.F.F.F.F.F.F.F.F.F.F.F.F.F.F.F.F.F.F.F.F.F.F.F.F.D.Q / >.x 0 x ^ >.^ z ~ ",
"x z z z x x ~ ^ / / H.F.D.D.D.D.D.D.D.D.D.D.D.D.D.D.D.D.D.D.D.D.D.D.D.D.D.D.D.D.D.D.D.D.D.D.D.D.D.D.D.D.D.D.D.D.D.D.D.D.D.D.D.D.D.D.D.D.D.D.D.D.D.D.D.D.D.D.D.D.D.D.D.D.D.D.D.D.D.D.D.D.D.D.D.D.D.D.D.D.D.D.D.D.D.D.D.D.D.D.D.D.D.D.D.D.D.Q / >.x 0 x ^ >.^ z ~ ",
"^ ~ z z z x ~ ~ ^ / H.F.D.Q Q Q Q Q Q Q Q Q Q Q Q Q Q Q Q Q Q Q Q Q Q Q Q Q Q Q Q Q Q Q Q Q Q Q Q Q Q Q Q Q Q Q Q Q Q Q Q Q Q Q Q Q Q Q Q Q Q Q Q Q Q Q Q Q Q Q Q Q Q Q Q Q Q Q Q Q Q Q Q Q Q Q Q Q Q Q Q Q Q Q Q Q Q Q Q Q ! ! ! ! ! F.D.Q / >.x 0 x ^ >.^ z ~ ",
"^ ~ z z z z x ~ ~ ^ H.F.D.Q &X&X&X&X&X&X&X&X&X&X&X&X%X&X&X$X&X&X&X&X&X&X$X&X&X&X&XvXnXnXnXNXnXnXNXvXnXnXnXvXnXnXnXnXmXnXnXmXmXmXNXNXvXnXnXnXnXnXmXNXNXmXnXnXmXmXmXnXmXmXmXmXNXnXmXmXmXnXnXnXnXnXnXnXvXnXvXmXnXvXvXcXnXnXnXnXvXvXnXnXG.F.D.Q / >.x 0 x ^ >.^ z ~ ",
"^ ~ z z z z z ~ ~ ~ H.F.D.Q &X&X&X&X&X&X&X&X&X&X&X&X=X&X=X&X&X&X&X&X&X&X=X&X=X&X=XBXvXBXvXnXSXnXnXnXnXnXnXnXvXnXnXnXnXnXcXcXcXnXvXvXvXvXcXcXcXcXvXnXnXnXnXnXNXNXnXmXmXmXmXmXmXmXnXmXnXmXmXmXnXnXvXmXnXnXnXnXvXnXnXvXcXvXvXnXnXvXnXvXH.F.D.Q / >.x 0 x ^ >.^ z ~ ",
"^ ~ z z z z z x x ~ H.F.D.Q &X&X&X&X&X&X5X&X&X5X&X6X&X&X&X=X&X&X=X&X&X&X&X=X=X=X8XBXmXnXnXnXNXnXnXnXNXnXnXnXnXnXnXvXOX=XcX%XoX%X%X=XcXcXcXcXvX%XOXOXcXcXnXvXNXNXmXmXmXmXmXmXNXmXmXnXmXnXmXnXmXvXnXnXvXvXvXvXvXnXvXnXnXnXvXnXcXvXnXnXH.F.D.Q / >.x 0 x ^ >.^ z x ",
"/ ~ x z z z z z x x H.F.D.Q &X&X&X&X&X&X&X&X&X&X&X&X=X&X&X=X&X&X&X=X&X=X&X&X*X&X=XBXnXnXmXBXBXnXnXnXnXBXnXnXnXnXnXOXOX$XU | ] k.OXcXOXOX%XoXc.c.c.c.c.%XcXvXBXMXvXNXvXMXMXmXnXmXmXmXmXnXnXmXmXnXnXnXnXnXnXnXnXnXvXvXvXnXnXnXnXvXvXvXH.F.D.Q / >.x 0 x ^ >.^ z x ",
"/ ^ ~ z z z z z x x H.F.D.Q &X&X&X&X&X#X#X&X&X&X&X&X&X&X&X&X&X&X&X&X%X&X=X=X&X&X=XBXnXSXmXNXNXnXnXnXnXnXnXnXnXcXoXl.o.T ] ] ] | | | k.oXoXx.k.O.| { o.| { O.$.O.k.l.c.=XcXzXzXmXSXSXnXmXmXmXmXnXnXnXnXvXnXnXnXnXnXnXvXvXnXnXnXnXvXnXH.F.D.Q / >.x 0 x ^ >.^ z x ",
"/ / ~ z z z z z z z H.F.D.Q #X&X&X5X&X&X&X&X&X&X&X&X&X*X*X&X*X*X*X*X=X=X=X=X&X&XcXSXmXNXmXNXmXnXnXBXBXvXvXvX%XB.O.T A ] ] ] Y Y U U U U U U Z N Z N N N N N N a 7 7 7 a i a a U d U | %XmXmXmXnXnXnXnXvXnXnXnXvXnXnXnXnXnXnXnXnXnXnXH.F.D.Q / >.x 0 x ^ >.^ z z ",
"/ / ~ x z z z z z z H.F.D.Q &X6X&X&X&X&X&X&X&X&X5X&X&X*X$X*X*X*X*X*X=X$X&X=X=X&XcXmXmXNXBXbXNXnXnX=X=XvXcX%Xc.O.{ ] Z Z Z S A m N f f f f f f f p N f N N a a a 6 , & X + o & , : > u q c.nXmXmXnXnXnXmXmXnXnXvXnXnXnXnXnXnXmXnXnXvXH.F.D.Q / >.x 0 x ^ >.^ z z ",
"^ ^ ^ ~ z z z z z z H.F.D.Q &X&X&X&X&X5X&X&X&X5X&X&X&X*X*X*X*X*X*X*X*X*X*X=X=X=XcXmXNXmXNXMXNXNXvXzXzX=XOXc.l.] U m Z Z Z f f f p p i i i p < p p f f f f a a f 8 7 : % + + + % $ & & , 2 cXmXmXmXmXmXmXnXnXnXnXvXnXnXnXbXnXnXnXnXnXH.F.D.Q / >.x 0 x ^ >.^ z z ",
"^ ^ / ~ z z z z z z H.F.D.Q #X&X&X&X&X&X&X&X5X5X&X5X5X$X*X*X*X*X*X$X*X*X*X7X*X=XcXBXNXMXNXNXMXMXcX%XOXc.OXk.| Y Z m Z Z h h f d i i i i 2 i < i i i s s i f f N N p i ; : * & % $ & = = < Z mXNXmXSXmXnXmXnXvXnXnXnXnXnXnXnXnXnXbXnXH.F.D.Q / >.x 0 x ^ >.^ z z ",
"^ ^ / ^ ~ x z z z z H.F.D.Q &X&X&X&X&X&X&X&X&X&X5X5X6X*X*X*X*X*X7X*X*X*X*X*X*X=XnXnXNXNXNXNXNXNX%XoXoXOXOXo.Y A A Z f f f f f f i i < 2 2 2 2 i i i i i f f f Z U Y Y | U U Y p y 6 < = < d %.mXNXNXmXmXmXmXvXnXmXnXnXmXnXnXnXnXnXbXH.F.D.Q / >.x 0 x ^ >.^ z z ",
"^ ^ / / ~ x z z z z H.F.D.Q &X&X&X&X5X5X&X5X&X&X5X6X5X*X*X*X*X*X*X*X*X*X*X*X*X=XvXNXNXNXNXNXNXvXc.oXc.B.$.Z N A Z Z d s s d d d s s < e 2 < y i q s i i i i f f Z T | $.$.o.$.%.Y f f 2 2 2 i NXSXmXNXmXmXNXnXmXnXnXnXVXVXnXbXnXbXbXH.F.D.Q / >.x 0 x ^ >.^ z z ",
"~ ^ / / ^ ~ z z z z H.F.D.Q &X&X&X&X5X&X5X5X6X&X6X6X6X*X*X*X*X*X*X*X*X*X*X*X*X=XzXMXMXNXNXNXMX*Xk.k.c.$.N N p m f f s s s s d d s s i < < < < 2 i s i i i i i p N N ] | $.$.$.$.| U U N f i i &.SXmXNXmXnXmXnXmXmXmXnXnXnXnXnXVXnXnXH.F.D.Q / >.x 0 x ^ >.^ z z ",
"~ ^ / / / ^ ~ z z z H.F.D.Q 5X5X&X&X5X5X6X5X5X5X&X5X5X7X7X*X*X$X*X*X*X*X*X*X*X8XlX$XzXzXbXcX=XlXo.%.$.2 < e < 2 < q s i e i e s i e < < ; : 6 s s i i i i i i i i i i f Y o.| | ] T U U f i i e mXmXSXmXmXmXmXVXVXnXnXnXVXVXnXnXVXnXH.F.D.Q / >.x 0 x ^ >.^ z z ",
"x ^ / / / / ~ ~ z z H.F.D.Q 5X5X&X#X5X&X5X&X5X&X&X6X6X7X&X*X&X$X$X$X$X$X&X$X$X$XoXx.oX%XOX=X=Xc.] T i > > 6 , : < y s q s s e s 6 , 5 , , < y d i d i e 2 i 2 i < < y 2 d U U ] ] T Z Z N f f i zXBXNXSXNXVXVXnXVXVXnXnXVXVXVXVXnXnXH.F.D.Q / >.x 0 x ^ >.^ x z ",
"x ~ / / / / ^ ~ x z H.F.D.Q 5X5X5X5X&X6X&X5X&X5X6X6X6X7X7X7X&XoXoXoX+X$X&X$X$X$XoXk.c.oXOXOXoXx.Z < , > > : : : , : q s y q q q , , = & = < u s d s e e 2 < < 2 6 < 6 6 < i f A ] T Z Z f f f f ] BXNXNXmXVXVXVXSXVXVXbXnXnXVXVXVXnXH.F.D.Q / >.x 0 x ^ >.^ x z ",
"z ~ ^ / / / / ^ ~ ~ H.F.D.Q 5X5X6X&X5X&X&X5X6X6X8X6X6X*X*X$X+XoX^.^.XX+X5X$X$XoXx.l.oXoXoX%X$.U i , , = & & & & = < q y y q y < 6 , : , , < i s s e < 6 < 6 < 6 y < 6 : : < r p Y A N Z f f f f h mXNXVXVXVXnXVXVXVXVXVXnXnXnXVXVXnXH.F.D.Q / >.x 0 x ^ >.^ x z ",
"z ~ ^ / / / / / ^ ~ H.F.D.Q 6X6X6X5X5X&X6X&X5X6X8X5X8X7X7X$X+X+X+Xz.z.oX&X$X+Xc.$.k.c.c.l.| f e < , , = & $ $ = = i q q q q , < , , , : , < 6 e i e y , < 6 > < y < > : @ = < N ] N N U f f f f d mXmXVXVXVXSXVXVXVXbXVXVXnXVXVXVXbXH.F.D.Q / >.x 0 x ^ >.^ x z ",
"z x ^ ^ / / / / ^ ^ H.F.D.Q 6X6X5X5X5X&X&X6X6X6X5X6X8X7X7X#X^.^.x.k.9.k.XX+X+XoXo.$.c.c.] i < < < , = $ & & = = < < y q q q q , = , = $ = , y y q : < , : : , 6 6 < i 6 : & & U | A f U p f f p N cXVXnXVXVXVXVXVXVXnXnXnXnXVXVXVXnXH.F.D.Q / >.x 0 x ^ >.^ x z ",
"z x ^ ^ / / / / / ^ H.F.D.Q 5X5X6X5X6X5X5X6X6X6X8X5X8X7X&X$XoXz.z.z.k.O.O.c.x.k.] | T f i < e q : , = & = & & 5 , i s s q y y , , : & & = , , & , , < , , , 6 6 y < , = 5 : , < Y i N U f f f s a c.bXDXVXnXSXVXVXVXVXVXbXnXnXnXVXVXH.F.D.Q / >.x 0 x ^ >.^ x z ",
"z z ~ ^ ^ / / / / / H.F.D.Q 6X#X5X6X6X5X6X6X6X6X6X5X5X7X&X+Xc.c.l.k.O.| { | o.G A A d i q e i q 6 , = & = $ & = , < q s q q , , , , , = = = & = , , < : , , , y y 6 , 5 = : , < i i N U f f f s a O.8XbXVXVXVXVXVXVXVXVXnXVXnXVXVXVXH.F.D.Q / >.x 0 x ^ >.^ ~ x ",
"z z ~ ^ ^ / / / / / H.F.D.Q 6XqX5X6X6X6X6X6X6X6X6X5X6X5X#XoXc.9.O.o.| { T T A m f p 2 e e e i e q < , & & % % % = , q y s q < , , , , % % % % & & , 6 , < , , < 6 < < , : , , y i s N Z f f p i f { cXnXnXVXVXVXVXVXVXVXVXVXVXVXVXVXH.F.D.Q / >.x 0 x ^ >.^ ~ x ",
"z z x ~ ^ / / / / / H.F.D.Q #X6X6X6X6X6X8X6X6X6X6X&X6X&Xk.O.o.o.o.| { G C f f p i e 2 q q s s i s < 6 , & % % % & = q q y q , , 6 , 5 & % # % % % < < i , 6 6 < 6 < < , : , 5 y s s p p f f p p p  .bXVXVXnXVXVXVXVXVXVXVXVXVXVXVXVXH.F.D.Q / >.x 0 x ^ >.^ ~ x ",
"z z x ~ ^ ^ / / / / H.F.D.Q 6X6X6X6XqX6X6X6X8X8X6X6X6X+X%.{ Y G T A Z m m m p e e i e e q i d s s i y , , , = = = = q y q q < , , , , = = o % % % , y y , , , , , , 6 < < < y y < q i p f p f s 8 o.cXVXVXSXVXVXVXVXVXVXVXVXVXnXVXVXH.F.D.Q / >.x 0 x ^ >.^ ~ x ",
"z z z x ~ ^ / / / / H.F.D.Q 9X9X5X6X6X6X6X6X6X6X6X7X7X*Xo.A G A m m p t t p i i p e e i e s s h s s e q q q q q q q y q q q q , , , , , $ # % % % , < , < , , , , , , < 6 e e q e s i p p f N N 8 z.&XcXVXVXVXVXVXSXVXVXVXVXVXVXVXVXH.F.D.Q / >.x 0 x ^ >.^ ~ ~ ",
"z z z x ~ ^ ^ / / ^ H.F.D.Q 9X0X6X6X6X6X6X6X6X6X6X5X7X$Xk.C G A N m m t t p p p p e e i e s d f d s e q q s s y y q y q q q < , , , , = o % % % % < < q q , , , , , , < < e e q q e e p f N Z N 8 oX&XcXVXSXSXSXVXVXVXVXVXVXnXVXVXVXH.F.D.Q / >.x 0 x ^ >.^ x ~ ",
"z z z x x ~ ^ ^ ^ ^ H.F.D.Q 9X6X6X6X6X6X6X6X6XqX6X6X6XoXx.A G A m m p f p p p p f e e e t d f f d e y q s d s e s e q i y < < y , , , = & % % % & , y q q y : , , , , 6 y y < e q q e s Z Z Z f p Z C %.VXSXVXVXSXVXSXVXVXVXSXVXVXVXH.F.D.Q / >.x 0 x ^ >.^ x ~ ",
"z z z z x ~ ~ ^ ^ ~ H.F.D.Q 9X6X6X6X5X6X6X6X6X6X6X5X&X^.%.Y G C Z m p p e e p p e e e e t f Z h d e q q y s i e s s q q q < , y 6 6 , , = % % % % < y , y < > , , , , < 6 y < e e e < p N f Z p p i d S VXSXSXSXVXSXVXVXVXVXVXVXVXVXH.F.D.Q / >.x 0 x ^ >.^ x ~ ",
"x z z z x x ~ ~ ~ x H.F.D.Q 9X9X6X5XqX6X6X6X6X6X5X5X+Xc.] T G G Z m p p 1 i p p i e e e Z Z Z s y q < q y t e s s e e y q 6 , u , , , , = & % % = < q s e < < , : , , , , : , , < < < i p N N f p i f o.bXSXSXSXVXVXSXVXnXVXVXVXVXVXH.F.D.Q / >.x 0 x ^ >.^ x ~ ",
"x z z z x x x ~ x x H.F.D.Q 0X9X6X6X5X6X6X6X5X6X5X6X^.k.] ] ] T A m m p e e 2 2 e i e e Z Z d q , , , q e d d d s i i q q < < , , , , , , = & $ = < q < ; , , $ , , 5 , , = = , , , < i p s f f p N N k.&X=XVXSXSXVXVXVXVXVXVXVXVXVXH.F.D.Q / >.x 0 x ^ >.^ x ~ ",
"x z z z z x x x x z H.F.D.Q 9X9X6X6X6X6X6X6X6X6XqXqX^.O.{ { ] ] A m m p e 2 e 2 e e e d f d e , & & & u e d f f d d s i s , < = , , , , , $ = & = , = , = , : = = , = , = = = = , , < < i e f p f f Z +Xc.c.=XVXVXSXVXVXVXVXVXVXVXSXH.F.D.Q / >.x 0 x ^ >.^ x ~ ",
"x x z z z z x x z z H.F.D.Q 6X6X6X6XqX6X6X6X6X6X6X+Xz.o.{ ] ] G U m f p e e e 2 e e e e f q , = & & $ , y e f Z Z S Z m i e q , : , , , : , : = $ = , = , = = $ & % & & = = , = , , , < i i i p i f T &XoXk.k.=XVXVXSXVXVXVXVXVXVXSXH.F.D.Q / >.x 0 x ^ >.^ x ~ ",
"~ x z z z z z z z z H.F.D.Q 9X6X6X6X6X6XqX6X6X6X&X^.O.] ] ] T G T A Z f p e e 2 2 e e e 1 : $ = = = = < 6 e d m G J G G Z f < , : : , : , , : & & , , u = = = & % % % & = , , , , , , < 2 i i i f f A oX$Xo.] &XnXVXVXVXVXVXVXVXVXVXH.F.D.Q / >.x 0 x ^ >.^ x ~ ",
"~ x z z z z z z z z H.F.D.Q 9X0X0X6X6X6X6X6X6X6X6Xc.O.T ] ] T T A m m f e p e 2 > < > < @ : = = & & : < 2 d d C ) ) { J S f q < : : , , , , : $ = < y 2 , = = & % % % $ = = & = = , = , , i i i p f Y c.O.] A c.+XcXVXVXSXSXSXZXVXVXH.F.D.Q / >.x 0 x ^ >.^ x ~ ",
"^ x z z z z z z z z H.F.D.Q 9X6X0XqXqX6X6X6X6X5X5Xx.%.T ] ] Y T m A f f e p 2 e 2 < > @ : : , : & & - < i p m C { { { ..{ A i < , , = , = , & $ , y > , = $ = $ % o % % & , = = = 5 = < < i i i p N ] o.| A T c.XX&XcXVXVXVXSXVXVXDXH.F.D.Q / >.x 0 x ^ >.^ x x ",
"^ ~ z z z z z z z z H.F.D.Q 9X0X0X9X6XqX6X6XqX5X#Xx.z.] Y ] Y A m m i p e p i e 2 < : : @ : : : : : , 2 2 r M G ) X.X.....G e , : & = = = , , : , , & & $ o $ = % % % % & = = = = = , < < 2 < 2 e f U ] A m ] O.z.^.cXVXVXSXSXSXVXVXH.F.D.Q / >.x 0 x ^ >.^ z x ",
"^ ~ z z z z z z z z H.F.D.Q 9X5X9X6X6X5XqXqX6X5X+X~.@.] T T Y A m d p e e 2 i i 2 2 2 > : : : , : > 2 i p A J { X.X.O.O.o.] e : = & & = & 6 , & , , 4 $ & $ = $ = % % # & = = = = = , , , > > y e p f Z Z Z S ] O.x.=XnXSXVXVXVXVXVXH.F.D.Q / >.x 0 x ^ >.^ z x ",
"^ ^ z z z z z z z z H.F.D.Q 6X9X0X6X6XqX5X6X6X5X+X^.@.] T G U Z m r p 2 e e e p e 2 p 1 3 2 2 n p n N d C 9.7.7.X.X.X.) C t e : $ = & $ & : , , , : @ $ $ o $ $ % o % % % $ & = = & : : , & : , < i d e e f Z T ] %.OXbXSXVXVXVXSXVXH.F.D.Q / >.x 0 x ^ >.^ z x ",
"^ ^ x z z z z z z z H.F.D.Q 9X9X5X6X6X6X6X6XqX5X+X5Xx.T T U T m f e i e e 2 e e e 2 2 3 3 8 n 8 n n n B t.t.t.7.9.9.X.) C d i = & $ $ $ & , 6 ; : @ O @ O $ $ = % o % % % % & = = = = = = = = < < < e q e e p Z A k.#XVXVXSXVXDXSXVXH.F.D.Q / >.x 0 x ^ >.^ z z ",
"^ ^ ~ z z z z z z z H.F.D.Q 5X9X6X6X6X6X0X6X#X6X5X5X+Xo.G Z m p f f e 1 e 2 2 1 1 3 n E E n n n B v 4.t.s.].].n.} { { C m e : & & $ $ = = < < < , : O & @ $ = $ # # % # % # % & o % & % = & = , < > < < < < < p D ^.6XVXVXDXVXDXSXSXH.F.D.Q / >.x 0 x ^ >.^ z z ",
"~ ^ ~ z z z z z z z H.F.D.Q 6X9X9X0X0X0X0X6X6X6X#X#X5XO.T A m p p i e e 2 1 1 8 n B E g.5.6.6.4.t.p.'.rXaXaX].M. .B M v 2 ; & $ $ $ & $ & < y i , > : & & = & & % # # # % # # % % & % & $ $ = $ & : , : : < i p J 5XcXVXVXSXVXSXVXSXH.F.D.Q / >.x 0 x ^ >.^ z z ",
"~ ^ ~ x z z z z z z H.F.D.Q 9X6X0X0X0X0X0X6X6X6X6X6X5Xx.o.G m e i 2 e 2 2 3 3 Y V R E E W 5.j.v.].uXuXhXaXaXrXn. .D r 2 2 : , : $ $ = & = < 2 e 2 2 > > , : : & % % + o   # o + o + # % % & = = = $ $ = = , 1 p ^.$XbXSXZXSXSXSXVXSXH.F.D.Q / >.x 0 x ^ >.^ z z ",
"x ^ ^ x z z z z z z H.F.D.Q 0X0X6X0X6X6X0XqX6X6X5X6X+XXX%.] Z p 2 e e 2 2 3 n { V R R K K K 4.v.m.rXuXhXaXrXm.t.} B c p r 3 8 1 < < ; < < > < p r r 3 1 7 < 2 = % % o o # o # + + o # # % & $ & $ $ & $ = , 2 m +XVXbXVXSXSXSXSXSXSXH.F.D.Q / >.x 0 x ^ >.^ z z ",
"x ~ ^ ~ z z z z z z H.F.D.Q 5X9X6X0X0X0XwX0X6X6X6X6X+X+X^.o.m p i i 2 3 3 8 V E E E E E K L W 0.v.'.uXhXuXrXn.0.} H Y B B B B M V H H H B n p r r p 3 p r 2 e & & @ + o o o o o o o o o % & = & =   & , : 6 2 r oX=XSXSXDXSXDXSXSXVXH.F.D.Q / >.x 0 x ^ >.^ x z ",
"x ~ ^ ~ x z z z z z H.F.D.Q 9X0X0X0XqXqXqX6X6X6X6X6X5X&X+X| A p p m 3 3 3 n R 5.g.j.v.v.6.4.6.q.v.'.uXaXuX].n.7.} } W W } E E E } E W W E R V m r r n c c p e < , + + o + o o o o o + o % = = & & & & , , > 2 p oXbXcXVXSXSXSXDXSXSXH.F.D.Q / >.x 0 x ^ >.^ x z ",
"x ~ ^ ^ x z z z z z H.F.D.Q 6X9X9X0X6X0X6X6XqX0XqX6XqX5X^.T U p m p p 8 p B 0.M.M.Z.Z.M.v.v.v.v.n.'.hXhXuXn.t.7.} } W } 5.9.9.9. . .} } W E E V n n n c c r r < , + + +   o   o   o   o + & & & $ = = i e 2 7 p +X=XnXnXSXSXDXVXSXSXH.F.D.Q / >.x 0 x ^ >.^ x z ",
"z ~ ~ ^ ~ x z z z z H.F.D.Q 9X9X0X0X9X0X0X0X0XqX0XqXqX6Xz.] A A n n n p 8 V b.Z.Z.Z.M.j.5.4.4.6.v.'.hXhXdXs.7.P K L E E 5.9.5.5.E H L R W W W } H n M n n p 8 2 > @ &     + o o o     o @ O & = , , 6 e i i i p | &X6XVXVXSXSXSXDXVXH.F.D.Q / >.x 0 x ^ >.^ x z ",
"z x ~ ^ ~ x z z z x H.F.D.Q 5X9X9X9X0X0X0XqX6X6X6XqXqX6Xz.Y T T n A n 8 8 R M.M.M.6.j.g.W V V V } m.hXkXuXY.' V V K K W W N.E 1 3 j v V L W W } E V V M n p 8 7 > $ + o     o o   o o o + O @ = , , < 2 i i e p C z.&XVXVXVXSXSXDXSXH.F.D.Q / >.x 0 x ^ >.^ x z ",
"z x x ^ ^ ~ x x x ~ H.F.D.Q 5X0X0X0X0X0X0X0XqXqXqX6XqX0Xz.] ] T n n n 8 8 } Z.b.4.b.V W Y - : j E m.kXhXtXy.' b b F P 4.xXxXFX: @ - 3 j V W W } } L E J H M p 2 > $ + o o   o o o o o   o @ $ : > > 2 7 i 7 7 p A o.nXcX8X$XDXDXVXSXH.F.D.Q / >.x 0 x ^ >.^ x z ",
"z x x ~ ^ ^ ~ x x ^ H.F.D.Q 0X9X9X0X0X9X0XqXqXqXwX0X6X9X^.] T ] N d 8 8 8 6.A.M.6.K W N.N.@ > j L '.fXdXT.r.) F F L P M.xXOX8 - : 2 3 j V E E W } } } ) F A m p > @ o o   o o + o   o + + O & : > > > 7 < > 2 i C G 8X=Xk.&XVXDXSXSXH.F.D.Q / >.x 0 x ^ >.^ x z ",
"z z x ~ ^ ^ ~ x ~ ^ H.F.D.Q 5X9X9XqX0X0X9XqXqX0XqXqXqX0Xc.o.%.%.U 2 7 7 1 v.Z.b.4.4.0.B.H ; j 8.C.dXtXtXY.e.' ' ' e.s.n.n.v. .n H W L V K W L } } 7.7.} L G m e > & + + @ + o o + o o o + & & , > > 6 : > 7 7 i o.T o.c.=XVXSXSXSXSXH.F.D.Q / >.x 0 x ^ >.^ x z ",
"z z x x ^ ^ ^ ~ ^ ^ H.F.D.Q 5X6X9X9X9X9X6X0X0XwXwXqXqX6X^.@.k.k.U > < 8 7 M.Z.b.v.v.v.v.t.p.p.p.T.dXtXT.y.w.' w.w.e.s.p.m.m.v.q.6.4.4.W W 4.4.8.8.r.r.e._ H M 7 < @ + + @ + o o o o + @ @ , : , , : , , > > > > T | l.l.oXVXSXSXSXSXH.F.D.Q / >.x 0 x ^ >.^ x z ",
"z z z x ~ ^ ^ ^ ^ ~ H.F.D.Q 9X9X9X6X6X6X0X0X0XwX0XqXqXqX&XoXk.@.m 7 ; 7 1 A.rXb.C.rXrXrXm.m.q.p.fXsXW.a.w.' w.w.y.a.s.p.p.p.q.q.4.4.4.8.0.t.p.d.s.s.u.r.} J M 2 : & @ + @ o o o o o + + 4 , , : , @ : : : 7 < 7 $.o.o.%.@.DXSXSXSXSXH.F.D.Q / >.x 0 x ^ >.^ x x ",
"z z z x ~ ~ ^ ^ ~ ~ H.F.D.Q 9X5X9X0X9X6X0X0XqX0XwXqXwX7X7X7X#X%.2 > 2 7 j rXaXrXC.rXC.m.i.d.uXfXdXdXR.y.w.' ' w.P.R.T.T.d.d.p.d.C.d.d.d.d.d.s.s.s.s.u.u.} L G 2 : & @ @ @ + @   o o   & & , : , & & & @ : , 6 < o.o.%.O.O.VXjXnXVXSXH.F.D.Q / >.x 0 x ^ >.^ x x ",
"z z z z x ~ ~ ~ ~ x H.F.D.Q 9X5X2X0X6X6X0XqX0XqXqXwX0X7X7X7X5Xz.1 1 7 1 V iXiXiXpXiXgXgXgXfXfXfXdXdXR.P.w.' w.w.P.W.W.Q.Q.W.E.E.E.E.E.T.T.Y.Y.s.s.s.u.r.X.) J p : @ & @ + % o o o o @ @ 4 : , : & & & & & 4 , > N | ] { o.8XcXbXDXDXH.F.D.Q / >.x 0 x ^ >.^ x x ",
"z z z z x x ~ ~ x x H.F.D.Q 5X5X6X0X9X9X0X0X0X0XqXwXwX7X7X5X5Xx.1 8 > 1 V iXgXgXgXgXgXgXgXgXfXfXfXdXR.P.w.' ' w.R.W.Q.sXsXyXW.W.W.W.E.T.T.s.Y.s.s.s.y.e.X.) L n , : & @ + % & o o o + @ & 4 , , & @ @ & @ @ & > r p A { z.OXSXVXSXVXH.F.D.Q / >.x 0 x ^ >.^ x x ",
"z z z z z x x x x z H.F.D.Q 5X9X5X9X0X9X5X0XqXwX0X0X0XqX5X^.+Xc.i 2 2 2 E pXgXgXgXgXgXgXgXfXgXfXkXfXR.y.w.` ' w.P.Q.sXsXsXsXsXsXyXW.W.T.a.Y.s.s.a.a.u.e.X.) ) J > @ @ @ $ % % o o o @ @ & & & & @ @ O O $ O O $ : i x.XXoXz.DXSXSXSXH.F.D.Q / >.x 0 x ^ >.^ x ~ ",
"z z z z z z x x z z H.F.D.Q 5X6X5X9X9X9X0X0X6XqX0X0XwX6X6X+Xz.( f 2 2 7 8.gXpXgXgXgXgXgXgXfXkXkXkXtXr.' ' ' 2.w.w.R.Q.sXsXsXfXsXyXyXW.T.T.a.s.s.a.y.u.e.X.) ) D C , @ o @ % & + % % + & @ @ @ @ o @ o O O & $ $ = > %.oX^.qXAXSXSXSXH.F.D.Q / >.x 0 x ^ >.^ x ~ ",
"z z z z z z z z z z H.F.D.Q 9X9X2X9X9X0X6X0X9XqXqX0XqXqX6X+X%.U p 2 > 2 p.pXpXgXgXgXgXgXgXyXiXeXeXt._ ) ` ` ' 2.w.P.W.sXfXsXyXyXyXtXE.T.T.a.a.y.y.r.r.7.} ) L H n 2 , @ O % o & @ o @ $ & + + + + o O O O o $ @ : e o.o.^.cXVXDXSXVXH.F.D.Q / >.x 0 x ^ >.^ x ~ ",
"x z z z z z z z z z H.F.D.Q 9X9X9X9X9X0X6X0X0X0X0XqXwX6X5X^.x.N 2 1 < e s.pXgXgXgXgXgXgXiXrX].m.v.4.L b P ` ` _ P w.P.Q.fXsXyXsXtXW.E.T.a.a.a.y.e.e.2.7._ ) L D M p > @ @ @ @ $ $ $ @ o o + o o + + + + o O O @ & i p Z O.cXnXSXSXSXH.F.D.Q / >.x 0 x ^ >.^ x ~ ",
"x z z z z z z z z z H.F.D.Q 0X5X5X9X0X6X0X0X0X0XqXqXqXwX9Xz...A p i i t s.pXgXgXgXgXgXyXeXm.4.4.9.} v 3 v F F F F w.y.R.yXyXsXsXW.E.T.T.a.a.y.e.2.7.2._ _ ) L D M e > @ O @ O @ O $ @ @ o + + + + + + + O O O O , 2 r m z.cXDXSXSXDXH.F.D.Q / >.x 0 x ^ >.^ z ~ ",
"x z z z z z z z z z H.F.D.Q 5X9X9X9X9X9X0X0X0XqXqXqXqX0X9Xz.] m f d p 2 i.gXgXpXgXiXeXd.'.q.k P 4.L v 3 1 c v v v +.y.a.tXyXyXtXtXE.T.a.a.r.r.2.2.2.' X._ L L D M e > & O @ O @ $ $ $ O @ + o o o + + + O O O @ : 2 d Y cXVXDXSXSXSXH.F.D.Q / >.x 0 x ^ >.^ z ~ ",
"x x z z z z z z z z H.F.D.Q 5X0X9X9X9X6X9X0XqXqXqX0XqX0XqXXXo.A f p p p d.gXgXpXpXyXE.d.eXuX0.j.6.L V v j c c v b w.Y.Y.E.tXtXyXeXT.a.a.y.r.r.2.2.2.' _ ) L F F M e : O o @ O o O @ o @ O o o o o o + + O o O O : - e x.DXSXSXSXSXSXH.F.D.Q / >.x 0 x ^ >.^ z ~ ",
"~ x z z z z z z z z H.F.D.Q 5X5X6X9X9X9X2X6X0X6XqXqXqX0XqXqXXX%.| a i f s.gXpXpXiXf.i.d.rX0.} W } W } B v c 3 3 b w.y.s.T.E.eXeX'.d.s.i.r.e.2.' ` ' _ ) ) L J D m 2 > $ @ O O O @ O O @ O + o o o o o + + o O @ = < A 8XVXSXSXSXSXSXH.F.D.Q / >.x 0 x ^ >.^ z ~ ",
"~ x z z z z z z z z H.F.D.Q 5X9X9X9X9X9X0X9X9X0X0X0XwXwXwXqXqX^.z.T p i d.iXiXiXC.d.i.v.} W E K L E E B B c c c v ) ` ' r.r.f.eXT.d.s.i.r.2.2.' ' ' _ _ ) L J G m r > 4 @ @ @ @ + @ O & + + o o o o o o + O o $ < T o.oXVXSXSXSXSXVXH.F.D.Q / >.x 0 x ^ >.^ z x ",
"~ x x z z z z z z z H.F.D.Q 5X9X9X9X9X6X0X0X6X6XqX0XwXwX0X0X6X+X%.[ i i t.eXiXeXC.p.0.L K V V V V V V B B v c c v b b Z C L 7.d.d.d.i.r.8.2.2.` ' ' _ _ ) L J G m r 2 > > : @ : > < 2 < = + o o + + o O O O @ $ A k.$X$XVXSXSXSXDXnXH.F.D.Q / >.x 0 x ^ >.^ z x ",
"^ ~ x z z z z z z z H.F.D.Q 9X2X9X9X0X9X9X6X9X0X6X0XqXqXqX0X0X6XXX&.U r L eXeXeXp.8. .K V V V V n n V B n n v c c c c v v M n _ m.d.d.r.8.2.2.' _ ' _ ) ) L G C p r 2 e r e e r p p 7 7 : + o     o o o o o O & ] ^.oX8XnXDXSXDXVXSXH.F.D.Q / >.x 0 x ^ >.^ z x ",
"^ ~ x z z z z z z z H.F.D.Q 5X0X9X5X9X9X9X9X0X0X9X0XqX0XwXqXwXqXjX,Xx.] L iXeXeX0.P K V K V V V E 8.0.E M v n v v v c r r c n b 8.'.s.t.7.7.2.' _ ' _ ) ) L D C p 2 e r r j M M m c 8 2 O o   o o o o o + o & = %.+X&XVXSXVXDXSXVXVXH.F.D.Q / >.x 0 x ^ >.^ z x ",
"^ ~ x x z z z z z z H.F.D.Q 5X9X5X0X5X9X0X5X9XqX0X0X0XwXwXqXqX0XqXqXqX+Xn.eXeXm.} L V L F L W 8.q.q.8.4.L F F B C c v t t r 2 M X.'.d.t.7.7.' 2.X.X.X.X.) L D v 2 r 2 r c v v C A m p @ & o o o o o o o + O $ & %.=XbXVXVXSXSXSXVXSXH.F.D.Q / >.x 0 x ^ >.^ z z ",
"^ ^ x x z z z z z z H.F.D.Q 5X9X9X5X5X5X0X0X,X0X0X0X0X9XqXqXwXqXqXqX6XqXoXeXeX0.L v V V K W 4.1.3.3.3.1.1.P P K v r t r 2 C Y v ` '.s.r.7.7.' ' _ X._ ) ) J M t 1 2 2 r M M M M A i & o o     o o + o # o O O = @.8XnXZXZXZXZXSXVXVXH.F.D.Q / >.x 0 x ^ >.^ z z ",
"^ ^ ~ x x z z z z x H.F.D.Q 2X0X2X9X5X5X9X9X9X9X9X0X0X0X0X6XqXqX0X6X0X6X^.rXrX0.K v v P 0.8.q.E.E.yXtXE.d.r.1._ F ) L P ) 8.4.P u.'.s.r.7.7.7.X.X._ _ ) L D M t e 2 2 c M C D Z &             o   o # # % @ @ $ x.VXVXnXZXZXZXSXVXVXH.F.D.Q / >.x 0 x ^ >.^ z z ",
"~ ^ ~ x x z z z z x H.F.D.Q ,X,X,X2X,X2X2X5X5X9X9X0X0X6X6XqXqXqXqX5X6X+Xl.n.m.v.K j K m.C.rXuXiXyXyXE.E.d.'.u.r.7.7._ 1.8.p.p.7.n.s.u.7.7.7.7.7.X._ ) L J C r e > 2 e p m n p X o o       o     o + % % % % % & &.ZXZXZXZXZXZXZXVXVXH.F.D.Q / >.x 0 x ^ >.^ z z ",
"~ ^ ^ ~ x x z z x x H.F.D.Q @X,X,X,X#X,X2X2X5X5X9X9X6X6X6X9X6X6XqX6X6X#Xn.g.n.v.} P 8.aXaXaXuXuXm.t.r.d.s.s.i.7.e.r.y.s.'.'.'.s.n.s.p.7.7.7.7.X._ ) ) F D v r e < 2 2 2 ; &     o     o o + o o o + % = & @ + $ o.ZXZXZXZXZXDXZXVXVXH.F.D.Q / >.x 0 x ^ >.^ z z ",
"x ^ ^ ~ x x z z x x H.F.D.Q @X#X>X,X,X,X,X,X5X5X5X5X9X9X9X0X0X6X9X9X6X#Xl.9.v.0.8.p.'.aXaXm.n.t.t.7.7._ _ 2.2.2.e.y.Y.Y.[.[.'.t.s.s.r.7.7.7.7._ _ J J D C t t e > > 2 2 @ o           o   o o # % & & 4 = & % % o.ZXZXZXxXV.B.ZXZXZXH.F.D.Q / >.x 0 x ^ >.^ z z ",
"x ~ ^ ^ ~ x x x x ~ H.F.D.Q  X X>X>X>X,X,X,X,X5X2X2X2X5X2X9X9X9X9X9X2X#Xc.} 4.0.0.v.uXaXaXt.7.7.} L L ) _ 7.2.7.r.y.Y.[.[.'.[.r.p.r.7.7.2._ _ ) ) ) C m r 2 q > , 2 2 < &     .     o o o o o + & $ , , & & % % [ ZXZXnX,.,.-.=XZXZXH.F.D.Q / >.x 0 x ^ >.^ z z ",
"x ~ ^ ^ ~ ~ x x ~ ~ H.F.D.Q }./.@X>X>X>X,X,X,X,X2X2X,X2X2X9X9X5X9X2X2X@XoX} 4.0.0.v.aXaXs.7.7.} P b F _ 2.2.r.r.y.s.Y.[.[.'.'.r.7.7._ ) _ ) ) L J J C c r r < > , 1 i 7 @     .     X o o   o & @ , , , * % % % ] ZXZXxX,.=.*.vXZXZXH.F.D.Q / >.x 0 x ^ >.^ z z ",
"z x ^ / ~ ~ x x ~ ~ H.F.D.Q ~.}.@X>X@X>X1X,X,X,X,X,X9X2X2X2X5X5X2X2X2X#X@XX.} 4.8.n.uXaXn.t.7.7.L P 2.e.Y.Y.Y.Y.[.Y.[.[.Y.s.e.e._ X.} J D J J D D b v e 2 1 < 6 > t e 7 &     . . . . o o o o + % & , < = & % % [ nXZXJ.<.,.,.aXZXCXH.F.D.Q / >.x 0 x ^ >.^ z z ",
"z x ^ / ^ ~ ~ ~ ~ ^ H.F.D.Q }. X@X@X>X.X>X@X>X>X,X>X,X2X2X,X5X5X2X2X2X1XjXk.E L 0.t.'.aXaX].t.8._ t.r.r.Y.Y.[.[.[.[.Y.Y.Y.e.e.7.} ) J D A C m M v r r 1 1 < = , > t p 7 & o   . . . . o o o o + % % , < = & % % [ mXV.V.,.<.<.,.h.OXH.F.D.Q / >.x 0 x ^ >.^ z z ",
"z x ^ / ^ ~ ~ ~ ~ ^ H.F.D.Q  X}.}.@X@X@X>X>X>X1X,X,X,X,X,X,X,X2X2X3X1X2XwX^.B V W t.n.m.t.0.t.t.7.t.t.u.a.s.Y.R.[.Y.Y.a.e.X.{ ) J G M v c m v c r r 2 , < & $ ; r p p < % . . . . .       o o % & = = 6 & % $ $ ] xX<.<.<.,.,.=.R } H.F.D.Q / >.x 0 x ^ >.^ z z ",
"z x ~ / / ^ ~ ~ ^ ^ H.F.D.Q }.}.{.}..X@X>X>X>X>X>X,X2X,X2X2X,X2X2X2X2X3X3X}.B B L } 9.t.t.n.t.t.t.t.t.u.r.y.Y.R.a.Y.e.X.{ ) J C G v M v c r t 2 2 1 ; , , & & < m c p < %   . . . .       o % % = = , 6 & % $ $ | xX-.,.-.=.=.R k 9.H.F.D.Q / >.x 0 x ^ >.^ z z ",
"z z ~ / / / ^ ^ ^ / H.F.D.Q }.}.{. X.X.X.X@X>X>X@X@X>X2X1X1X1X1X1X1X1X1X3X1XD n B L } 8.t.8.0.7.7.e.r.r.7.7.e.e.X.' ) ) S C m c v t 3 r r 2 2 ; ; : : : $ & & r m m r , .   . . . . . # #   # + 4 & , , & % o o ; } } E R W R R R k.H.F.D.Q / >.x 0 x ^ >.^ z z ",
"z z ~ ^ / / ^ ^ / / H.F.D.Q /.}.}. X.X.X.X@X.X@X@X>X@X>X>X>X>X1X>X>X,X1X3X3XJ n n B L 7.t.7.7.7.7.9.7.7.7.X.X.) ) ) J m v t t t r 2 1 1 1 2 1 6 : , = & $ = , m m m i $ X # . . . . # # # # % & & & , , = %   # $ i m m A n n n j 1 H.F.D.Q / >.x 0 x ^ >.^ z z ",
"z z ~ ~ ^ / / / / / H.F.D.Q /.}._. X.X.X.X.X@X.X@X@X.X>X>X@X>X>X>X>X>X1X3X4XO.n M C B _ } 7._ } } L } { { { { ) J C m r r t t t < , , : : - , : : & $ = = , v B A m 2 @ o     . .   # # # # # % , 4 6 < & % # o # = = 5 4 , $ - 1 , H.F.D.Q / >.x 0 x ^ >.^ x z ",
"z z ~ ~ ^ / / / / / H.F.D.Q /././. X X.X X X.X X.X@X@X@X@X>X;X;X;X;X;X;X1X1X~.M n n n M P } ) } L ) L L J J G D C v t 2 2 1 2 2 > > ; : : = & $ $ $ $ $ $ 2 A D A r <   $     . . # # # # % % & , 6 6 < & % # # # % % # % o % : 1 , H.F.D.Q / >.x 0 x ^ >.^ x z ",
"z z x x ^ ^ / / / / H.F.D.Q /././.|.{..X X X X X.X.X.X.X.X;X>X;X;X;X|.;X>X1X1X{ n n p p n H J J Y H D M D A C c r m r 2 > > < > : - : & & & $ $ $ $ o O = r B J D 2 > # o # . . . # # # # # % & , , 6 , & % o # # # # % % % # 1 > > H.F.D.Q / >.x 0 x ^ >.^ x z ",
"z z z x ~ ^ / / / / H.F.D.Q /./._..X}.}.}.}. X X X X}.}..X;X.X;X.X.X|.;X;X1X1X@.n 3 3 3 3 c n n r r p r p c c 3 r 2 r > > > - : $ $ : & O & O $ $ $ $ $ 1 G J D M p > #   # . # . . # # # % % = 6 6 u < & % o     # % % % % # 1 > > H.F.D.Q / >.x 0 x ^ >.^ x z ",
"z z z x ~ ^ / / / / H.F.D.Q /././.|.|.}.}. X}. X}.}. X X X.X;X.X.X;X;X.X;X1X1Xz.C 3 1 2 2 2 1 1 2 2 3 3 3 1 3 1 e 1 > ; > : : & $ & @ $ $ $ $ $ $ $ @ & 3 F J F C e - # . . . . . . # # % % % = , u 6 u & % o   # % % % $ % # n > 1 H.F.D.Q / >.x 0 x ^ >.^ x x ",
"z z z x ~ ^ ^ / / / H.F.D.Q /././.|.|._.}.}.}.}.}.}.}. X X X.X|.|.|.;X.X;X1X#X5X%.r 3 2 1 1 > > > 1 > : ; > > 3 2 < & $ @ : & $ $ $ O $ $ $ $ $ O $ & ; v F L J M 2 : . # . . . . # # # % # = 5 5 6 6 u & % o   # = 5 % = % % 1 2 ; H.F.D.Q / >.x 0 x ^ >.^ ~ x ",
"z z z z ~ ~ ^ / ^ ^ H.F.D.Q ~.~.~.>XwX2X`._.}.}._. X}._.{.|.|.|.|.|.|.|..X1X3X>X XO.1 7 > > > > : : @ @ : - ; 2 : & $ & $ $ $ $ $ $ O O o $ O O o $ : v J J L J M r : o     . . # #   # # % , 5 u 6 , y & % #   o I l.u i d c 2 2 2 H.F.D.Q / >.x 0 x ^ >.^ ~ x ",
"z z z z ~ ~ ^ / ^ ~ H.F.D.Q 9XwX2X,X>X X>X|._._.{._._.{._._.{.{.|.|.).|..X.X1X1X3X+X] 1 > > > : & @ @ O @ @ & & & $ $ $ $ $ O $ $ $ O O @ o o $ $ - e B F F F F B r ; % # o . o # # # % % , 6 6 6 , 6 6 % % .   % g. .= i f G n - e H.F.D.Q / >.x 0 x ^ >.^ ~ x ",
"z z z z x x ~ ^ ^ ~ H.F.D.Q @X@X`.`.`.~.@.#._._.|._._. X/._.{.{._._.).|..X|.,X3X2X9X^.2 : > ; : & : O O O & @ O $ $ $ $ $ $ O $ $ & O o o o o $ $ < c b F F J J D r < # o     .   # # = : u u u 6 6 6 6 & %     % B.I , i d G r 2 2 H.F.D.Q / >.x 0 x ^ >.^ ~ ~ ",
"z z z z z x ~ ^ ~ ~ H.F.D.Q ..[ ( w q w s g )._.)._.{./._./._._._.{.;X|.|. X@X2X1X2X6XO.> > > : @ @ @ O O O @ O $ $ $ O O $ $ $ O O O o O O O : ; 3 v D F F D F M p < $ #   . . + @ 4 , 6 u u u 5 6 5 u = % . .   xX> < e m J 3 e 2 H.F.D.Q / >.x 0 x ^ >.^ ^ ~ ",
"z z z z z x ~ ~ ~ x H.F.D.Q h s h s s s s [ wXwXjXjXz.!.~./._._._.GXCX|.|..X X@X#X0XjX}.m ; > : : : @ & @ @ O O $ $ $ O @ $ $ O o O O @ O @ & ; 1 n D J B F F D M r 2 = , , , < ] U ] y 6 u q 6 u 6 , , % % % . % lX@ , e Z { r 1 2 H.F.D.Q / >.x 0 x ^ >.^ ^ ~ ",
"z z z z z x x ~ ~ x H.F.D.Q h h s s s s h @.1X`.L.[ [ !././.~.).CXCXjX( ( ..z.~._./.6XjXx.e > - - : @ : @ : @ @ $ O O O @ $ $ $ $ $ @ : @ ; 8 v v B D F F F F B M r v ] | ..[ ....#...[ [ 5 6 5 5 5 = 5 % . . .   J.$ = d Z { 1 2 e H.F.D.Q / >.x 0 x ^ >.^ ^ ~ ",
"z z z z z z x ~ ~ x H.F.D.Q h h h s h s h #.#.qXz././.~././._._.}.1X5X@.@.o...@.( v jXCX7XZ e > 1 1 > > ; > : : & : : , @ $ $ & = , - > ; j v B V V F F F F B D J { ..O.#.#.#.#.K.K.#.#.[ h 5 , , , , = % # o   & N.$ = e Z { 1 2 e H.F.D.Q / >.x 0 x ^ >.^ ^ ~ ",
"z z z z z z x ~ x x H.F.D.Q S S g CXGXx.( g S g ( ..z.!.~.~./._.}.}././././.~./.!.CXbXCXCX7Xc.1 Y 3 p 8 2 8 p 2 > 1 1 ; 7 > > 1 1 3 j n v B B V H L J F F { O.O.k.u.!.I.(.I.I.I.K.K.K.#...[ s , , 5 , = % % #     U $ , e Z { 1 > 2 H.F.D.Q / >.x 0 x ^ >.^ ^ ~ ",
"z z z z z z x x x z H.F.D.Q CXCXHXCXHXHXHXHXJXjXGX9X( ( g w S [ @.~././.@X X X@XjXjXCXCXCXCX&X2 g.g.5. . .E W V Y D B H n n B B V V V H E L L E L L L E O.k.l.!.).).).(.).).(.I.I.U.K.#...[ ] , = & * * % #     # # % < s h ] 1 r r H.F.D.Q / >.x 0 x ^ >.^ ^ ~ ",
"z z z z z z z x x z H.F.D.Q CXCXHXHXHXHXHXHXJXCXwX4X;X@.w g g ( ( ( [ [ ..#.#.jXwXqXCXqX5X#X#Xc.b.A.Z.b.g.6.5.5. .W } 5.5.5.}  .W W } W } } W E L E g.k.l.~._.-X;X).;X).).).(.(.(.U.(.I...[ ] , & = = = % %     . % % y e Z J > 2 r H.F.D.Q / >.x 0 x ^ >.^ ^ ^ ",
"x z z z z z z z z z H.F.D.Q jXHXHXHXAXHXHXHXJXJXjX(.I.(.(.#.#.!._. X/.{.}.1X{._.@X3X@X1X+XOXc.5.Z.A.A.b.b.j.j.j.j.b.j.j.g.j.6.6.6.g.5.5.} } } E l.l._.).;X;X;X:X;X-X).).).(.).(.(.I.I.!.!.#.[ 5 * * * & # o #     # % & < C m > e e H.F.D.Q / >.x 0 x ^ >.^ / ^ ",
"x z z z z z z z z z H.F.D.Q CXHXHXHXHXHXHXjXjXGXjX;X+.K.U.(.I.I.).).I.!.).|..X;X;X>X@X{.~.9.l.W b.A.A.A.Z.b.b.b.b.j.j.j.j.j.j.j.j.g.5.5.5.} O.c.|.4X4X4X;X;X`.-X`.;X;X(.I.#.I.I.K.+.#.#.#.I.!.u = * * % % # .     # % & < C r > e 2 H.F.D.Q / >.x 0 x ^ >.^ / ^ ",
"x x z z z z z z z z H.F.D.Q HXHXHXHXHXHXHXGXjXjXjXwX4X+.K.U.I.K.I.U.(.).!.~.I.I.(.|.I.I.#.) { B.b.A.A.Z.Z.Z.b.b.b.b.b.b.b.b.j.j.j.g.5.g.oXwX:X:X<X4XwX4X4X;X|.).I.(.(.).;X(.I.(.jX4X<X<X<X;X|.).).#.w % % # # .   # , $ 2 G 3 2 2 e H.F.D.Q / >.x 0 x ^ >.^ / ^ ",
"x x z z z z z z z z H.F.D.D.G.H.H.H.H.H.H.H.H.H.H.H.H.H.H.H.H.H.H.H.H.H.H.H.H.H.H.H.H.H.H.H.H.H.H.H.H.H.H.H.H.H.H.H.H.H.H.H.H.H.H.H.H.H.H.H.H.H.H.H.H.H.H.H.H.H.H.H.H.H.H.H.H.H.H.H.H.H.H.H.H.H.H.H.H.H.H.H.H.H.H.H.H.H.H.H.H.H.H.H.H.F.D.Q / >.x 0 x ^ >.^ / ^ ",
"~ x z z z z z z z z G.F.F.F.F.F.F.F.F.F.F.F.F.F.F.F.F.F.F.F.F.F.F.F.F.F.F.F.F.F.F.F.F.F.F.F.F.F.F.F.F.F.F.F.F.F.F.F.F.F.F.F.F.F.F.F.F.F.F.F.F.F.F.F.F.F.F.F.F.F.F.F.F.F.F.F.F.F.F.F.F.F.F.F.F.F.F.F.F.F.F.F.F.F.F.F.F.F.F.F.F.F.F.F.F.F.D.Q / >.x 0 x ^ >.^ / ^ ",
"~ x z z z z z z z z F.D.D.D.D.D.D.D.D.D.D.D.D.D.D.D.D.D.D.D.D.D.D.D.D.D.D.D.D.D.D.D.D.D.D.D.D.D.D.D.D.D.D.D.D.D.D.D.D.D.D.D.D.D.D.D.D.D.D.D.D.D.D.D.D.D.D.D.D.D.D.D.D.D.D.D.D.D.D.D.D.D.D.D.D.D.D.D.D.D.D.D.D.D.D.D.D.D.D.D.D.D.D.D.D.D.D.Q / >.x 0 x ^ >.^ / ^ ",
"~ x x z z z z z z z Q Q Q Q Q Q Q Q Q Q Q Q Q Q Q Q Q Q Q Q Q Q Q Q Q Q Q Q Q Q Q Q Q Q Q Q Q Q Q Q Q Q Q Q Q Q Q Q Q Q Q Q Q Q Q Q Q Q Q Q Q Q Q Q Q Q Q Q Q Q Q Q Q Q Q Q Q Q Q Q Q Q Q Q Q Q Q Q Q Q Q Q Q Q Q Q Q Q Q Q Q Q Q Q Q Q Q Q / >.x 0 x ^ >.^ / ^ ",
"~ ~ x z z z z z z z z x ~ ^ x x / >.x 0 x ^ >.^ z z z z ~ ~ ^ ^ ^ / ^ ^ ~ x z z z z z z x ^ / ^ z z x ~ / >.x 0 x ^ >.^ / / ^ ^ ~ x x x / >.x 0 x ^ >.^ z z z z z z z z z z z x / >.x 0 x ^ >.^ x z ~ ~ ^ ^ x z z z z z z z z x x ~ ^ ~ x x / >.x 0 x ^ >.^ / ^ ",
"^ ~ x x z z z z z z z x ~ ^ x x / >.x 0 x ^ >.^ z z z z x ~ ~ ^ ^ ^ ^ ~ x z z z z z z z ~ ^ / ^ z z x ~ / >.x 0 x ^ >.^ / ^ ^ ~ ~ z x x / >.x 0 x ^ >.^ z z z z z z z z z z x x / >.x 0 x ^ >.^ x z ~ ~ ^ ^ x x z z z z z z z x x ~ ~ ~ x x / >.x 0 x ^ >.^ / ^ ",
"^ ~ x x z z z z z z z x ^ ^ x x / >.x 0 x ^ >.^ z z z z z x ~ ~ ^ ^ ~ ~ x z z z z z z x ~ ^ / ~ z z x x / >.x 0 x ^ >.^ / ^ ^ ~ x z x x / >.x 0 x ^ >.^ z z z z z z z z z z x x / >.x 0 x ^ >.^ x z z ~ ^ ^ x x z z z z z z z z x x ~ ~ x x / >.x 0 x ^ >.^ / ^ ",
"^ ~ ~ x z z z z z z z x ^ ^ x x / >.x 0 x ^ >.^ z z z z z z x ~ ~ ~ ~ x z z z z z z z x ~ ^ / ~ z z x x / >.x 0 x ^ >.^ ^ ^ ~ x z z x x / >.x 0 x ^ >.^ z z z z z z z z z z x x / >.x 0 x ^ >.^ x z z x ~ ^ ~ x z z z z z z z z z x x ~ x x / >.x 0 x ^ >.^ / ^ ",
"^ ^ ~ x z z z z z z x x ^ ^ x x / >.x 0 x ^ >.^ z z z z z z z x ~ ~ x z z z z z z z z x ^ / ^ x z z x x / >.x 0 x ^ >.^ ^ ~ x z z z x x / >.x 0 x ^ >.^ z z z z z z z z z z x x / >.x 0 x ^ >.^ ~ z z x ~ ~ ~ x z z z z z z z z z z x x x x / >.x 0 x ^ >.^ / ^ ",
"^ ^ ~ ~ x z z z z x ~ ~ ^ ^ x x / >.x 0 x ^ >.^ z z z z z z z z x x z z z z z z z z x ~ ^ ^ ~ x z z x x / >.x 0 x ^ >.^ ~ x z z z z x x / >.x 0 x ^ >.^ x z z z z z z z z x x x / >.x 0 x ^ >.^ ~ x z z ~ ~ ~ x x z z z z z z z z z z x x x / >.x 0 x ^ >.^ ^ ^ ",
"^ ^ ~ ~ x x z z x x ~ ~ ~ ~ x x / >.x 0 x ^ >.^ x z z z z z z z z z z z z z z z z z x ~ ~ ~ ~ z z z x x / >.x 0 x ^ >.^ x z z z z z x x / >.x 0 x ^ >.^ x x z z z z z z x x x x / >.x 0 x ^ >.^ ~ x z z x ~ ~ ~ x z z z z z z z z z z z x x / >.x 0 x ^ >.^ ^ ^ "
};
