/* XPM */
static char *easter_egg2[] = {
/* columns rows colors chars-per-pixel */
"128 128 256 2 ",
"   c #1D130D",
".  c #1E1412",
"X  c #271A0B",
"o  c #311F0B",
"O  c #241B14",
"+  c #261816",
"@  c #2C1E14",
"#  c #321D17",
"$  c #2B230F",
"%  c #35230D",
"&  c #2A2116",
"*  c #2B231B",
"=  c #2B281C",
"-  c #332315",
";  c #3B2E17",
":  c #33241B",
">  c #392719",
",  c #322B1D",
"<  c #3C2B1D",
"1  c #3B331C",
"2  c #2D2C24",
"3  c #2C2828",
"4  c #2E2F2E",
"5  c #392523",
"6  c #342C23",
"7  c #3B2C23",
"8  c #363626",
"9  c #3B3324",
"0  c #34332B",
"q  c #3B342A",
"w  c #3C3C2D",
"e  c #363836",
"r  c #3B3D33",
"t  c #451D16",
"y  c #442B17",
"u  c #512A15",
"i  c #43331B",
"p  c #49341A",
"a  c #4B3B1B",
"s  c #54361B",
"d  c #573F1F",
"f  c #492726",
"g  c #552E2C",
"h  c #443423",
"j  c #433A24",
"k  c #4C3B23",
"l  c #473528",
"z  c #433C2B",
"x  c #4C3C2A",
"c  c #533C24",
"v  c #563A28",
"b  c #473C33",
"n  c #593534",
"m  c #643A29",
"M  c #653B37",
"N  c #3B402C",
"B  c #3D4135",
"V  c #5F5F00",
"C  c #59411F",
"Z  c #6B6B00",
"A  c #4B442A",
"S  c #5F4323",
"D  c #54432B",
"F  c #56472B",
"G  c #5B442C",
"H  c #434234",
"J  c #48463A",
"K  c #544333",
"L  c #564836",
"P  c #5C4B33",
"I  c #5B4B3B",
"U  c #5B5439",
"Y  c #6F4B27",
"T  c #64482A",
"R  c #76462D",
"E  c #774F2B",
"W  c #70522E",
"Q  c #664B35",
"!  c #764B3A",
"~  c #675537",
"^  c #65533C",
"/  c #6B533B",
"(  c #765739",
")  c #76633C",
"_  c #332C45",
"`  c #3F3E60",
"'  c #483B4A",
"]  c #6A3E41",
"[  c #533E69",
"{  c #3F4342",
"}  c #474845",
"|  c #4B4C43",
" . c #564C44",
".. c #4D5049",
"X. c #53544C",
"o. c #595748",
"O. c #524F55",
"+. c #585953",
"@. c #684745",
"#. c #695846",
"$. c #765A45",
"%. c #7B5C43",
"&. c #665856",
"*. c #765150",
"=. c #5E6359",
"-. c #6A6548",
";. c #776648",
":. c #7D624A",
">. c #77744D",
",. c #63645B",
"<. c #686858",
"1. c #786956",
"2. c #6D705F",
"3. c #797556",
"4. c #585066",
"5. c #6F5B6B",
"6. c #4E6364",
"7. c #696B64",
"8. c #7A6868",
"9. c #6E7166",
"0. c #767869",
"q. c #786774",
"w. c #7B7C74",
"e. c #83532F",
"r. c #845E2F",
"t. c #864C3E",
"y. c #8B5B33",
"u. c #855B3A",
"i. c #935F37",
"p. c #905E3B",
"a. c #85643A",
"s. c #845A47",
"d. c #945A4A",
"f. c #8A5551",
"g. c #866847",
"h. c #83644C",
"j. c #8B6C4C",
"k. c #956749",
"l. c #8B724C",
"z. c #96744B",
"x. c #856954",
"c. c #8A6C53",
"v. c #966A55",
"b. c #897559",
"n. c #947554",
"m. c #987957",
"M. c #93755B",
"N. c #9B7B5D",
"B. c #A97153",
"V. c #A6785A",
"C. c #825D6E",
"Z. c #877565",
"A. c #8E706F",
"S. c #977766",
"D. c #9C7C64",
"F. c #A67B67",
"G. c #A6746D",
"H. c #B27D64",
"J. c #7E826E",
"K. c #878700",
"L. c #939300",
"P. c #AFAF00",
"I. c #BBBB00",
"U. c #D7D700",
"Y. c #8B8558",
"T. c #9B825B",
"R. c #A6845B",
"E. c #B4855B",
"W. c #838263",
"Q. c #88886A",
"!. c #998567",
"~. c #95926B",
"^. c #878A79",
"/. c #948A71",
"(. c #8D9579",
"). c #969879",
"_. c #A48464",
"`. c #AC8C65",
"'. c #A78668",
"]. c #AC8C6C",
"[. c #B78769",
"{. c #AB936B",
"}. c #B6946C",
"|. c #A88773",
" X c #AC8C73",
".X c #B78C75",
"XX c #AA9676",
"oX c #B49473",
"OX c #BA9A74",
"+X c #B89678",
"@X c #BB9C7B",
"#X c #9EA07C",
"$X c #B0A27C",
"%X c #C5956C",
"&X c #C48B70",
"*X c #C69877",
"=X c #D29A7B",
"-X c #C6A37B",
";X c #6A5B96",
":X c #6737EE",
">X c #6F48DA",
",X c #92718E",
"<X c #9473AF",
"1X c #A37EA0",
"2X c #9674C7",
"3X c #9E79DC",
"4X c #8B8D83",
"5X c #959987",
"6X c #9A9D83",
"7X c #92928B",
"8X c #A78785",
"9X c #A7908B",
"0X c #B99785",
"qX c #9DA187",
"wX c #9CA296",
"eX c #A5A689",
"rX c #BBA583",
"tX c #B9AE8D",
"yX c #A7AA96",
"uX c #AEB29A",
"iX c #B5B799",
"pX c #B08FAA",
"aX c #8EA1A9",
"sX c #AEB2A8",
"dX c #B7BBA6",
"fX c #C08F81",
"gX c #C99B85",
"hX c #D49D85",
"jX c #C3A483",
"kX c #C9A889",
"lX c #D4A383",
"zX c #D7A689",
"xX c #C9B48B",
"cX c #CFAA90",
"vX c #D8A796",
"bX c #CBB892",
"nX c #D2BA94",
"mX c #E1AA8B",
"MX c #E7B296",
"NX c #E9B698",
"BX c #E1B8A9",
"VX c #BEC3A9",
"CX c #BCC4B5",
"ZX c #D1C297",
"AX c #C2C5AA",
"SX c #C6CAB4",
"DX c #D5D2B3",
"FX c #F5C6A7",
"GX c #AF9BCB",
"HX c #B68CF1",
"JX c #B9B1E1",
"KX c #CDD8CC",
"LX c #D5DAC3",
"PX c #DAE6DA",
"IX c #E6EBCF",
"UX c #F6FCF6",
/* pixels */
"E E E E E E E E E E E E E E E E E E E E E E E E E E E E E E E E E E E E E E E E E E E E E E E E E E E E E E E E E E E E E E E E E E E E E E E E E E E E E E E E E E E E E E E E E E E E E E E E E E E E E E E E E E E E E E E E E E E E E E E E E E E E E E E E ",
"S S S S S S S S S S S S S S S S S S S S S S S S S S S S S S S S S S S S S S S S S S S S S S S S S S S S S S S S S S S S S S S S S S S S S S S S S S S S S S S S S S S S S S S S S S S S S S S S S S S S S S S S S S S S S S S S S S S S S S S S S S S S S S S S ",
"y.y.y.y.y.y.y.y.y.y.y.y.y.y.y.y.y.y.y.y.y.y.y.y.y.y.y.y.y.y.y.y.y.y.y.y.y.y.y.y.y.y.y.y.y.y.y.y.y.y.y.y.y.y.y.y.y.y.y.y.y.y.y.y.y.y.y.y.y.y.y.y.y.y.y.y.y.y.y.y.y.y.y.y.y.y.y.y.y.y.y.y.y.y.y.y.y.y.y.y.y.y.y.y.y.y.y.y.y.y.y.y.y.y.y.y.y.y.y.y.y.y.y.y.y.y.y.y.",
"i.i.i.i.i.i.i.i.i.i.i.i.i.i.i.i.i.i.i.i.i.i.i.i.i.i.i.i.i.i.i.i.i.i.i.i.i.i.i.i.i.i.i.i.i.i.i.i.i.i.i.i.i.i.i.i.i.i.i.i.i.i.i.i.i.i.i.i.i.i.i.i.i.i.i.i.i.i.i.i.i.i.i.i.i.i.i.i.i.i.i.i.i.i.i.i.i.i.i.i.i.i.i.i.i.i.i.i.i.i.i.i.i.i.i.i.i.i.i.i.i.i.i.i.i.i.i.i.",
"e.e.e.e.e.e.e.e.e.e.e.e.e.e.e.e.e.e.e.e.e.e.e.e.e.e.e.e.e.e.e.e.e.e.e.e.e.e.e.e.e.e.e.e.e.e.e.e.e.e.e.e.e.e.e.e.e.e.e.e.e.e.e.e.e.e.e.e.e.e.e.e.e.e.e.e.e.e.e.e.e.e.e.e.e.e.e.e.e.e.e.e.e.e.e.e.e.e.e.e.e.e.e.e.e.e.e.e.e.e.e.e.e.e.e.e.e.e.e.e.e.e.e.e.e.e.e.e.",
"Y Y Y Y Y Y Y Y Y Y Y Y Y Y Y Y S d a d d a d S Y Y Y Y Y Y Y Y Y Y Y Y Y Y Y Y Y Y Y Y Y Y Y Y Y Y Y Y S d a d d a d S Y Y Y Y Y Y Y Y S d a d d a d S Y Y Y Y Y Y Y Y Y Y Y Y S d a d d a d S Y Y Y Y Y Y Y Y Y Y Y Y Y Y Y Y Y Y Y Y Y Y S d a d d a d S Y Y ",
"d d d d d d d d d d d d d d i ; a d ; $ ; i d d d a i i i i i i i i a d d d i i d d i i d d i i i i d d a d ; $ ; i d d d d i i d d ; ; a d ; $ ; i d d d a i i i i i i a d ; ; a d ; $ ; i d d i a d d a i i a d d a i a d i i d d d d d a a d ; $ ; i d d d d ",
"d d d d d S S S S S S S S S i ; S E ; $ ; d E d d a i i i i i i i i a d d d i i d d i i d d i i i i d d S E ; $ ; d E d d d i i d d ; ; S E ; $ ; d E d d a i i i i i i a d ; ; S E ; $ ; d E d i a d d a i i a d d a i a d i i d d d d d a S E ; $ ; d E d d d ",
"a a a a d Y E E E E E E E Y a d E i.d ; d Y i.Y S d a a a a a a a a S E E E a a S Y a a S Y a a a a d d E i.d ; d Y i.Y E E a a Y E d d E i.d ; d Y i.Y S S a a a a a a S S d d E i.d ; d Y i.Y a S E E S a a d E E d a S E d a S E E E E Y E i.d ; d Y i.Y S Y ",
"a a a a d Y E E E E E E E Y a d E i.d ; d Y i.Y S d a a a a a a a a S E E E a a S Y a a S Y a a a a d d E i.d ; d Y i.Y E Y a a Y E d d E i.d ; d Y i.Y S S d a a a a d S S d d E i.d ; d Y i.Y a S E E S a a d E E d a S E d a S E E E E Y E i.d ; d Y i.Y d Y ",
"a a a a d Y E E E E E E Y S a d E i.d ; d Y i.Y Y d a a a a a a a d S E E Y a a S Y a a S Y a a a a d d E i.d ; d Y i.Y E Y a a Y E d d E i.d ; d Y i.Y Y S d a a a a d S E d d E i.d ; d Y i.Y a S E E S a a d E E d a S E d a S E E E E Y E i.d ; d Y i.Y a S ",
"a a a a d S E E E E E E Y S a d E i.d ; d Y i.Y Y S a a a a a a a d S E E Y a a S Y a a S Y a a a a d d E i.d ; d Y i.Y E Y a a Y E d d E i.d ; d Y i.Y Y Y S d a a d S Y E d d E i.d ; d Y i.Y a S E E S a a d E E d a S E d a d E E E E Y E i.d ; d Y i.Y a S ",
"a a a a d S Y E E E E E Y d a d E i.d ; d Y i.Y E S d a a a a a a d Y E E S a a S Y a a S Y a a a a d d E i.d ; d Y i.Y Y Y a a Y E d d E i.d ; d Y i.Y E Y S S d d S S Y E d d E i.d ; d Y i.Y a S E E S a a d E E d a S E d a d E E E E Y E i.d ; d Y i.Y a S ",
"a a a a d S Y E E E U.U.U.U.U.U.U.U.U.U.U.U.U.U.U.U.U.U.U.U.U.U.U.U.U.U.U.U.U.U.U.U.U.U.U.U.U.U.U.U.U.U.U.U.U.U.U.U.U.U.U.U.U.U.U.U.U.U.U.U.U.U.U.U.U.U.U.U.U.U.U.U.U.U.U.U.U.U.U.U.U.U.U.U.U.U.U.U.U.U.U.U.U.U.U.U.U.U.U.U.U.U.U.U.U.U.U.K.E i.d ; d Y i.Y a S ",
"d a a a d d Y Y E E U.P.P.P.P.P.P.P.P.P.P.P.P.P.P.P.P.P.P.P.P.P.P.P.P.P.P.P.P.P.P.P.P.P.P.P.P.P.P.P.P.P.P.P.P.P.P.P.P.P.P.P.P.P.P.P.P.P.P.P.P.P.P.P.P.P.P.P.P.P.P.P.P.P.P.P.P.P.P.P.P.P.P.P.P.P.P.P.P.P.P.P.P.P.P.P.P.P.P.P.P.P.P.P.P.P.L.V E i.d ; d Y i.Y a S ",
"d a a a d d S Y E E U.P.L.L.L.L.L.L.L.L.L.L.L.L.L.L.L.L.L.L.L.L.L.L.L.L.L.L.L.L.L.L.L.L.L.L.L.L.L.L.L.L.L.L.L.L.L.L.L.L.L.L.L.L.L.L.L.L.L.L.L.L.L.L.L.L.L.L.L.L.L.L.L.L.L.L.L.L.L.L.L.L.L.L.L.L.L.L.L.L.L.L.L.L.L.L.L.L.L.L.L.L.L.L.L.L.L.V E i.d ; d Y i.Y a S ",
"Y S a a a d S S Y E U.P.L.V V V V V V V V V V V V V V V V V V V V V V V V V V V V V V V V V V V V V V V V V V V V V V V V V V V V V V V V V V V V V V V V V V V V V V V V V V V V V V V V V V V V V V V V V V V V V V V V V Z Z Z Z Z P.L.V E i.d ; d Y i.Y a S ",
"Y S a a a a d S S Y U.P.L.V ).(.(.6X(.(.(.(.(.(.(.(.(.(.(.(.^.^.6XqXqX5XwX(.(.5XqXAXAXqX).eX6XSXqXqX6XDXuXuXuXqXqXqXeXqXqXuXdXIXIXIXLX).6X6XSXDXDXIXSXCXCXyXdXsXsXsXsXwXwXKXsXsXSXVXVXCXCXdXSXLXIXDXDXDXDXIXIXUXUXUXUXUXUXUXsXwXwXwXI.P.L.V E p.d ; d Y i.Y a S ",
"Y S a a a a a S S S U.P.L.V (.(.(.qXeX).(.(.6X6X(.).(.(.(.(.(.(.J.(.(.(.6XqXqX6X6XeXeXSXAXyXdXLXdXdXyXeXeXeXuXdXyXyXAXuXuX6XLXSXSXSXAXeXdXdXIXVXVXAXIXuXuX5XCXyXyXLXKXsXwXsX5X5XKXSXAXAXAXDXIXLXuXuXuXDXSXIXIXIXUXUXUXUXUXUX4XwXwXwXU.P.L.V E p.d ; d Y i.Y a S ",
"Y S a a a a a d d S U.P.L.V (.(.(.(.(.6XyX).qXqX).6X(.).).6X(.(.(.(.(.(.qX).).).qXVXVXVXeXyXiXqX).).6X).).).uXdXeXVXiXLXLXVXqXuXuXuXuXuXuXuXdXqXqXSXLXdXdXLXdXdXdXuXSXdXyXKXSXSXCXSXCXCXyXyXdXSXuXSXSXiXCXuXuX4XsXIXIXUXUXUX4X7X7X7XU.P.L.V E p.d ; d Y i.Y a d ",
"E S d a a a a a d d U.P.L.V (.(.(.(.(.uX(.qX(.(.).).(.(.eXyXQ.Q.iXQ.Q.).qXyXyXSX).qXqX6XqXeXeX6X6X6X6X6XQ.Q.^.(.^.^.uXuXuXqXqXqXqXqXdXVXiXiXyX6X6XqXyXeXeXuXSXdXdXSXuXwXdXuXuXuXyX5XwXwX5X5XyXuXuXuXuXuXuXuXuXsX5XKXKX4XUXUXCX7XwXwXU.P.L.V E i.d ; d Y i.Y a d ",
"E Y S a a a a a d d U.P.L.V (.qX#X).(.(.Q.Q.Q.Q.~.eXqXqX).yXeXeXDXVXVXVX6XAXAXeX).6X6XeXqXqX#X6XyXyX6XQ.Q.Q.J.Q.Q.5XCXVXVXIXyXeXeXeXVXyXqXqXdXLXLXeXLXyXyXAXLXSXSXuXDXSXdXdX(.(.5XyXdXdX5X).yXsXuXdXdXuXyXuXuXdXIXPXPX7Xw.w.CXyX4X4XU.P.L.V E i.d ; d Y i.Y a d ",
"E E S a a a a a a a U.P.L.V ).).).6XuXdXAX(.#X#XeX).eXeX(.eX(.(.Q.eXeXqXqXuXuXSXuXdXdXiXiXeXdXqX).).6XQ.J.J.(.dXyXLXyX(.(.0.^.dXdXdXLXqX5X5XqXeXyXdXeXuXuXuX6XLXLXuXuXyX4XuX5X5X(.4X5X5XdX6XyXJ.yX^.^.yXiXAXCXSXLXKXKXw.7.7.9.wX^.^.U.P.L.V E i.d ; d Y i.Y a a ",
"E E S d a a a a a a U.P.L.V (.(.(.).(.(.#XAXAXAX#XeXW.W.eX#X#X#XAXeXeXiXqX).).(.eXeXeXeX#XyXeXuXiXiX(.Q.6X6X).0.5X5X^.5X5XJ.^.0.0.0.5XyX5X5X).SXSXDXIXDXDXyXAX).(.yXqX^.(.6X5X5XCX^.SXSXSXdXuXuX5XyXyXuXuXSXSXuX6XyXyX4X^.^.<.0.wXwXU.P.L.V E i.d ; d Y i.Y a a ",
"Y Y Y S a a a a a a U.P.L.V Q.(.(./.eXqXeXiXDXDXiXiXiXiXtX#X).).).#X#XeXQ.W.W.).eX).).).eXeXLXyXeXeXyXdX6X6XyX^.(.uX^.0.0.Q.9.(.^.^.5X0.7X7X0.5X).iX#X).).^.6X5X).(.5X5XdX^.qXwX6XwXdXdXyX4X^.5X^.5X5X5XyXqXqXeXwX5X5X5X0.0.9.9.4X4XU.P.L.V E i.d ; d Y i.Y a a ",
"Y Y E S a a a a a a U.P.L.V Q.(.(./.eXqXeXiXDXDXiXiXiXiXtX#X).).).#X#XeXQ.W.W.).eX).).).eXeXLXuXeXeXyXdX6X6XyX^.(.uX^.0.0.^.9.(.^.(.5X0.7X7X0.5X).iX#X).).^.6X5X5X^.5X5XdX^.wXwX6XwXdXdXyX4X^.5X^.5X5X5XyXqXqXeXwX5XwX5X0.0.9.9.4X4XU.P.L.V E i.d ; d Y i.Y a a ",
"Y Y E Y S d a a a a U.P.L.V 3.Q.Q.tXeXiXAXiXAXAXeXiXtXtX$X~.#X#X).eXeXiXeXeXeXtXdXiXiXyX6XeXqXeX(.(.).W.0.0.eX-.o.<.| | | w.J.,.,.,.+.} J } 7.<.<.X.^.0.0.+.9.9.9.7.0.+.,.w.^.^.0.^.wXwX0.sX7.^.0.0.0.9.0.0.0.4X^.wXwXyXwXwX0.7.).).U.P.L.V E i.d ; d Y i.Y a a ",
"Y Y E E S d a a a a U.P.L.V eX~.~.Q./.~.~.).).).~.~.Y.Y.~.#XIXIXeXXX#XiXeXiXiXuXeXuXuXeX).J.Q.6XQ.Q.3.Q.W.W.3.<.2.J +.,.,.9.J +.+.+.} 4X^.^.=.,.,.CX9.=.=.} } } } ..O...+.wXdXdX9.^.^.^.0.4X7X9.w.w.w.7.9.7.7.9.^.^.^.w.5X5X0.0.dXdXU.P.L.V E i.d ; d Y i.Y a a ",
"S Y E E Y S a a a a U.P.L.V eX~.~.Q./.~./.).).).~.~.Y.Y.).#XIXIXeXXXXXiXeXuXuXuXeXuXuXeX).J.W.6XQ.Q.3.Q.W.W.3.<.2.J +.,.,.9.J +.+.+.} 4X^.^.,.,.,.CX9.=.=.} } } } ..O...+.wXdXdX9.^.^.^.0.4X7X9.w.w.w.7.9.7.7.9.^.^.^.0.5X5X0.0.dXdXU.P.L.V E i.d ; d Y i.Y a a ",
"S Y E E E Y S a a a U.P.L.V W.>.>.-.3.3.W.~.~.~.Y.b.Q.Q.Q.Y.Q.Q.).-.-.>.~.).)./.W.3.3.-.).3.>.3.-.-.o.J <.<.^.B | e J } } r 2 7.,.,.0.| ,.,.,.B B 4 ..7.7.} e e e B O.{ ..{ 7.7...+.w.w.w.w.0.w.w.^.^.+.+.+.+.,.,.7.7.<.9.9.9.7.^.^.U.P.L.V E i.d ; d Y i.Y a a ",
"d Y E E E E S S a a U.P.L.V U >.>.>.>.Q.Q.Q.>.>.>.-.3.3.~.>.>.>.W.W.W.)./.>.>.(.W.Q.Q.0.>.3.3.o.-.-.H H w w H J r | r J J 9.^.w r w 9.,.4 4 4 4 4 } e 4 4 e e e e { { O.O.{ O.O.+.7.4X4X^.^.w.7.9.,.,.+.+.+.+.+.=.9.7.+.+.+...w.4X4XU.P.L.V E i.d ; d Y i.Y d a ",
"d S E E E E Y S d a U.P.L.V U >.>.>.>.Q.Q.Q.>.>.>.-.3.3.~.>.>.>.W.W.W.)./.>.>.(.W.Q.Q.0.>.3.3.o.-.-.H H w w H J r | r J J 9.^.w w r 9.,.4 4 4 4 4 } e 4 4 e e e e { { ..O.{ O.O.+.7.4X4X^.^.w.,.9.,.,.+.+.+.+.+.=.9.9.+.+.+...w.4X4XU.P.L.V E i.d ; d Y i.Y d a ",
"a S Y E E E E Y S S U.P.L.V (.).).$X).#X~.~.~.~.XX~.Q.Q.~.Q.W.W.>.>.-.U <.-.-.U U L L 3.-.-.3.U 8 8 8 J <.<.o.B J ..e r r r J | | | eXdXDXDX<.7.7.J | ,.,.+.9.<.<.+.9.+.J.,.+.+.7.9.| | ..| 9.9.+.+.+.+.+.+.+.X.w.7X7X=.} } } X.....U.P.L.V E i.d ; d Y i.Y d a ",
"a S Y E E E E E Y S U.P.L.V ~.XXXXXX#X~.~.~.~.~.W.>.W.W.b.3.b.3.iXW.W.eXW.W.W.3.H 8 8 J L >.Z.z , , 8 J o.o.J o.w 0 2 X.X...| 9.9.9...dXQ.Q.iX0.0.6XuX9.9.+.yX0.0.w.9.X.9.=.B B | | 4X4XJ.H w.+.w.X.X.X.X.X.X...4X5X5Xw.....} { 4 4 U.P.L.V E i.d ; d Y i.Y d a ",
"a d Y Y E E E E Y Y U.P.L.V ~.XXXXXX#X~.~.~.~.~.W.>.W.W.b.3.b.b.iXW.W.eXW.W.W.2.H 8 8 J L >.Z.z , , 8 J o.o.J o.w 0 2 X.X.X.| 9.9.9...dXQ.Q.iX0.0.6XuX9.9.+.yX0.0.w.9.X.9.=.B B | | 4X4XJ.B w.+.w.X.X.X.X.X.X...4X5X5Xw.....} { 4 4 U.P.L.V E i.d ; d Y i.Y d a ",
"a d Y Y E E E E E Y U.P.L.V DXZXZXDX{.XX~.b.3.3.3.>.eXeX3.3.>.>.-.3.3.U 3.qXqXW.0.^.^.Q.0.>.o.1 8 8 , 8  . .J = 8 0 J 2 2 e H } } } ..| H H ^.).).Q.o.<.<.2.0.<.<.+.X.X.=.J.| | =.<.| | 0.0.0.7.4X+.+.9.} ,.,.X.X...X.} B B e e e e U.P.L.V E i.d ; d Y i.Y d a ",
"a a S Y Y E E E E E U.P.L.V eXZXbXZXZXY.~.~.3.3.>.-.>.>./.3.3.3.-.o.o.8 H 9 9 #.A U U Z./.-.A A w w w o. . .b H 6 2 2 2 2 2 2 0 0 0 0 8 H H r o.o.5X2.0.0.o.o.....X.9.| o.+.| | | 8 r r 9.J 9.o.X.| | | J e e J J | | | | | +.B | | U.P.L.V E i.d ; d Y i.Y S d ",
"a a S Y Y E E E E E U.P.L.V eXZXZXZXbXY.~.~.3.3.>.-.>.>./.3.3.>.-.o.o.8 H 9 9 #.A U U Z./.-.A A w w w o. . .b H 6 2 2 2 2 2 2 0 0 0 0 8 H H r o.o.5X2.0.0.o.o.....X.9.| o.+.| | | 8 r r 9.J 9.o.X.| | | J e e J J | } | | ..+.B | | U.P.L.V E i.d ; d Y i.Y S d ",
"a a d S Y E E E E E U.P.L.V Y.Y.Y.>.Y.>.Y.-.-.-.Q.XXQ.Q.;.-.A A U L L A o.3.3.-.A -.-.).3.U Z.3.L L z z z z z q 0 2 2 0 0 0 r 2 2 2 0 r 0 0 H J J b 2.H H +.+.| | | X.<.J X.J J +.<.o.o.0.<.+.+.| X.X.+.+.X.X...=.| | ,.| | +.e e e U.P.L.V E i.d ; d Y i.Y S d ",
"a a d S Y Y E E E E U.P.L.V -.~ ~ >.-.>.-.W.>.>.-.-.F F U U 3.3.-.F L U U -.-.1./.Q.Q.3.b.b.#.j , , z z J J 6 6 6 6 6 6 6 H z z z z  . .w w H 0 0 r H o.o.H 0 0 4 H | J X.| &.&.....<.<.o.o.2.,.r X.X.b o. . .J +.7.7.+.0.0.9.+.,.,.U.P.L.V E i.d ; d Y i.Y S d ",
"a a a d S Y E E E E U.P.L.V -.~ ~ >.-.>.-.W.>.>.-.-.F F U P 3.3.-.F F U U -.-.1./.Q.Q.>.b.b./ j , , z z J J 6 6 6 6 6 6 6 H z z z z  . .w w H 0 0 r H o.+.b 0 4 4 H | J X.| &.&.....<.<.o.&.2.,.r X.X.b o. . .J +.7.7.+.9.9.9.+.=.=.U.P.L.V E i.d ; d Y i.Y S S ",
"a a a d S Y Y E E Y U.P.L.V U -.-.F ^ >.W.b.3.3.3.>.3.3.b.Q.^ ^ ^ U U -.^ -.-.1.1.b.b.b.;.#.A a h h x z q q 7 z K K h Q Q #.P ^ ^ ^ #.I J J H 0 0 q J H H J 9 2 2 2 0 H J o. . . .o.&.&.<.<.<.<.<.o.o.+.<.o.o.+.J H H ,.....| w.9.9.U.P.L.V E i.d ; d Y i.Y d S ",
"a a a d d S Y Y Y Y U.P.L.V U ^ ^ U P -.~.>.U U F U -.-.-.W.W.W.-.U U P 3.).)./.b.;.;.;.P F D k k k P $.$.$./ G #.Q k ^ ^ :.#.P P P ^ @.I I J 2 2 X.q H H J b 2 2 * 2 0 ..H J J J J J J  .o.o.&.o.o.o.o.X.o.o. .7.| | | X.X.<.| +.+.U.P.L.V E i.d ; d Y i.Y d S ",
"a a a a d S S Y Y S U.P.L.V L U U U 1.U -.-.U U U 1.U U ^ P L L A ^ ^ -.^ ~ ~ P A A A Q ;.h.( / $.$.h.h.x.x.Q %.%.%.Q ^ ^ $.x.P P P Z.#.I I A 8 8 J J z z z z 2 2 2 2 r 6 r , , z w A A z H b z z z z b J | | H b J J +.,.,.X.,.....U.P.L.V E i.d ; d Y i.Y d S ",
"d a a a d d S S S d U.P.L.V P ^ ^ ^ ^ U L U U U A A U U K A A A A F F F P ~ ~ 1.;.;.;.T.m.z.( h.c.c.( Q ( ( x.h.b.h.$.$.$.#.#.L L L 1.$.z z , 6 6 #.#.I I K o.6 6 = J b  .I I I U o.I I U I o. .b 9 9 6 2 6 6 q q 0 0 0 0 0 r | | | U.P.L.V E i.d ; d Y i.Y d S ",
"d a a a d d d S d C U.P.L.V A -.#.^ ^ U U U ^ ^ A A z z j j h h k ~ ~ $.x.m.m.m.T.R.R.R.z.g.m.n.n.n.j.M.W W S / $.;.:.;.;.1.D #.#.#.L l K K z q q I I K K x I 6 6 o.L $.:.x.h.h.:.$.$.$.~ P x K x q q 6 6 6 6 0 2 2 2 * 0 0 0 H | | U.P.L.V E i.d ; d Y i.Y d S ",
"d a a a a d d d C a U.P.L.V <.#.#.A F U ^ L L L A A j j j 1 i j F h.h.M.T.R.R.T.`.OXOX{.m.R.'.R.'.'.n.N.!._.M.c.$.c Q ;.;.^ P ^ ^ ^ 1.Z.b.b.z b b K #.#.#.x z z q L #.$.( :.x.x.h.h.$.$./ K ^ L x z z 7 6 6 6 6 6 3 3 3 3 3 2 6 H H U.P.L.V E i.d ; d Y i.Y d S ",
"d d a a a a d d a a U.P.L.V U A A U U ^ L A j j j j A A 1 F k k / n.n.j.m._._.OX}.OXOX{.`.{.oX`.].].oX XM.M.M.%./ $.;.F F #.#.-.-.-./.b.;.;.q z z #./.#.#.h q I I $.:.:.b.:.c.c.h.g.j.j.g.%.G / ^ K K b q q q q 6 * * 3 3 3 2 6 2 2 U.P.L.V E i.d ; d Y i.Y d S ",
"S d a a a a a a a a U.P.L.V U U U F L U U A j j j j j j h ^ #.#.l.m.m._.].oXoXoXoX].].].oX@XOX{.oXoXoXg.N.N.n./ :.b.D ^ ^ tX^ ; ; ; ; ^ #.#.: K K 1./.x x h K $.$.%.h.b._.'.D.D.M.c.g.g.c.c.c.Q Q #.#.^ x l l q q q q 2 2 2 * 3 6 6 U.P.L.V E i.d ; d Y i.Y d S ",
"S d a a a a a a a a U.P.L.V U A A F A F A i j j 9 j j j h ~ l.l.T.j.j.!.XX@X@XT.'.].].].+XjXgXoXoXoXm.m.( ( :.:.Q Q |.Q Q k Z.DXDXDX^ @.#.#.9 K K k k h h #.$.M.M.x.S.!.|.'.|.|.'.'.'.'.D.D.b.x.$.#.#.#.#.I I l 9 6 6 6 2 6 2 3 6 0 U.P.L.V E i.d ; d Y i.Y d S ",
"Y d a a a a a a a a U.P.L.V F A A U L L j o.j j j j 9 9 D P T.T.m.m.m.XX!.+X+XoX{._._._.+XkXjX'.D.D.x.:.b.b.$.M.x./ h.h.h.Q ^ c c c k h h h i P P ^ i ^ ^ :.c.:.:.x.x.!.!.|.|. X XXX_._.XX|.D.D.b.$.$.#.@.I I ^ x 6 6 6 0 0 q b 6 6 U.P.L.V E i.d ; d Y i.Y d d ",
"Y S a a a a a a a a U.P.L.V L #.#.F A U j j 9 9 L j x x I >.T.T.m.R._.n.S.Z.Z.sXKXPXPXUXUX^.0.1.^ ^ #.-././.:.!.S.b.Q x.x.$.$.Q Q Q Q K k k P Q Q Q $.x.x.g.M.M.M.M.D.'.'.!.S.S.D.!.:.:.D.|.!.D.M.:.:.$.^ @.@.I I 9 9 6 b z b q = = U.P.L.V E i.d ; d Y i.Y a d ",
"Y S a a a a a a a a U.P.L.V #.A A o.j 1 9 9 9 9 j D h h D x.n.n.;././.1.1.:.:.#.<.q.q.5.q.8.,.&.&.&.&.L  . .I 1.:.$.x.:.:.p / Q Q Q $.h k k P h.h.c.v.c.c.v.h.c.c.%.h.:.c.N.S.S.b.M.b.b.x.:./ / $.x.x.1.#.#.#.I K 7 7 b z z z z , , U.P.L.V E i.d ; d Y i.Y a d ",
"Y Y a a a a a a a a U.P.L.V A j j A 9 : 9 9 9 9 9 D K K 1.^ ;.;.;.#.#.#.^ v v b  .&.&.&.q.7X4Xw.8.8.&. .1.8.@.#.c G Q $.$.Q G G v v k h.S.S.%.v.v.N.D.D.D.!. X X XD.XXXX|.S.:.:.@. .&.&.0.aXaXaXaX6.6.w.7XwX9XJ , 0 0 b J J b J 7 7 U.P.L.V E i.d ; d Y i.Y a d ",
"Y Y d a a a a a a a U.P.L.V A j j O , 9 & 9 , , 9 K -.-.c.^ A A F I I K ^ #./ 5.<X2X2X2X2X<X1X,Xq.q.q.1.@.@.x L K K G G G Q c %.%.%.h.c.M.M.D.F.F.!.|.|.|. X'.D.D.D.Z.h.$.#.w w &.&.O.O.4.4.4.4.4.O.O.O.O.+.+.O.e &.&.&. . .o.b q q U.P.L.V E i.d ; d Y i.Y a a ",
"Y Y S a a a a a a a U.P.L.V A 1 1 A 9 J I = K J O 1.'.'.N.Q / / $.$.$.:.j.G.G.pXGXHXHXpXpXpXpXpX1X1X,XA.S.S.s.:.s.%.1.L L $.%.h.x.x.x.c.h.h.S.'.'.'.D.D.D.|.c.M.M.M.x.#.L &.&.&.&.O.4.4.O.4.4.4.4.O.O.O.} } } ' O.} }  .#.#.&.&.b b U.P.L.V E i.d ; d Y i.Y a a ",
"S Y S a a a a a a a U.P.L.V -.#.#.j K 9 * q O O I !.!.!.( n.n.n.m._._.].].pXpXGXHXHXHXpXpXpXpXpXpXpXA.S.G.D.S.S.F.S.A.sXsXx.G ;.;.;.KXO.4X4X7XwXwX;XaXCXCXZ.b.x.x.x.+.;X<X;X;X;X5.A.A.A.q.C.5.8.C.5.5.&.&.&.&.q.5.O.O.} #.#.#.#.&.&.U.P.L.V E i.d ; d Y i.Y a a ",
"S Y S d a a a a a a U.P.L.V L z z 9 , 7 O q q q 1.M.m.m.n._.V.V.].F.F.'.'.pXpXGXHXHXHXpXpXpXpXpXpXpX9X9XS.S.S.S.S.S.G.G.G.b h v.v.v.v.V._._.'._._._.N.v.v.u : x.x.pX,X<X<X<X2X<X2X<X<X<XpXpX1X,X1X8X8X,XA.,XA.,XA.A.A.@.b b L &.#.#.U.P.L.V E i.d ; d Y i.Y a a ",
"d Y Y d a a a a a a U.P.L.V z 9 9 * * * O O 7 7 #.M._._.'.'.].]. X.X.X X].pXpXGXHXHXHXHXHXHXHXHXHXHXGX1X,X,X,X,X,X,X,XS.A.CXb M.m.m.'.'. X X X X X X_.M.M.c.JXCXCX2X,X,X,X,X,X,X<X,X8X8X8X8X8X9X9XpXpX9X8X8X8X8XG.A.A.c.Q Q x ^ #.#.U.P.L.V E i.d ; d Y i.Y a a ",
"d S Y S a a a a a a U.P.L.V z 9 9 * * * O O 7 9 #.M._._.'.'.].]. X.X.X X].pXpXGXHXHXHXHXHXHXHXHXHXHXGX1X,X,X,X,X,X,X,XS.A.CXb M.m.m.'.'. X X X X X X_.M.M.c.JXCXCX2X,X,X,X,X,X,X<X,X8X8X8X8X8X9X9XpXpX8X8X8X8X8XG.A.A.c.Q Q x I #.#.U.P.L.V E i.d ; d Y i.Y d a ",
"d S Y S d a a a a a U.P.L.V 9 9 9 = * 6 * . Z.Z.!.XX@X@XOX@X@X@X+X.X.X XN.|.|.|.D.D.D.D.|.|.F.S.5.5.5.4.5.5.;X[ 4.&.5.8.8.,X1.h.h.h.m.'..X X@X-XjXoXm.s.s.Q n >X>X>X:X:X:X>X:X:X>X2X<X<XpXpXpX9XpX,X,XG.S.S.S.S.G.S.S.D.M.M.s.$./ / U.P.L.V E i.d ; d Y i.Y d a ",
"d S Y Y d a a a a a U.P.L.V q q q , * O & z '.'./ 0XrXrXOXOXoXoX{._._.m.g.! ! n v #.#.L b 6 6 q _ _ _ _ _ _ 4.[ ' b  .&.&.CXb.!.!.!.M.].@X@X*XjXjXoX'.s.s.x.x ;X;X>X:X:X:X:X:X:X>X<X<X<X2X3X<X2X<XC.C.A.S.S.S.c.A.S.S.D.D.D.M.%.h.h.U.P.L.V E i.d ; d Y i.Y d a ",
"a S S Y S d a a a a U.P.L.V q q q , * O & z '.'./ 0XrXrXOXOXoXoX{._._.m.g.! @.n v #.#.L b 6 6 q _ _ _ _ _ _ ;X[ ' b  .&.&.CXb.!.!.!.N.].@X@X*XjXjXoX'.s.s.x.x ;X;X>X:X:X:X:X:X:X>X<X<X<X2X3X<X2X<XC.C.A.S.S.S.c.A.S.S.D.D.D.M.%.h.h.U.P.L.V E i.d ; d Y i.Y d a ",
"a d S Y S d a a a d U.P.L.V 9 q q & O * 6 .X+X+X*XW jXjXkXjX@X@X].+X+X_.'.S.S.D.F.|.|.S.S.S.G.S.S.S.A.A.A.A.8.C.C.C.A.&.&.*.$.].].].&X*X=X=XlXlXlXlX*X_._.%.x } } _ } O.;Xq._ _ _ ` _ _ e 3 4 } +.8.8.A.C.8.8.C.Z.M.M.S.D.D.D.S.x.x.U.P.L.V E i.d ; d Y i.Y d a ",
"a d d Y Y S d d d S U.P.L.V , * * * * & 1..XOXOX-X{.bXbXjXcXkXkXjXoXoX X].D.F.F.D.M.M.M.S.S.S.S.S.S.A.C.@.@.x.S.|.S./.1.1.$.'.*X*X*X*XlXzXzXzXzXzXzX=X[.[.u.:.,.,.8.1.&.@.&. . .3 3 4 4 3 3 e e e ' ' 0 q L b L @.:.:.x.M.M.S.M.c.c.U.P.L.V E i.d ; d Y i.Y d a ",
"a d d S Y Y S d d Y U.P.L.V , * * * * & 1..XOXOX-X{.bXbXjXcXkXkXjXoXoX X].D.F.F.D.M.M.M.S.S.S.S.S.S.A.C.@.@.x.S.|.S./.1.1.$.].*X*X*X*XlXzXzXzXzXzXzX*X[.[.u.:.,.,.8.1.&.@.&. . .3 3 4 4 3 3 e b e ' ' 0 q L b L @.:.:.x.M.M.S.M.c.c.U.P.L.V E i.d ; d Y i.Y d a ",
"a a d S Y Y S d S Y U.P.L.V 6 & & * & & !.{.*X*X-X-Xz.z.jXcXcXcXcXgXgXgXgXgXgXgX.XfXfX.XfX.X|.|.|.|.|.|..X.X.X].'.N.x.s.s..X&X*X*X*X&XhXlXlXvXmXMXzX=X[.[.V.u. . .Z.A.#.<.,X8.8.A.A.8.8.q.5.5.5.5.*.*.*.@.@.@.$.Z.S.S.D.M.M.M.M.S.S.U.P.L.V E i.d ; d Y i.Y d a ",
"a a d d Y Y Y S Y Y U.P.L.V 6 & & * * & !.{.*X*X-X-Xz.z.jXcXcXcXcXgXgXgXgXgXgXgX.X0X0X.XfX.X|.|.|.|.|.|..X X.X].'.V.x.s.s..X&X*X*X*X&XhXlXlXvXmXmXzX=X[.[.V.u. . .Z.A.@.<.,X8.8.A.A.8.8.q.5.5.5.5.*.*.*.@.@.@.$.Z.S.S.D.M.M.M.M.S.S.U.P.L.V E i.d ; d Y i.Y d a ",
"a a a d S Y Y Y Y S U.P.L.V O * * O . O !.oX-X-XlXlXzXzX*X[.g.g.jXzXzXvXvXvXvXvXvXvXvXvXvXvXvXhXgXgXgXgXgXgXgX.Xs.c..X*X*X}.&X*X*X*X-XzXlXlXMXNXNXNXzX=X*X[.V.k.k.T  X|.0X+X+X+X+X.X.X.X].V.|.|.0X9X9X9X8X0X0X0X|.D.S.D. X X+X0Xb.b.U.P.L.V E i.d ; d Y i.Y d d ",
"a a a d S S Y Y S S U.P.L.V O * * O . O !.oX-X-XlXlXzXzX*X[.g.g.jXzXzXvXvXvXvXvXvXvXvXvXvXvXvXhXgXgXgXgXgXgXgX.Xs.c..X*X*X}.&X*X*X*X=XzXlXlXMXNXNXNXzX=X*X[.V.k.k.T  X|.0X+X+X+X+X.X.X.X].V.|.|.0X9X9X9X8X0X0X0X|.D.D.D. X X+X0Xb.b.U.P.L.V E i.d ; d Y i.Y d d ",
"a a a a d S S S S d U.P.L.V , * * * O & _.+XOXOXzXzXzXzXlXzXzXzXV.kXkXvXvXvXvXvXvXvXvXhXhXhXgXhXgXgXfXgX|.|.( s.|.*X*X%X%X}.*XlXlXlXzXMXNXNXFXNXNXNXmXzXzX=X[.E.E.k.m +X0XgXgXgXgXgXkXkXzXzXvXzXgXkXkXgXgX0XgX0X.X X X XXXXX+X$.rXrXU.P.L.V E i.d ; d Y i.Y d d ",
"a a a a d d S S d d U.P.L.V = * * O * * !.@XkXkXzXzXMXMXzXzXMXMXzXlXlXlX*XB.B.d.R ( ( ( T m T m.gXgXMXvXzXzX*X&X&X[.E.H.H.zXmXNXNXNXNXFXFXFXFXFXFXFXNXFXFXNXMXR.E.V.V.F.v.s '.'.@XfXgXgXcXgXgXgXhXkXkXgXgXkXkXgXcXcXcXcXkXkXcXjX@X@XU.P.L.V E i.d ; d Y i.Y d d ",
"a a a a a d d d d a U.P.L.V = * * & * & !.@XkXkXzXzXMXMXzXzXMXMXzXlXlXhX*XB.B.d.R ( ( ( Y m Y m.gXgXMXMXzXzX*X&X&X[.E.H.H.zXmXNXNXNXNXFXFXFXFXFXFXFXNXFXFXNXMXE.R.V.V.F.v.s '.'.@XfXgXgXcXgXgXgXzXcXcXgXgXkXkXgXcXcXcXcXkXkXcXjX@X@XU.P.L.V E i.d ; d Y i.Y d S ",
"a a a a a a d d a a U.P.L.V = * * & * b '.OXjXjXkXzXzXzXzXmXmXmXmXNXNXNXNXzXzXNXNXFXFXFXFXNXNXMXmXmXhX&X[.[.&X=X=X=X=XmXvXmXmXNXNXNXNXFXNXNXFXNXNXFXFXFXFXFXMXzXzX*Xv.V..X'.v.v.m h.XXXX|..XoX*X@XgXgXgXkXcXcXcXN.$X$XZXcXcXcXjXjXjXU.P.L.V E i.d ; d Y i.Y d S ",
"a a a a a a a a a a U.P.L.V O O O 6 h x !.@XkXkX-XlXlXlXzXzXmXmXmX=X=XmXhXzXzXhX=X=X=X=X&XH.B.k.k.k.k.B.B.B.=X=XlXlX%X&X%X[.*XlXlXlXzXzXlXlXgXcXcXvXzXlXlX[.V.H.H..XzXzXk.v.'.'.+XgXcXcXcXzXkXhXzXgXgX&X.X[.[..XgXcXcXcXcXcXcXcXkXkXU.P.L.V E i.d ; d Y i.Y d S ",
"d a a a a a a a a a U.P.L.V O O O 6 h x !.@XkXkX-XlXlXlXzXzXmXmXzX=X=XmXhXzXzXhX=X=X=X=X&XH.B.k.k.k.k.B.B.B.=X=XlXlX%X&X%X[.*XlXlXlXzXzXlXlXgXcXcXvXzXlXlX[.V.H.H..XzXzXk.v.'.'.+XgXcXcXcXzXkXhXzXgXgX&X.X[.[..XgXcXcXcXcXcXcXcXkXkXU.P.L.V E i.d ; d Y i.Y d S ",
"d a a a a a a a a a U.P.L.V O     X x F !.rX-X-X-X-X=X=X=X=X=X=X=X=X=X=X=X&X&X&X&X[.[.H.B.k.d.k.V.V.F.'.'.'.[.&X*X=X%X&X&XH.B.E.E.E.%X=X*X*X.X*X*X.X[.V.V.v.B.V.V.*XOX*Xd.d.k.k.v.F..X.XfXgXzXvXvXvXvXhXhXgXgXzXhXvXvXzXzXzXgXjXkXkXU.P.L.V E i.d ; d Y i.Y a S ",
"d a a a a a a a a a U.P.L.V O = = b x D rXjX-X-X%X%X%X%X%X=X%X%X=X%X%X=X*X&X&X[.H.B.B.B.k.d.v._.|.|.n.]..X.X].v.B.B.B.B.B.k.v.B.B.B.[.[.H.H.V.[.[.H.V.k.k.k.v.V.V.V.V.V.k.v.d.d.k.k.V.V.H.[.*XhXhXgXgXhX*X*X*XhXhXgXgXgXgXgXgXjXgXgXU.P.L.V E i.d ; d Y i.Y a S ",
"d d a a a a a a a a U.P.L.V * O O , h p tXrX-X-X*X%X%X%X%X%X%X%X%X[.[.[.V.B.B.d.t.! ! %.( Q ( j.Q W ( T ~ ~ s T c Q / ! ! s.F.F.F.F.v.V.v.v.d.d.k.R m v v v v v v h.c.h.s.S.N.N.D.N.k.k.k.k.V.F.H.[.[.[.[.[.[.[.[.[.[..X&X&X+XoX@X@XU.P.L.V E i.d ; d Y i.Y a S ",
"S d a a a a a a a a U.P.L.V * O O , h p tXrX-X-X*X%X%X%X%X%X%X%X%X[.[.[.V.B.B.d.t.! ! %.( Q ( j.W W ( T ~ ~ s T c ~ / ! ! s.F.F.F.F.v.V.v.v.d.d.k.R m v v v c v v h.c.h.s.S.N.N.D.N.k.j.k.k.V.F.H.[.[.[.[.[.[.[.[.[.[..X&X&X+XoX@X@XU.P.L.V E i.d ; d Y i.Y a S ",
"S d a a a a a a a a U.P.L.V = O & z K G XXjX*X*XOX%X}.}.%X%X%X%X%XE.E.z.p.E E h.Q G G !.h./ T Q / W T D Q Q Q p s p ; p k P Q x.x.x.x.c.d.d.d.! ! m T v v p p ^ ^ Q / k :.x.S.S.M.M.h.h.h.s.s.v.F.V.V.V.V.H.H.[.[.H.H.[..X.X+X+X@X@XU.P.L.V E i.d ; d Y i.Y a d ",
"S d d a a a a a a a U.P.L.V O 9 9 z h k XXOX-X-X-X-XOXOX*X*X}.}.V.T T s T p p Q S a a T T Q ( c y y ^ G y y c k P Q i % % > > ; ; ; o D v v G #.#.% y % % k 1.^ ^ G ; i K I rXrX;.c ~ ~ k / P ^ / $.%.v.B.V.V.V.V.V.V.V.`.`.'.oXgXgXU.P.L.V E i.d ; d Y i.Y a d ",
"Y S d a a a a a a a U.P.L.V O 9 9 z h k XXOX-X-X-X-XOXOX*X*X}.}.V.T T s T p p Q S a a T T Q ( c y y ^ G y y c k P Q i % % > > > ; ; o D v v G #.#.% y % % k 1.^ ^ G ; i K I rXrX;.A ~ ~ k #.P ^ / $.$.v.B.V.V.V.V.E.V.V.].`.'.oXgXgXU.P.L.V E i.d ; d Y i.Y a d ",
"Y S d a a a a a a a U.P.L.V * = = , x P @X-X}.}.-X-XOXOXOX%X%X%XR.S S T y S S p p c c ;.Q G s p p p p G % % y G p v c > > ; % % % % ; ; x x ; #.#.- ^ y y k G k k ^ D k ; v k k ~ P ; ; D v x i K P P / k.v.v.V.V.V.V.`.`.`.].oXkXkXU.P.L.V E i.d ; d Y i.Y a d ",
"Y S d d a a a a a a U.P.L.V * , , , - i T.OXkXkXR.m.R.R.}.OXE.E.z.T T p % y y S Q d d :.y G Q Q c c c p s s T v c y v v m %.s.! ! ! ! s $.$.$.G P % k x v ; k i i K v D 1.D P P Q p ^ ^ y i l k - v x F / n.n.V.F.F.F._.].].].@XrXrXU.P.L.V E i.d ; d Y i.Y a a ",
"Y Y d d a a a a a a U.P.L.V * O & 9 9 A T.`.`.`.OXOXOXOXR.}.z.z.r.E E c y v v %.h.c.c.c.! u # i > > y Q Q Q ! m ! s.s.f.f.d.v.v.v.v.v.V.v.v.v.s.s.! g g g u v y y y p k Q k ; ; c a k k x k - - - ; ; ; ~ n.n.N._.'.'.].'.'.`.jXrXrXU.P.L.V E i.d ; d Y i.Y a a ",
"Y Y S d d a a a a d U.P.L.V r w w q 9 D ~ `.`.`.`.}.`.`.}.`.S S `.Y Y d v u u h.M.c.c.V.F.V.s.! M R m m m m u u t t u ! ! s.d.d.d.d.d.d.d.d.f.s.s.s.m M M v @.v v v v y l x h l @ - < < - ; h ; < - - i ( '.'.'.`.V.V.'.'.'.{.oX{.{.U.P.L.V E i.d ; d Y i.Y a a ",
"S Y S d d a a a a d U.P.L.V B r r w H -.1.M.j.j.{.OX`.`.m.m.z.z.R.( ( T ( ( ( N.!.].].]. XoX{.{.V.V.k.k.d.d.d.d.f.f.f.d.d.d.v.v.v.v.d.t.! ! m u u u t t t t y t y y # # X   O O @ > x x #.%./ v < < < k h.g.g._._._._.( jXjX{.{.{.{.U.P.L.V E i.d ; d Y i.Y a a ",
"S Y Y S d d a a d d U.P.L.V r B B H  .A ; ( n.n.z.R.OXOXz.R.`.`.R.z.z.W g.( ( !.'.].].@XoXoX@XOX}.}.}.].`.`.B.B.V.H.H.&X&X&XgX&X&X&X.X.XG.G.v.d.d.d.s.s.s.*.! m M M m M M n M M Q %.s.s.s.s.s.Q k v v ;.n.n.n.'.g.T.T.m.m.m.'.rX'.'.U.P.L.V E i.d ; d Y i.Y a a ",
"d Y Y S d d a a d d U.P.L.V r H H 8 8 , j P n.n.`.z.{.{.m.g.`.`.`.g.g.a.W W W m.T.N.N.jXOX-XOXOXOXOX@X@X*X*XjXjXgXgXgXgXgXgXgXfXfXfX&X&XH.H.H.B.B.G.d.d.d.d.d.f.f.s.d.d.k.v.n.n.j.s.s.s.c.j.s.v / :.:.n.].n.n.m.s n.n.T.XXXX].'.~ ~ U.P.L.V E i.d ; d Y i.Y a a ",
"d S Y Y S d d d d S U.P.L.V B 2 2 * , w j i g.g.T.u.a.a.m.R.( ( ].m.m.Y R.m.m._.m.oXoX@XjX-X}.OXOXOX-XoX+XOX}.jXjXjXoX+X+X+X@X0X0X0X.X*XfXfX.XH.H..XG.F.F.F.F.F.F..X|.|. X X`.]._.R.n.n.m.v.( ( %.m.m.oXoX_._.n.l._.!.l. X XN.n.y y U.P.L.V E i.d ; d Y i.Y a a ",
"d S Y Y S S d d S S U.P.L.V w = = = = J 9 P y y ~ ) a.g.( W j.j.g.u.a.n.n.R._.g.R.oXoX].}.-X-X-X`.`.R.%Xk.k.`.`.OX`.].'._.`.N.j.j.j.xXm.u.s.h.'.'.D.'.XXXXXX0X XXXjX+X@X+X].oXoX{.oX'.'.n.( n.:.:._._.!.!.].'.n.g.x.l.;.!.!.N.~ i i U.P.L.V E i.d ; d Y i.Y a a ",
"a d Y E S S d d S S U.P.L.V N = = = , z 9 z a a G ( W W ( ( s s n.j.j.g.W R.R.m.{.jXjXz.-XkXkX}.R.R.R.z.z.z.OXl.a.R.u.( ( j.j.( ( ( b.d h.h.D.$.( l.( S.S. Xn.!.D.'. X@X@X@XrXrX@XoXoXoX_.`._.:.'.'.'.rXm.!.!.l.l.N.N.!.'.'.g.i h h U.P.L.V E i.d ; d Y i.Y a a ",
"a d Y E Y S S S S Y U.P.L.V H = = = * 6 1 A k k p a G G G Q / / d ~ ~ g.g.R.R.m._.{.{.'.jXOXz.}.-X-Xr.a.z.z.a.z.z.u.a.g.g.g.d p p p T S G G T $.( G h.%.%.%.) kXkXl.@X@X`.@X@X@X@X-XOXOXoXoX{._.m.n.n._.g.x.x.( :.h.:.T ;.;./ 1 z z U.P.L.V E i.d ; d Y i.Y a a ",
"a d Y E Y S S S S Y U.P.L.V J B B 8 , 9 z A ; ; P p F D A G a a c a a Q / g.:.T.T.m.m.{.jXR.xXxXR.R.a.r.z.z.a.}.z.z.Y T T T s y y y y y T T T ( ( h.%.%.%.j.g.m.m.m.n.g.OXjX@X@XkXkX-X-XOXR.'.a.( T.T.( g./ / $.;.~ ~ b.G G P 1 A A U.P.L.V E i.d ; d Y i.Y a a ",
"a d S E E Y S S Y Y U.P.L.V B r r 8 = 9 & j i i ; % % % y ; c D G G G G T W W l.) n.n.oXR.jXxXR.NXNXR.`.R.R.R.].V.'.m.( ( s y v v v G p G G n.n.n.s N.M.M._.j.m.m.].kXg.`.jXkXkXkXkXjXjXoXm.j.n.g.( ( T G / ~ ~ Q ~ ~ ;.^ ^ A 9 , , U.P.L.V E i.d ; d Y i.Y a a ",
"a a S E E E Y Y Y E U.P.L.V r r r w 8 L J , ; ; F - - - ; p p p D y y ~ Q ( ( T ( ;.;.@XoXoXkX-XV.V.`.jX-X-X`.a.`.( T V.V.s.s.! ! ( s c.( ( !._._.W '.!.!.N.{.XXoX`.}.n.xXxXkXkX@XxXOX@X`.( l.g.x.( ( T ( ~ ~ ^ ^ ^ ^ -.F F 1 z 1 1 U.P.L.V E i.d ; d Y i.Y a a ",
"a a S Y E E Y Y E E U.P.L.V r B B B B w w z i i < D i i i P G G y G G b.; a a G Q g.g.m.) @X`.R.j.j.l.OX@X@XOX}.kX`.R.].]._.m.h.h.h.h./ %.%.M.N.N.oX+XcXcXN.N.jXjXg.jX+XkXxXxXxX( OX{.{.T.( ;.Q / s s b.:.c c K I x x I #.#.1 , 9 9 U.P.L.V E i.d ; d Y i.Y a a ",
"a a S S Y E E E E E U.P.L.V r r r w w J 8 z 9 9 o h < < h k P P G G G G D D D Q / l.l.) ) T.`.R.E E V.{.m.m.{.kX}.OX-X'.'.'.m._._._.( c.W W  XM.M. X X X X@X{.rXrXkXcXnXnXbXj.j.oXz.g.g.T.( W T d G G i c v v x x 9 9 z x x 1.& q q U.P.L.V E i.d ; d Y i.Y d a ",
"a a S S Y E E E E E U.P.L.V w w w w w w w 9 , , j A K K - h - - p a k k i G G ( p ~ ~ / ( }.oXm.m.m.) kX}.}.OXR.z.`.V.j.j.R.n.c.c.c.D.( h.h.h.'.'.j.u  X XD.g._._.@XBXnXjXkXoXoX_.l.) ) W ( ~ S G y y ^ h h h x 9 6 , : z q q & , , U.P.L.V E i.d ; d Y i.Y d a ",
"a a d d Y Y E E E E U.P.L.V w w w N w w N , z z 9 j & & X < ; ; - % % c P ; ; Q c / / G T n.!.) j.j.T.@X].].j.].u `.N.g.g.W ].( ( ( T h.M.M.M.s.s.c.!.c.j.M._.j.c.g.cXjX{.n.`.`.l.'.~ ~ A ~ y P D y y h h b b b , 9 7 b 9 9 6 w H H U.P.L.V E i.d ; d Y i.Y d a ",
"a a a d S Y E E E E U.P.L.V w N N N w w N , z z 9 j & & X < ; ; - % % c P ; ; Q c / / G T n.!.) j.j.T.@X].].j.].u `.N.g.g.W ].( %.( T h.M.M.M.s.s.c.!.j.j.M._.j.j.g.cXjX{.n.`.`.l.'.~ ~ A ~ y P D y y h h b b b , 9 9 b 9 9 6 w H H U.P.L.V E i.d ; d Y i.Y d a ",
"a a a d S Y E E E E U.P.L.V ^.(.(.(.(.).5X5X0.0.L , , , , , h h h h h x ^ y y k P G G Q S ( T ( g.g.T._.V.V.R.'.+Xg.%. X X0XW ( ( ( Q b.c.c.Q %.%.( n.j.j.+Xg.( ( !.m.g.T.;.x.x.;.a i i ^ p k ; k < < < , = = q 9 J J = = = q 6 q q U.P.L.V E i.d ; d Y i.Y d d ",
"a a a d S Y Y E E E U.P.L.V ^.^.^.^.(.^.-.^.Q.Q.J w = = O @ : : < l l I < < < h x < < - x ~ D +XT T W :.@X@Xn.N.m.j.$.%.%.( b.%.%.%.G v P P ^ / / ( Q T T g.g.W W W T ) ) S b.b.P o k k F A i x - l l , q & O * & O O O 6 6 6 q 0 0 U.P.L.V E i.d ; d Y i.Y S d ",
"a a a a S S Y E Y Y U.P.L.V (.^.^.^.^.^.-.^.Q.Q.J z * * O @ : : < l l I 7 < < h x < < - x ~ D +XT T W g.@X@Xn.N.m.j.$.%.%./ b.%.%.%.G v G G ^ / / ( Q T T g.g.W W ( T ( ) T b.b.G o k k L A h x - l l , q & O * & O O O 6 6 6 q 0 0 U.P.L.V E i.d ; d Y i.Y S d ",
"a a a a S S Y E Y S U.P.L.V 0X.X.XG.v.f.f.f.f.f.f.@.f f n I K b : : : : 6 X X = @ 6 6 * L y y P c c p a F F S ( T $.p :.:.$.T c c c c v v v v c c $.G Q Q S G S S D ~ x.#.G ;.;.i /.k k 1 o x x @ J J , * * * 6 O * * b 6 6 6 0 2 2 U.P.L.V E i.d ; d Y i.Y S d ",
"a a a a d d S Y Y S U.P.L.V G.f.f.f.*.v.f.f.] ] @.@.n n y > < < : : = & * & * O & & & > 1.X D P < < 1 k > > % a h k P k k k c i i i k x i i x K D #./ S.S.P G i i i < 1.#.F #.#.D k &.&.h I i X @ : : O 6 & * * , q q 6     . . . . U.P.L.V E i.d ; d Y i.Y S S ",
"a a a a a d S Y S S U.P.L.V G.f.f.f.*.v.f.f.] ] @.@.n n t > < < : : = & * & * O & & & > 1.X D P < < 1 k > > % a i k P k k k c i i i k x i i x D D #./ S.S.P G i i i < 1.#.F #.#.D k &.&.h I i X @ : : O 6 & * * , q q 6     . . . . U.P.L.V E i.d ; d Y i.Y Y S ",
"a a a a a d S S S c U.P.L.V ] M M @.*.*.*.*.] ] n M M M g f 5 5 : * * O L O O @ @ 7 7 @ D h i o > > : 9 @ @ < - < X : < < - : @ @ @ > > # # @ @ @ < X - : < @ - # : tXx #.i X X o 7 > > K h h > & O O O & : : * , - - % tXtXxXa     U.P.L.V E i.d ; d Y i.Y Y S ",
"a a a a a d d S S c U.P.L.V M M M @.@.M n n g g n M ] ] M f # # # @ @ O O O O @ * @ @ h O 9 K < l l l l @ @ O # @ & O 7 7 @ < 7 7 7 < 7 7 7 & z z 6 O @ @ @ 7 h h @ O X h < h h - # O O l l 7 @ 6 h h b < XX8X1.xXDXDX) xXxXxXxXxXxXU.P.L.V E i.d ; d Y i.Y Y S ",
"a a a a a a d S S d U.P.L.V M M M @.@.M n n g g n M ] ] M f # # # @ @ O O O O @ * @ @ h O 7 K < l l l l & & O - @ @ O 7 7 @ < 7 7 7 < 7 7 7 & z z , O @ @ @ 7 h h @ O X h < h h - # O O l x 7 O 6 h h b < XXXX>.xXDXDX) xXxXxXxXxXxXU.P.L.V E i.d ; d Y i.Y Y S ",
"a a a a a a d S d d U.P.L.V n M M n n n n n g g g M @.@.g f O O O O O O O @ @ b b @ @ & @ & & X * * @ * * * & O O = = 6 6 7 l 5 5 5 @ O @ @ O O O : J 7 7 < 7 < < @ : < : < > > < @ : : < 7 O O : ;.;.ZX_.kXkXbXl.xXbXxXnXnXnXnXbXbXU.P.L.V E i.d ; d Y i.Y Y S ",
"a a a a a a d d d a U.P.L.V g g g g g f f f f f n @.n n f O . . O : # # 5 n L 5 :.G G - x D o X & & X O O O O O O O O       X l l l 7 O . . * O O O & O O O O - - & @ O @ O     @ Z.> > #.x.x.ZX$XbXbXkXbXZXZXbXbXbXbXbXZXZXbXnX$X$XU.P.L.V E i.d ; d Y i.Y Y S ",
"a a a a a a a d d a U.P.L.V g g g g g f f f f f n @.n n f O . . O : # # 5 n L 5 :.G G - x D o X & & X O O O O O O O O       X l l l 7 O . . * O O O & O O O O - - & @ O @ O     @ Z.> > #.x.x.ZX$XbXbXkXbXZXZXbXbXbXbXbXZXZXbXnX$X$XU.P.L.V E i.d ; d Y i.Y Y Y ",
"d a a a a a a a a a U.P.L.V g g g g f f f f f f M M g g f O . . O 5 5 5 5 A.A.%.s j.j.:.p c c ; @ @ O # : : @ O O O O     O X O O O O O O O . O O O * @ @ O O O O O X O O O : : h : b.b.:.'.rX+X@XkXkXkXxXbXbXbXnXbXbXnXnXnXnXxXT.T.U.P.L.V E i.d ; d Y i.Y E Y ",
"d a a a a a a a a a U.P.L.V f f f f f f f f n n ] M f f # O O O O 5 5 5 5 5 5 |.XX+X+X]._.oXoXR.z.z.'._.v.v.n.].( W v c c > f v v v l # 7 7 l & & @ 7 6 6 @ : : - v h 7 & b < < #.c. X XC rXrXrXjXkXkXjXxXbXbXbXbXnXnXnXnXnXZXZXZXZXU.P.L.V E i.d ; d Y i.Y E Y ",
"d d a a a a a a a a U.P.L.V f f f f f f f f n n ] M f f # O O O O 5 5 5 5 5 5 |.XX+X+X]._.oXoXR.z.z.'._.v.v.n.].( W v c c y f v v v l # 7 7 l & & @ 7 6 6 @ : - - v h 7 & x < < #.c. X XC rXrXrXjXkXkXjXxXnXnXnXbXnXnXnXnXnXZXZXZXZXU.P.L.V E i.d ; d Y i.Y E Y ",
"d d a a a a a a a a U.P.L.L.I.U.U.U.U.U.U.U.U.U.U.U.U.U.U.U.U.U.U.U.U.U.U.U.U.U.U.U.U.U.U.U.U.U.U.U.U.U.U.U.U.U.U.U.U.U.U.U.U.U.U.U.U.U.U.U.U.U.U.U.U.U.U.U.U.U.U.U.U.U.U.U.U.U.U.U.U.U.U.U.U.U.U.U.U.U.U.U.U.U.U.U.U.U.U.U.U.U.U.U.U.P.L.V E i.d ; d Y i.Y E Y ",
"S d a a a a a a a a I.P.P.P.P.P.P.P.P.P.P.P.P.P.P.P.P.P.P.P.P.P.P.P.P.P.P.P.P.P.P.P.P.P.P.P.P.P.P.P.P.P.P.P.P.P.P.P.P.P.P.P.P.P.P.P.P.P.P.P.P.P.P.P.P.P.P.P.P.P.P.P.P.P.P.P.P.P.P.P.P.P.P.P.P.P.P.P.P.P.P.P.P.P.P.P.P.P.P.P.P.P.P.P.P.P.L.V E i.d ; d Y i.Y E Y ",
"S d a a a a a a a a P.L.L.L.L.L.L.L.L.L.L.L.L.L.L.L.L.L.L.L.L.L.L.L.L.L.L.L.L.L.L.L.L.L.L.L.L.L.L.L.L.L.L.L.L.L.L.L.L.L.L.L.L.L.L.L.L.L.L.L.L.L.L.L.L.L.L.L.L.L.L.L.L.L.L.L.L.L.L.L.L.L.L.L.L.L.L.L.L.L.L.L.L.L.L.L.L.L.L.L.L.L.L.L.L.L.L.V E i.d ; d Y i.Y E Y ",
"S d d a a a a a a a V V V V V V V V V V V V V V V V V V V V V V V V V V V V V V V V V V V V V V V V V V V V V V V V V V V V V V V V V V V V V V V V V V V V V V V V V V V V V V V V V V V V V V V V V V V V V V V V V V V V V V V V V V V V E i.d ; d Y i.Y E Y ",
"S S d a a a a a a a a d S Y d d E i.d ; d Y i.Y a a a a S S Y Y Y E Y Y S d a a a a a a d Y E Y a a d d E i.d ; d Y i.Y E E Y Y S d c c E i.d ; d Y i.Y a a a a a a a a a a a d E i.d ; d Y i.Y d a d S Y Y d a a a a a a a a d d S Y S d d E i.d ; d Y i.Y E Y ",
"Y S d d a a a a a a a d S Y d d E i.d ; d Y i.Y a a a a d S S Y Y Y Y S d a a a a a a a S Y E Y a a d d E i.d ; d Y i.Y E Y Y S S a c c E i.d ; d Y i.Y a a a a a a a a a a d d E i.d ; d Y i.Y d a d S Y Y d d a a a a a a a d d S S S d d E i.d ; d Y i.Y E Y ",
"Y S d d a a a a a a a d Y Y d d E i.d ; d Y i.Y a a a a a d S S Y Y S S d a a a a a a d S Y E S a a d d E i.d ; d Y i.Y E Y Y S d a d d E i.d ; d Y i.Y a a a a a a a a a a d d E i.d ; d Y i.Y d a a S Y Y d d a a a a a a a a d d S S d d E i.d ; d Y i.Y E Y ",
"Y S S d a a a a a a a d Y Y d d E i.d ; d Y i.Y a a a a a a d S S S S d a a a a a a a d S Y E S a a d d E i.d ; d Y i.Y Y Y S d a a d d E i.d ; d Y i.Y a a a a a a a a a a d d E i.d ; d Y i.Y d a a d S Y S d a a a a a a a a a d d S d d E i.d ; d Y i.Y E Y ",
"Y Y S d a a a a a a d d Y Y d d E i.d ; d Y i.Y a a a a a a a d S S d a a a a a a a a d Y E Y d a a d d E i.d ; d Y i.Y Y S d a a a d d E i.d ; d Y i.Y a a a a a a a a a a d d E i.d ; d Y i.Y S a a d S S S d a a a a a a a a a a d d d d E i.d ; d Y i.Y E Y ",
"Y Y S S d a a a a d S S Y Y d d E i.d ; d Y i.Y a a a a a a a a d d a a a a a a a a d S Y Y S d a a d d E i.d ; d Y i.Y S d a a a a d d E i.d ; d Y i.Y d a a a a a a a a d d d E i.d ; d Y i.Y S d a a S S S d d a a a a a a a a a a d d d E i.d ; d Y i.Y Y Y ",
"Y Y S S d d a a d d S S S S d d E i.d ; d Y i.Y d a a a a a a a a a a a a a a a a a d S S S S a a a d d E i.d ; d Y i.Y d a a a a a d d E i.d ; d Y i.Y d d a a a a a a d d d d E i.d ; d Y i.Y S d a a d S S S d a a a a a a a a a a a d d E i.d ; d Y i.Y Y Y "
};
