/* XPM */
static char *easter_egg4[] = {
/* columns rows colors chars-per-pixel */
"128 128 251 2 ",
"   c #0C090C",
".  c #1A0807",
"X  c #150C0D",
"o  c #1B0E0C",
"O  c #1E100E",
"+  c #0E0E10",
"@  c #170F11",
"#  c #1C1213",
"$  c #161419",
"%  c #250C0B",
"&  c #28110E",
"*  c #36140D",
"=  c #350E12",
"-  c #241413",
";  c #2B1514",
":  c #281818",
">  c #2C1B1B",
",  c #381915",
"<  c #331C1B",
"1  c #2D2310",
"2  c #3B2F17",
"3  c #38211D",
"4  c #1C1B24",
"5  c #271E25",
"6  c #351D25",
"7  c #1E2027",
"8  c #26212B",
"9  c #342223",
"0  c #3B2523",
"q  c #3B2827",
"w  c #3D2B2B",
"e  c #282634",
"r  c #362D38",
"t  c #4B1611",
"y  c #461A17",
"u  c #611810",
"i  c #5A2C0C",
"p  c #46221B",
"a  c #4B241C",
"s  c #55261B",
"d  c #43331B",
"f  c #4F3718",
"g  c #4B3B1B",
"h  c #573F1F",
"j  c #682D1C",
"k  c #4E1623",
"l  c #591826",
"z  c #611E2D",
"x  c #641F30",
"c  c #472925",
"v  c #432D2B",
"b  c #572B24",
"n  c #49322D",
"m  c #59332A",
"M  c #482A32",
"N  c #443332",
"B  c #4A3533",
"V  c #4B3835",
"C  c #4D3B3B",
"Z  c #543C36",
"A  c #673628",
"S  c #70302E",
"D  c #743B2A",
"F  c #692435",
"G  c #683C34",
"H  c #5F5F00",
"J  c #6A6503",
"K  c #5F4323",
"L  c #59433C",
"P  c #6F4B27",
"I  c #77432B",
"U  c #774F2B",
"Y  c #67443B",
"T  c #7A4638",
"R  c #785537",
"E  c #383746",
"W  c #4B3848",
"Q  c #773045",
"!  c #594744",
"~  c #564C54",
"^  c #654C45",
"/  c #774945",
"(  c #6A534A",
")  c #76564A",
"_  c #695855",
"`  c #775B54",
"'  c #746351",
"]  c #796259",
"[  c #645C63",
"{  c #776A6A",
"}  c #8B382F",
"|  c #A47A17",
" . c #83532F",
".. c #8A5B29",
"X. c #874938",
"o. c #944835",
"O. c #8B5B33",
"+. c #89543C",
"@. c #935F37",
"#. c #94543E",
"$. c #A06334",
"%. c #873A51",
"&. c #884B44",
"*. c #8A5545",
"=. c #975947",
"-. c #905352",
";. c #AB5649",
":. c #A55B49",
">. c #98694D",
",. c #856659",
"<. c #9B6554",
"1. c #A7634C",
"2. c #B1704E",
"3. c #A76856",
"4. c #B66A59",
"5. c #AB755A",
"6. c #B4735D",
"7. c #915169",
"8. c #B7596A",
"9. c #B05B6F",
"0. c #886B64",
"q. c #96766B",
"w. c #91756C",
"e. c #887875",
"r. c #AC7465",
"t. c #B3736E",
"y. c #B77868",
"u. c #B96478",
"i. c #C36C5C",
"p. c #C57768",
"a. c #C87974",
"s. c #878700",
"d. c #939300",
"f. c #AE890B",
"g. c #AFAF00",
"h. c #BBBB00",
"j. c #B29238",
"k. c #CEA634",
"l. c #E6BC36",
"z. c #D7D700",
"x. c #F2C83B",
"c. c #B28E52",
"v. c #968479",
"b. c #B88469",
"n. c #B59B66",
"m. c #BB8675",
"M. c #AC9072",
"N. c #D8B04F",
"B. c #D6A85F",
"V. c #E3B852",
"C. c #CC8D76",
"Z. c #C68779",
"A. c #CDAF6E",
"S. c #F9D14B",
"D. c #FED64C",
"F. c #FFD94D",
"G. c #F2C952",
"H. c #FCD552",
"J. c #FFD953",
"K. c #FDD75A",
"L. c #E4CE64",
"P. c #FCDA66",
"I. c #F3D172",
"U. c #FFE36C",
"Y. c #FFE676",
"T. c #737889",
"R. c #8A7A85",
"E. c #B27288",
"W. c #C37287",
"Q. c #7A8292",
"!. c #93898C",
"~. c #AF978E",
"^. c #A99A98",
"/. c #B0A296",
"(. c #B5A49B",
"). c #979AA7",
"_. c #B9A9A5",
"`. c #B2AEB3",
"'. c #CA8B82",
"]. c #D19588",
"[. c #DA998B",
"{. c #E39889",
"}. c #E39C92",
"|. c #D7A68A",
" X c #CFAD90",
".X c #E8B785",
"XX c #E9A797",
"oX c #E5B69B",
"OX c #C6B0A8",
"+X c #C6B4AC",
"@X c #CAB8B5",
"#X c #D1BEB9",
"$X c #E9BAA5",
"%X c #F6B7A8",
"&X c #F4B5AA",
"*X c #DDC18E",
"=X c #FAD988",
"-X c #ECD090",
";X c #FEED8C",
":X c #D3C6B3",
">X c #D9C6B9",
",X c #F0CBAE",
"<X c #FBEDB0",
"1X c #B6B9C6",
"2X c #BFC0C0",
"3X c #BCC8D9",
"4X c #BDCDE4",
"5X c #BFD1E5",
"6X c #DAC9C6",
"7X c #C9CDD6",
"8X c #DACED2",
"9X c #D7D6D8",
"0X c #E1CECB",
"qX c #E3D2CC",
"wX c #FCDFCA",
"eX c #E4D3D3",
"rX c #E7D8D8",
"tX c #EBE7D7",
"yX c #C4D3E5",
"uX c #CAD5E5",
"iX c #C5D6E9",
"pX c #C7D5EA",
"aX c #CBD8E8",
"sX c #CCDAEA",
"dX c #D5DCE6",
"fX c #D3DDEA",
"gX c #C9DCF5",
"hX c #CCDDF4",
"jX c #DDE1E0",
"kX c #DDE3E4",
"lX c #D6E1ED",
"zX c #DBE3ED",
"xX c #CFE3F8",
"cX c #CEE2FA",
"vX c #DAE5F3",
"bX c #D2E5FC",
"nX c #D4ECFF",
"mX c #DAEDFD",
"MX c #D6F1FF",
"NX c #DAF3FF",
"BX c #E5E8EA",
"VX c #F5EFE8",
"CX c #E5ECF5",
"ZX c #E4EDFA",
"AX c #EDF2F6",
"SX c #E4F5FE",
"DX c #EBF4FE",
"FX c #E5FAFF",
"GX c #ECFAFF",
"HX c #F2FAFF",
"JX c #F8FAFD",
/* pixels */
"U U U U U U U U U U U U U U U U U U U U U U U U U U U U U U U U U U U U U U U U U U U U U U U U U U U U U U U U U U U U U U U U U U U U U U U U U U U U U U U U U U U U U U U U U U U U U U U U U U U U U U U U U U U U U U U U U U U U U U U U U U U U U U U U ",
"K K K K K K K K K K K K K K K K K K K K K K K K K K K K K K K K K K K K K K K K K K K K K K K K K K K K K K K K K K K K K K K K K K K K K K K K K K K K K K K K K K K K K K K K K K K K K K K K K K K K K K K K K K K K K K K K K K K K K K K K K K K K K K K K ",
"O.O.O.O.O.O.O.O.O.O.O.O.O.O.O.O.O.O.O.O.O.O.O.O.O.O.O.O.O.O.O.O.O.O.O.O.O.O.O.O.O.O.O.O.O.O.O.O.O.O.O.O.O.O.O.O.O.O.O.O.O.O.O.O.O.O.O.O.O.O.O.O.O.O.O.O.O.O.O.O.O.O.O.O.O.O.O.O.O.O.O.O.O.O.O.O.O.O.O.O.O.O.O.O.O.O.O.O.O.O.O.O.O.O.O.O.O.O.O.O.O.O.O.O.O.O.O.O.",
"@.@.@.@.@.@.@.@.@.@.@.@.@.@.@.@.@.@.@.@.@.@.@.@.@.@.@.@.@.@.@.@.@.@.@.@.@.@.@.@.@.@.@.@.@.@.@.@.@.@.@.@.@.@.@.@.@.@.@.@.@.@.@.@.@.@.@.@.@.@.@.@.@.@.@.@.@.@.@.@.@.@.@.@.@.@.@.@.@.@.@.@.@.@.@.@.@.@.@.@.@.@.@.@.@.@.@.@.@.@.@.@.@.@.@.@.@.@.@.@.@.@.@.@.@.@.@.@.",
" . . . . . . . . . . . . . . . . . . . . . . . . . . . . . . . . . . . . . . . . . . . . . . . . . . . . . . . . . . . . . . . . . . . . . . . . . . . . . . . . . . . . . . . . . . . . . . . . . . . . . . . . . . . . . . . . . . . . . . . . . . . . . . . .",
"P P P P P P P P P P P P P P P P K h g h h g h K P P P P P P P P P P P P P P P P P P P P P P P P P P P P K h g h h g h K P P P P P P P P K h g h h g h K P P P P P P P P P P P P K h g h h g h K P P P P P P P P P P P P P P P P P P P P P P K h g h h g h K P P ",
"h h h h h h h h h h h h h h d 2 g h 2 1 2 d h h h g d d d d d d d d g h h h d d h h d d h h d d d d h h g h 2 1 2 d h h h h d d h h 2 2 g h 2 1 2 d h h h g d d d d d d g h 2 2 g h 2 1 2 d h h d g h h g d d g h h g d g h d d h h h h h g g h 2 1 2 d h h h h ",
"h h h h h K K K K K K K K K d 2 K U 2 1 2 h U h h g d d d d d d d d g h h h d d h h d d h h d d d d h h K U 2 1 2 h U h h h d d h h 2 2 K U 2 1 2 h U h h g d d d d d d g h 2 2 K U 2 1 2 h U h d g h h g d d g h h g d g h d d h h h h h g K U 2 1 2 h U h h h ",
"g g g g h P U U U U U U U P g h U @.h 2 h P @.P K h g g g g g g g g K U U U g g K P g g K P g g g g h h U @.h 2 h P @.P U U g g P U h h U @.h 2 h P @.P K K g g g g g g K K h h U @.h 2 h P @.P g K U U K g g h U U h g K U h g K U U U U P U @.h 2 h P @.P K P ",
"g g g g h P U U U U U U U P g h U @.h 2 h P @.P K h g g g g g g g g K U U U g g K P g g K P g g g g h h U @.h 2 h P @.P U P g g P U h h U @.h 2 h P @.P K K h g g g g h K K h h U @.h 2 h P @.P g K U U K g g h U U h g K U h g K U U U U P U @.h 2 h P @.P h P ",
"g g g g h P U U U U U U P K g h U @.h 2 h P @.P P h g g g g g g g h K U U P g g K P g g K P g g g g h h U @.h 2 h P @.P U P g g P U h h U @.h 2 h P @.P P K h g g g g h K U h h U @.h 2 h P @.P g K U U K g g h U U h g K U h g K U U U U P U @.h 2 h P @.P g K ",
"g g g g h K U U U U U U P K g h U @.h 2 h P @.P P K g g g g g g g h K U U P g g K P g g K P g g g g h h U @.h 2 h P @.P U P g g P U h h U @.h 2 h P @.P P P K h g g h K P U h h U @.h 2 h P @.P g K U U K g g h U U h g K U h g h U U U U P U @.h 2 h P @.P g K ",
"g g g g h K P U U U U U P h g h U @.h 2 h P @.P U K h g g g g g g h P U U K g g K P g g K P g g g g h h U @.h 2 h P @.P P P g g P U h h U @.h 2 h P @.P U P K K h h K K P U h h U @.h 2 h P @.P g K U U K g g h U U h g K U h g h U U U U P U @.h 2 h P @.P g K ",
"g g g g h K P U U U z.z.z.z.z.z.z.z.z.z.z.z.z.z.z.z.z.z.z.z.z.z.z.z.z.z.z.z.z.z.z.z.z.z.z.z.z.z.z.z.z.z.z.z.z.z.z.z.z.z.z.z.z.z.z.z.z.z.z.z.z.z.z.z.z.z.z.z.z.z.z.z.z.z.z.z.z.z.z.z.z.z.z.z.z.z.z.z.z.z.z.z.z.z.z.z.z.z.z.z.z.z.z.z.z.z.z.s.U @.h 2 h P @.P g K ",
"h g g g h h P P U U z.g.g.g.g.g.g.g.g.g.g.g.g.g.g.g.g.g.g.g.g.g.g.g.g.g.g.g.g.g.g.g.g.g.g.g.g.g.g.g.g.g.g.g.g.g.g.g.g.g.g.g.g.g.g.g.g.g.g.g.g.g.g.g.g.g.g.g.g.g.g.g.g.g.g.g.g.g.g.g.g.g.g.g.g.g.g.g.g.g.g.g.g.g.g.g.g.g.g.g.g.g.g.g.g.g.d.H U @.h 2 h P @.P g K ",
"h g g g h h K P U U z.g.d.d.d.d.d.d.d.d.d.d.d.d.d.d.d.d.d.d.d.d.d.d.d.d.d.d.d.d.d.d.d.d.d.d.d.d.d.d.d.d.d.d.d.d.d.d.d.d.d.d.d.d.d.d.d.d.d.d.d.d.d.d.d.d.d.d.d.d.d.d.d.d.d.d.d.d.d.d.d.d.d.d.d.d.d.d.d.d.d.d.d.d.d.d.d.d.d.d.d.d.d.d.d.d.d.H U @.h 2 h P @.P g K ",
"P K g g g h K K P U z.g.d.H H H H H H H H H H H H H H H H H H H H H H H H H H H H H H H H H H H H H H H H H H H H H H H H H H H H H H H H H H H H H H H H H H H H H H H H H H H H H H H H H H H H H H H H H H H H H H H H H J J J J J g.d.H U @.h 2 h P @.P g K ",
"P K g g g g h K K P z.g.d.H nXnXnXnXnXnXnXnXnXnXnXnXnXnXnXnXnXnXMXnXMXnXnXnXnXMXMXnXnXnXnXnXnXcXgXcXcXqXJ.J.J.J.J.=XyXyX5X4X4X4X4X4X4X4X4XyX5XyX4XyXyXyXuXuXdXM.>X*XH.H.H.S.H.S.H.H.=XuXuXsXsXsXsXsXsXsXsXsXsXsXsXfXfXfXfXfXdXfXfXfXh.g.d.H U @.h 2 h P @.P g K ",
"P K g g g g g K K K z.g.d.H MXMXMXMXMXnXnXnXnXnXnXnXnXnXMXnXnXnXnXnXnXnXnXnXMXMXnXMXMXMXnXnXnXcXcXcXcXqXJ.J.J.H.H.=X3X3X4X4X4X4X4X4X4XyXyXyXyXyXyXyXyXyXyXuXuXM.>X*XJ.H.H.H.H.H.H.J.=XuXuXuXuXsXuXuXuXsXsXsXsXsXsXsXsXsXfXfXfXfXfXfXz.g.d.H U @.h 2 h P @.P g K ",
"P K g g g g g h h K z.g.d.H MXMXMXMXnXMXMXMXMXMXnXnXnXnXnXnXnXnXnXnXnXnXnXnXnXMXMXMXMXMXMXnXnXnXcXcXvX6XK.J.H.J.K.=X3X3XyX4X4X4X4XyXyXyXyXyXyXyXuXuXuXyXyXuXuXM.>X*XH.H.H.H.H.H.H.J.=XuXuXuXuXuXuXuXaXuXuXuXuXsXsXsXsXsXsXsXsXfXfXfXz.g.d.H U @.h 2 h P @.P g h ",
"U K h g g g g g h h z.g.d.H MXNXNXMXMXMXMXMXnXMXnXMXMXMXMXMXnXnXnXnXnXnXnXnXnXnXnXnXMXnXnXnXnXnXnXcXvX>XK.H.K.K.P.=XyXyXiX4X4XyXsXiX3X3X3X3X3X3X3XuX3X7XaXfXdXM.>X*XH.K.H.H.H.H.H.H.I.uXyXyXyXuXyXuXaXuXuXuXuXuXuXuXaXaXsXsXsXsXfXfXz.g.d.H U @.h 2 h P @.P g h ",
"U P K g g g g g h h z.g.d.H MXNXNXNXNXMXNXMXMXMXMXMXMXMXMXMXnXMXMXnXnXnXnXnXMXMXnXnXMXMXnXMXnXnXnXbXvX>XP.S.K.H.K.=XfXuXyXiXiXiXaX3X3XaXfXaXaXuXuX7X`.1X7XuXdXM.>X*XK.K.H.H.H.H.H.K.I.uX7XyXyXyXyXyXyXyXyXyXyXyXyXuXuXuXsXsXaXuXsXsXz.g.d.H U @.h 2 h P @.P g h ",
"U U K g g g g g g g z.g.d.H NXNXNXMXNXMXMXNXMXMXMXMXNXMXMXMXMXnXnXnXnXnXnXnXnXnXnXnXnXnXnXnXnXnXnXbXZX>XK.P.K.K.P.=XdXsXyX4X3XyXyXyXuXaXuX1X7XuX1X`.R.`.uXfX7X/.>X-XP.H.H.H.H.H.H.K.I.uXyXyXiXyXiXiXiXiXyXyXyXiXiXiXiXiXyXyXsXyXaXsXz.g.d.H U @.h 2 h P @.P g g ",
"U U K h g g g g g g z.g.d.H NXNXNXNXNXNXNXMXNXMXMXMXMXMXMXMXMXnXnXnXnXnXnXnXbXcXcXcXbXcXcXbXbXnXnXbXvX:Xn.B.c.A.=X-X9XlXfX`.Q.T.!.!.Q.Q.Q.1XdX`.!.!.2X7XdXuXdX/.:X*XI.H.K.S.H.S.S.J.I.uXyXiXiXiXiXiXiXiXiXyXyXyXyXiXiXiXiXiXiXiXiXiXz.g.d.H U @.h 2 h P @.P g g ",
"P P P K g g g g g g z.g.d.H MXNXMXNXNXNXMXMXMXMXMXMXNXMXMXMXnXnXnXnXnXbXcXbXbXbXhXhXcXbXbXbXbXbXyX3X`.+X-X-X*Xc. X/.9X`.).3XfXdXdXdXuX7X1X7X!.).R.!.`.9XdXdX9X(.OX*XL.K.H.H.H.H.H.J.I.uXsXhXgXhXgXsXiXiXiXsXsXsXiXiXsXsXsXsXsXsXiXiXz.g.d.H U @.h 2 h P @.P g g ",
"P P U K g g g g g g z.g.d.H NXNXNXNXMXMXMXMXMXMXMXNXMXMXnXnXnXnXnXnXbXcXcXcXhXhXhXhXbXcXcXbXyX).`.`.:X@XA.A.c.A.v.' { R.`.`.7X9XuX9XdX7X9X!.!.R.{ _ { _ `.`.7X+X+X XI.L.P.G.H.K.H.J.I.dXfXhXhXbXhXsXiXiXiXgXhXhXgXgXgXhXgXhXgXbXcXhXz.g.d.H U @.h 2 h P @.P g g ",
"P P U P K h g g g g z.g.d.H NXNXNXNXMXNXMXMXNXMXMXMXnXnXcXnXbXbXbXcXcXcXcXcXhXhXhXhXcXhXaX).1XfXzX7X_.:X X*X*XM.0._ { e.{ ~ ! _ _ { !.!.R.^.{ C C { ] _ { ^.:X(.@X Xn.n.I.P.H.K.H.J.I.dXsXhXhXhXgXiXiXiXgXhXcXcXhXhXhXhXhXgXiXhXhXhXz.g.d.H U @.h 2 h P @.P g g ",
"P P U U K h g g g g z.g.d.H NXNXNXNXNXNXNXNXNXNXNXMXnXbXcXcXcXbXcXcXcXcXhXcXcXbXbXcXsXyX1XdX`.).e.{ { ( ( ) q.0.0._ e.( L V ! ^ _ ^ ^ _ { C 9 C _ _ ] ] ] ~._.v.OX XoX-XA.I.G.L.P.P.=XdXsXiXgXhXgXgXgXgXgXhXbXbXbXbXbXhXbXhXhXcXhXgXz.g.d.H U @.h 2 h P @.P g g ",
"K P U U P K g g g g z.g.d.H NXNXNXNXNXNXNXNXNXNXMXMXmXnXbXbXbXnXbXcXbXbXcXbXbXbXbXsXlXfXT.{ ~ _ ~ ( _ { _ ! ! ` ( _ ! q q N L ! ! ! B B C 9 N C N L ( ` ,.q.~.0./. Xn.n.A.A.I.I.I.I.-XzXfXsXcXhXcXhXcXcXhXbXbXbXbXbXnXbXbXbXcXcXbXbXz.g.d.H U @.h 2 h P @.P g g ",
"K P U U U P K g g g z.g.d.H NXNXNXNXNXNXNXMXMXNXNXMXNXmXmXnXnXnXnXnXnXnXmXtXVXAXGXzX7XT.{ _ [ ` ~ _ ! ^ L ( ] ! N B q > - q q q w 9 > 9 : # > 3 9 n ^ ( ) ,.w.` v.M. Xc.-XA.A.A. Xn.M.`.9X7XyXcXcXhXcXbXbXbXbXbXnXnXnXnXnXbXbXbXbXbXz.g.d.H U @.h 2 h P @.P g g ",
"h P U U U U K K g g z.g.d.H NXNXNXNXNXNXNXNXNXNXNXMXMXNXNXmXmXNXmXnXNXmX7XU.P.P.U.<X!.{ { ~ ! ! ! ! ! N ^ ( C q q v > > 9 9 q q w > # # X # 9 > q 3 B Z L ,.( ] ` 0.>.c..XA.) ,.,.w.w.!._.`.7XhXbXcXcXbXnXnXnXnXnXnXnXnXnXnXnXnXnXnXz.g.d.H U @.h 2 h P @.P h g ",
"h K U U U U P K h g z.g.d.H NXNXNXnXNXnXnXnXmXNXNXNXNXNXNXNXNXNXNXNXNXNX`.U.J.K.U. X{ !._ ~ ! ! N V V ! q q > V N V 9 < > q _ v < # X @   : > : > < 3 n Z L ^ L ] ] ,.,.' ( B ] ' 0.q.(.@X9XuXhXbXbXbXnXnXnXnXnXnXnXnXnXnXnXnXnXnXnXz.g.d.H U @.h 2 h P @.P h g ",
"g K P U U U U P K K z.g.d.H NXNXbXnXnXcXbXnXnXnXNXNXNXNXNXNXNXNXNXNXNXNX`.P.K.K.=X0.{ { ~ C ! ! C C C 9 6 q 9 w q V 9 > N ~ V w q 9 # X : X : 6 : - > < 3 v 3 v ) Y ^ L Z Z Z ` q.,.' ,.!.^.7X3XbXbXmXnXmXmXmXmXmXnXmXmXnXnXnXnXmXnXz.g.d.H U @.h 2 h P @.P h g ",
"g K P U U U U U P K z.g.d.H NXNXnXnXmXnXnXnXbXmXNXNXSXSXNXNXNXNXFXFXFXFX2XU.K.P..X_ ( ! C B q 9 C N > : q B V C V L C C C V C L V # + # @ @ - : - - - : 3 3 3 < Z ^ ) L ^ n ( L Z m L ^ ` { `.dXvXmXSXNXSXNXSXSXSXSXNXNXNXNXNXNXNXNXz.g.d.H U @.h 2 h P @.P h g ",
"g h P P U U U U P P z.g.d.H FXSXSXmXNXNXNXmXmXNXNXSXFXSXSXNXSXNXSXFXFXSX7X=XG.-X_ ! B N w 9 > v < 9 q C ! C V N > 0 ! C N ! ! q : : X X @ # # @ # > X @ > 3 N 3 q v L ^ ,.] ] ( ^ ( ( v.e.#X^.).zXSXSXSXSXSXSXSXSXSXSXSXSXSXSXSXSXSXz.g.d.H U @.h 2 h P @.P h g ",
"g h P P U U U U U P z.g.d.H SXSXSXNXNXmXmXSXFXSXFXFXFXFXFXSXFXFXFXFXFXFX7X=Xn.( ! C 9 6 9 9 N N : q C ! C N > > N C L N C N q N # + @ @ @ @ # # # X X X # q V q 3 C v n n Z Z L L L Y ] v.!.!.^.^.CXSXSXGXGXGXGXGXSXSXSXSXSXSXSXSXSXz.g.d.H U @.h 2 h P @.P h g ",
"g g K P P U U U U U z.g.d.H SXNXNXNXmXbXSXFXFXFXFXFXFXFXSXFXFXFXFXFXFXFXzXM.L w C w : 9 : q 9 > q C ! L V N C C N < w N q q ! - @ @ @ # # # @ > #   # X @ 0 L c - < 9 B > 3 0 V Z q.q.~._.@X!.(.^.`.vXFXGXGXGXFXGXGXGXGXGXGXGXGXGXGXz.g.d.H U @.h 2 h P @.P K h ",
"g g K P P U U U U U z.g.d.H NXSXSXSXSXSXSXFXFXFXFXFXSXFXSXFXFXFXFXFXFXFX!.! q 9 w : : 9 9 : 6 w ! ! C V v < v q v q v 9 9 V o # 5 : + $ # # : # X @ X 9 : B v ( - ! v v 9 o : n ( ( /././._.!.!.!.).zXZXFXGXGXGXGXGXGXGXGXGXGXGXGXSXz.g.d.H U @.h 2 h P @.P K h ",
"g g h K P U U U U U z.g.d.H NXNXFXFXFXFXSXFXFXFXFXFXFXFXFXFXFXFXFXFXFX7X~ N q : 6 9 9 9 - 9 9 B ! ` V 0 V ; < ^ ! 0 > q w X # # # # # $ # 9 N # # # > < q L ^ w.> q & n ] q B Z ^ ] 0.] ^.e.!.^.^.`.dXZXSXSXDXGXGXGXGXGXGXGXGXGXGXGXz.g.d.H U @.h 2 h P @.P K h ",
"g g h K P P U U U U z.g.d.H mXmXFXFXFXFXFXFXFXFXFXFXFXFXFXGXGXFXFXFXmX[ r 9 < w B : 9 - < w B ! B ( B 6 0 v ( ( ] Z v : o X # # # # # # # : 9 N 6 : v v q n ( q.3 v n ^ ` ( ! C q V ^ _ ! ` 0.w.!.!.^.dXzXSXSXSXSXDXDXSXDXDXDXDXDXSXz.g.d.H U @.h 2 h P @.P K h ",
"g g g h K P U U U U z.g.d.H SXNXFXFXFXFXFXFXFXFXFXFXFXFXFXFXFXFXSXNXmX~ r w ~ N 9 > 9 6 N 9 C B v n v ; Z C v 0 Z Y ^ N - : > - # # 5 # # : w 9 V < 9 ! C L ( ] 9 q 9 ! 0.^ L - > - 3 q n C n ( ] 0.e.{ 1XZXSXmXSXSXSXSXSXSXSXSXSXSXz.g.d.H U @.h 2 h P @.P K K ",
"g g g h K P P U U P z.g.d.H FXFXFXFXGXFXFXFXFXFXGXGXFXGXFXFXGXFXSXSXQ.~ r C C N > w B 9 C q C B < < L ; B 9 ; 0 < 0 Z c < c > > 9 6 - 9 5 w q C n L > B _ L L 0.! 0 c c 0.( w > - 9 ; < B v L L ` ] 0.] R.zXZXSXSXSXSXSXSXSXSXSXSXDXz.g.d.H U @.h 2 h P @.P h K ",
"g g g h h K P P P P z.g.d.H ;X<X<X<XJXGXGXGXGXFXGXGXFXFXFXGXFXFXSX3X[ ~ ! C C 9 N 9 N N 9 C v q < B 0 B < < v v > < ( v n v 0 9 9 9 > q > 6 q V Z ( q n V v 0 C ! ! L v w.! N : @ # - > < q Z ! L ] w.0.e.7XSXSXSXDXSXSXDXDXSXSXDXGXz.g.d.H U @.h 2 h P @.P h K ",
"g g g g h K K P P K z.g.d.H P.Y.Y.Y.;X;XwXHXGXFXGXGXGXFXGXFXFXFXZXCX~ W ! B 9 9 C C C ! C V q - ; Z , 3 < 3 0 ! < < B n n q 9 q q N q > > # N N B ^ c 9 > 3 q 3 9 0 v n L C q - : X o - ; > 3 Z ^ ) 0.` ` !.CXSXGXGXGXGXGXGXGXHXHXHXz.g.d.H U @.h 2 h P @.P h K ",
"h g g g h h K K K h z.g.d.H k.k.N.Y.;XY.Y.;X<XJXGXGXGXFXGXGXFXGXzX!.~ ~ N 9 q N C C v ^ C N N : > n 3 < c ; 3 m < c 0 c v n v 0 q C w q - > > < n ^ v < ; ; : 9 o < Z ! ] _ V - X # : - % : > n Y ` 0.] 0.e.CXDXDXGXGXHXHXHXHXHXHXHXz.g.d.H U @.h 2 h P @.P h K ",
"h g g g h h h K h h z.g.d.H Y.P.| f.U.Y.Y.Y.Y.Y.;XtXGXFXFX<X<X<X<X( _ C N w ! ! w > v ` ` c > - : v < < v 3 c c n c m v v 0 < < 3 v q 3 v 9 > 9 B ` L : : > > # > v ^ Z ( ` q o # @ o O q 9 0 n _ !.~.v.` !.kXDXHXHXHXHXHXHXHXHXHXHXz.g.d.H U @.h 2 h P @.P h K ",
"h g g g g h h h h g z.g.d.H f.f.f.f.f.| f.f.f.f.f.k.k. X:X;XK.U.P.M.] V C C _ ! ! ^ ^ ( ^ Z < : # - : X - 3 3 , p m Y Z n c c 0 < ; < 9 w q q ; m ` n w : > @ - n ! 0 Z ! { _ C - > @ : ; > v ^ ! _ ] !.e.6XkXDXDXDXGXHXHXHXHXHXHXHXz.g.d.H U @.h 2 h P @.P h K ",
"h h g g g g h h g g z.g.d.H U.U.U.U.U.U.U.U.U.U.U.Y.Y.Y.Y.U.K.K.Y. X( ! C N ! V V n c 0 ; 3 - o o - # X X o & & & m ^ m m Z , 3 v 0 0 : q q ; < n n L o > C X q C > V 9 3 ; 3 v ; q q : > 9 3 v Z Z Y ` 0.e.`.zXDXDXGXGXGXGXGXGXGXGXz.g.d.H U @.h 2 h P @.P h K ",
"K h g g g g g g g g z.g.d.H U.Y.Y.Y.U.Y.Y.Y.Y.U.U.Y.U.Y.Y.U.J.J.P.M.L N q ! N B N w ; < - n o # o X o o o O , & & b G Y ^ Z , c v 0 ; > 9 V n ; < c 3 - v v - N : v o # : v C Z ^ v v ! Z v Z Z Z ) ^ ,.w.v.`.BXDXGXDXDXDXDXGXGXHXGXz.g.d.H U @.h 2 h P @.P h K ",
"K h g g g g g g g g z.g.d.H Y.Y.Y.Y.Y.Y.Y.Y.Y.Y.Y.Y.Y.Y.;XU.K.H.I.M._ N B N C w w 9 > < < Z Z V > > - o - & p a b A Y n Y c , , ; ; > < ; < & < , p c ; B 9 3 N ; > # > q n n ) ] Z B ^ w.` ` ` ` w.w.v.w.@X8X7XSXSXAXZXSXDXGXGXGXHXz.g.d.H U @.h 2 h P @.P h K ",
"P h g g g g g g g g z.g.d.H | | | | | | | | | | H.K.K.| j.P.G.L.-Xv.^ q N N N q w w > > 9 - - o o o - > > ; y G G T T , p c 3 , < < , , , ; ; c c p Y Z > 3 n L v > > ; < Z ^ ] ] ( ^ ( ^ w.w.q.0.,.` w.w.^.6X9XDXZXmXvXvXZXmXSXvXZXz.g.d.H U @.h 2 h P @.P h h ",
"P K g g g g g g g g z.g.d.H GXGXGXGXFXGXGXGXGX(.k.Y.<XGXAXn.A.*XA.] ^ N C C q 6 N w > : : - - # o > > - 3 p A T G T T m a c , , b m b m p y p c p c n m v ; 3 ! V q : ; n B ^ ) w.Y ( ( ^ ) 0.^ ^ ) 0.,.~.+X_.).7XfXvXmXSXmXvXfXlXvXz.g.d.H U @.h 2 h P @.P g h ",
"P K g g g g g g g g z.g.d.H FXSXSXSXGXDXDXDXFXAX| Y.JXGX@X' R B.-X! ! ! N v q > V > 9 6 - - : - > o > ; c c G T A -.T G A , p s G G m b , y p b c G Y G m c , L L ; ; 0 0 , L ^ w.Y ( ` 0.c Z L ! ( ) w.rX_._.1X7XvXZXDXDXZXmXvXvXlXz.g.d.H U @.h 2 h P @.P g h ",
"P P g g g g g g g g z.g.d.H SXSXSXFXSXDXFXDXFXGXc.;XHXCXe.,.Y A.n.v.^ C C v 9 > q > q < - > - - > : < ; v c A T b T *.*.Y y j T *.T A c y y b G b m ` Y m / a m n c - < , ; n L ( L Z ) ] , ; Z 0 ( ! 0.@XVXAX`.dXDXSXDXHXGXGXGXDXSXz.g.d.H U @.h 2 h P @.P g h ",
"P P h g g g g g g g z.g.d.H SXGXFXGXGXGXGXGXGXGXM.<XBX{ N ( L ( ' C ! ! C V 9 > 9 9 N > : - : > : ; ; < a b A *./ A t t T j T X.*.T b p a b A G m m Y A m b T a n Z % , ; p , 3 Z Z ( ` ` c ; < n n ^ 0.^.`.BXdXDXDXGXGXGXGXGXDXDXDXz.g.d.H U @.h 2 h P @.P g g ",
"P P K g g g g g g g z.g.d.H GXGXGXGXGXGXGXGXGXGXM.<XBXe.n 0 v q N C ! C V N 9 > 0 < q O > > < 3 ; ; < a a b D <.<.D =.3.<.=.T A A T b a b D A A A m G T m b ) m p m c b p c , , 3 Z ` ( ,.m c ; < Z Z e.8XdXBXCXHXHXHXGXHXDXSXZXmXvXz.g.d.H U @.h 2 h P @.P g g ",
"K P K g g g g g g g z.g.d.H GXHXHXHXHXHXGXGXGXGXM.<XHX_ v v.q 9 v C ! C n v 0 , , c < > > : 3 ; : ; < b A T *.3.r.r.T =.X.T T D j b s b D T A D b y s G A A G T ; 3 Y G Y a p ; ; c ) ( ] c c ; v ^ n e.rXdXBXHXHXHXHXGXDXZXmXvXvXvXz.g.d.H U @.h 2 h P @.P g g ",
"K P K h g g g g g g z.g.d.H JXJXJXHXHXHXHXHXGXHXqX<XHX] 0 3 B q q ! C , v , c b y c ; : > 9 : - > < y j X.*.=.r.y.r.r.=.D A D s t t D &.*.*.s A * p s I G A G m ; % * ) T y m ; < 3 ^ 0.` c B ; c 0.Z ^.AXzXHXHXHXJXHXDXCXlXlXfXcXfXz.g.d.H U @.h 2 h P @.P g g ",
"h P P h g g g g g g z.g.d.H JXJXJXJXHXDXHXHXHXGXqX<XtX(.C q v V v N < 0 c Z m a c 3 < - > ; o - ; p b X.=.<.<.y.y.y.y.r.3.<.&.T X.*.*.&.=.&.D a , a s G m A A y ; - s G T b ; ; ; ( ( ,.( n v v ` ^ v.^.AXDXDXJXHXHXHXDXDXZXlXfXfXfXz.g.d.H U @.h 2 h P @.P g g ",
"h K P K g g g g g g z.g.d.H JXJXJXJXJXDXDXGXGXGXtX<X6X_.C N q 9 N v < c , b b m b ; ; - - % - ; ; a D *.3.r.r.y.m.m.m.y.r.5.3.3.=.X.3.=.&.T j G , * a A m a * % ; ; *.*.T , ; ; c Z ( ( ` Z c L /.L ^.9XAXCXCXCXHXHXHXHXHXDXCXvXlXfXz.g.d.H U @.h 2 h P @.P h g ",
"h K P K h g g g g g z.g.d.H JXJXJXJXJXDXDXSXDXSXtX<X^.( !.N q q q < < c y a b y y ; < ; % - - ; , A +.=.r.r.b.m.m.m.m.m.m.t.r.r.r.<.=.=.&.X.&.X.j * , ; & % & ; * G A *.s , , 3 0 p Z ^ m m ( w.0.~.BX9XZXDXDXHXHXHXHXHXHXHXDXZXmXlXz.g.d.H U @.h 2 h P @.P h g ",
"h K P P h g g g g g z.g.d.H JXJXJXJXHXDXDXDXGXHXtX<XtX_ N q 9 q : - c s G y y , , ; ; - o % ; ; a T <.3.y.y.m.Z.m.m.m.m.m.m.m.t.r.r.3.3.3.3.=.=.X.s * 3 , , , , a m m p a , , c , p Z Z c ) ` ) 0.rX9X9XCXDXDXDXDXGXDXDXDXDXDXDXSXZXz.g.d.H U @.h 2 h P @.P h g ",
"g K K P K h g g g g z.g.d.H JXJXJXJXHXDXDXDXDXGXVX<XVX^.C > w - X X b j &.S s a p , ; o . ; ; ; A *.5.y.m.m.m.m.m.m.m.m.m.m.t.r.<.r.r.r.3.3.3.=.&.} A y p b b s , * * y y y / a y m b m ,.) ) 0.0X6X`.7XDXDXDXDXDXDXDXDXDXDXDXDXDXDXz.g.d.H U @.h 2 h P @.P h g ",
"g h K P K h g g g h z.g.d.H JXJXHXHXHXDXDXAXDXDXVX-X/.{ ! ! q @ X @ -.y.#.} } j p p ; - ; ; ; p &.3.y.y.Z.m.m.m.m.m.m.<.-.&.&.T D G G / T <.3.<.<.=.o.#.=.3.*.D s y y A &.D *.s ) b R Y m Y v.` _._.9XdXCXvXZXDXDXDXDXDXDXDXDXDXDXDXz.g.d.H U @.h 2 h P @.P h g ",
"g h h P P K h h h K z.g.d.H JXJXJXAXDXAXDXDXDXHXVX-X' L V n > # @ X t.y.} j j j b y , , ; ; , A =.6.y.y.Z.Z.Z.m.m.y.5.1.=.1.=.=.&.X.D S b b j D =.3.5.3.y.y.3.=.=.X.t T -.*.T T A s R m G ^ _./.{ `.dXCXvXvXDXDXDXDXDXDXDXDXDXDXDXDXz.g.d.H U @.h 2 h P @.P h g ",
"g h h K P P K h h P z.g.d.H JXJXHXDXZXZXDXDXDXDXVX,X^ q N > - X X X m.Z.} S D D T b / b ; ; b T 3.y.a.y.Z.Z.Z.m.b.6.3.3.4.4.4.4.4.3.:.#.X.j s A j #.4.6.y.y.6.1.1.#.o.D D *.&.T T oXA m m Y w.`.^.`.dXdXZXDXDXDXDXDXDXDXDXDXDXDXDXDXz.g.d.H U @.h 2 h P @.P h g ",
"g g h K P P K h K P z.g.d.H HXJXHXDXCXCXDXDXHXHXVX,XL ] > : X # X @ '.'.=.j S &.S b G m < , / -.r.y.a.y.Z.Z.Z.Z.y.6.6.3.1.3.3.1.:.:.:.1.1.#.o.X.j } o.1.y.y.6.4.3.:.:.Z.C.1.6.$X$X$Xb Y Z ) >XrX7XBX7XzXDXCXDXDXDXDXDXDXDXDXDXDXDXDXz.g.d.H U @.h 2 h P @.P h g ",
"g g h h P P P K P P z.g.d.H AXAXAXDXDXDXDXDXHXHXVX,X~.] q 9 # : : # ~.'.t.} D &.T / G c c c G &.r.y.a.Z.Z.Z.Z.Z.m.b.5.3.3.=.j s * ; * = t t X.o.o.o.o.:.6.6.6.y.3.1.6.Z.|.|.oX$X$X$XG ) Y 0.6XBXBXCXuXdXvXCXDXDXDXDXDXDXDXDXDXDXDXDXz.g.d.H U @.h 2 h P @.P h g ",
"g g g h K P P P P K z.g.d.H AXAXCXCXDXDXDXDXDXHXVX=XrXe.w q - X # @ t.y.'.t.S } X.X./ c c b &.&.4.6.y.Z.Z.Z.Z.'.Z.b.y.5.=.=.*.&.G , * c q.*.u j o.o.o.#.:.4.y.3.3.1.3.=.+.*.<.b. X$X/ ` Y ` @XBXDXCXDXZXZXAXSXDXDXDXDXDXDXDXDXDXDXDXz.g.d.H U @.h 2 h P @.P h h ",
"g g g h K K P P K K z.g.d.H AXCXCXCXCXDXDXDXDXAXtX=XVXVX! 9 # # # o b Z.'.t.m.t.&.t.*.<.b G T &.3.y.y.a.Z.Z.'.'.].].'.y.r.1.:.6.r.r.<.-.*.X.j j X.o.;.1.4.p.Z.4.1.=.o.} S D X.*.r.M.T ,.G ] 9XBXDXZXDXDXZXZXSXSXSXSXAXDXZXDXZXDXDXDXz.g.d.H U @.h 2 h P @.P h h ",
"g g g g h K K K K h z.g.d.H CXCXCXCXCXCXCXCXCXAXtX=XAXBXe.9 > - - - % Z.'.'.].r.S X.<.-.G / T <.3.y.y.Z.Z.Z.'.].].[.[.].].C.y.=.3.y.C.Z.Z.6.=.=.#.=.:.4.Z.].|.6.=.o.} #.:.1.6.5.m.q.,.q.) 8XBXZXZXCXCXZXZXZXZXZXZXZXZXZXZXZXZXZXZXZXz.g.d.H U @.h 2 h P @.P h h ",
"g g g g h h K K h h z.g.d.H BXBXBXBXzXBXBXBXBXBXtX=XAXBX{ C 0 3 : : o 3.'.'.].y.o.D &.*./ / T -.3.y.Z.Z.Z.Z.Z.'.].[.[.}.XXXX}.6.;.;.1.1.3.1.:.:.+.3.3.y.[.oX$Xt , ; * T t j 1.C.].T ,.Y OXBXfXCXZXZXZXZXZXZXZXZXZXZXZXZXZXZXZXZXZXZXz.g.d.H U @.h 2 h P @.P h h ",
"g g g g g h h h h g z.g.d.H tXtXBXzXzXzXzXzXzXBXtX=XBXBXBX' c , 3 ; : & Z.].'.6.6.3.<.<.G / T <.3.y.Z.Z.Z.Z.Z.Z.C.[.}.XXXX}.}.XXXXXXXX}.|.[.].m.y.y.y.Z.XX$X$X4.1.D b q.*.u o.Z.oXG ) 0.BXCXCXvXvXvXCXCXvXvXvXvXvXvXvXzXzXvXZXZXZXZXz.g.d.H U @.h 2 h P @.P h K ",
"g g g g g g h h g g z.g.d.H ;XA.BXzXzXzXzXzXzXBXtXI.AXAXAX,XR 3 0 - - o * Z.y.y.4.D D *.b b T *.3.y.m.Z.Z.Z.Z.Z.C.[.[.XXXX}.}.XXXXXXXXXXXXXXXX[.C.y.y.'.XX%X%X=.2.C.C.C.Z.y.:.$X XI *.,XBXCXCXvXzXzXzXzXlXzXvXzXzXzXzXzXzXzXzXzXzXzXz.g.d.H U @.h 2 h P @.P h K ",
"g g g g g g g g g g z.g.d.H ;XL.BXkXzXzXzXvXBXBXtXI.AXAXAXI.V.R 3 ; - - - =.a.4.&.X.&.-.A b A T 3.r.m.Z.Z.Z.Z.Z.'.].[.}.}.[.}.}.XXXXXXXXXXXXXX{.Z.a.Z.'.XX%X%X%X1.;.p.[.XXoXXX%X>.I L.,XBXzXzXlXzXlXfXfXlXlXfXlXzXzXzXzXzXzXzXlXzXzXz.g.d.H U @.h 2 h P @.P h K ",
"h g g g g g g g g g z.g.d.H tXtXkXzXzXvXBXBXCXBXtXL.BXBXAX=XI.c.n < - O : ; y.6.=.&.D / b A A T -.r.m.Z.Z.y.a.Z.'.].[.}.}.{.}.}.XXXXXXXXXXXXXX[.Z.y.Z.Z.}.oX%XXX$X[.Z.i.[.oX$X%X*.c.I.<XzXzXlXlXzXlXlXlXlXlXlXlXfXlXfXfXlXlXlXlXzXlXz.g.d.H U @.h 2 h P @.P h K ",
"h g g g g g g g g g z.g.d.H kXkXzXzXzXvXCXCXCXBXtXL.BXBXAX=XL.U 0 3 : # O - s :.=.X.&.b b b b D =.3.y.y.Z.Z.Z.Z.'.Z.].{.}.}.}.}.}.XXXXXXXXXXXX{.'.a.y.Z.[.oX%X%X%X%X%X%X%XoX%X%X=.L.G.<XzXzXlXfXlXfXfXfXlXfXfXfXfXfXfXfXfXfXfXfXfXfXz.g.d.H U @.h 2 h P @.P g K ",
"h g g g g g g g g g z.g.d.H lXzXzXzXzXzXvXvXzXBXtXL.BXBXBX-XG.c.v 3 > # O - y p D X.S A b b A T =.r.m.Z.Z.Z.Z.Z.Z.Z.Z.[.[.{.{.}.}.XXXXXXXX{.C.p.a.a.a.a.].XX,X%X%X%X%X%X%X%X%X%X+.G.K.-XdXfXfXfXfXfXfXfXfXfXfXfXfXfXlXfXfXfXlXzXvXzXz.g.d.H U @.h 2 h P @.P g K ",
"h h g g g g g g g g z.g.d.H fXfXlXzXzXzXzXvXzXBXtXL.BXBXVXB.G.>.c < N : : : ; c b b b b A b A T =.y.m.Z.Z.Z.Z.Z.Z.a.a.a.C.[.{.{.{.}.}.{.{.{.C.Z.4.t.a.'.}.XX%X%X%X%X%X%X%X%X%X%X5.G.K.-XuXfXfXfXfXdXfXdXfXsXfXfXfXfXfXfXfXlXzXzXzXzXz.g.d.H U @.h 2 h P @.P g K ",
"K h g g g g g g g g z.g.d.H fXfXlXlXlXzXzXzXzXBXBXL.BXBXVXA.P.j., , v : o - ; c b G b m b s b D 3.y.y.m.Z.Z.Z.p.p.p.p.p.p.C.C.C.{.{.{.C.;.;.a.}.}.8.t.[.}.XX%X%X{.XX%X%X%X%X%X$Xc.G.G.-XuXdXdXfXdXdXfXdXdXdXfXfXfXfXfXfXfXzXzXzXzXzXz.g.d.H U @.h 2 h P @.P g K ",
"K h g g g g g g g g z.g.d.H fXlXfXzXzXzXzXzXzXzXBXL.BXkXBXA.S.L.3 < ] - # - & , y m m c b b b T =.3.r.y.Z.y.p.p.4.6.4.4.p.p.p.C.C.C.y.1.=.} a.[.XX'.a.[.}.XX%X%Xa.{.XX%X%X%X%XC.V.P.H.=XdXdXsXfXsXfXfXfXfXfXfXfXzXdXzXzXzXzXBX`.7X8Xz.g.d.H U @.h 2 h P @.P g h ",
"K h h g g g g g g g z.g.d.H fXfXlXlXlXlXzXzXlXzXjXV.jXkXkXA.U.V., ; L - o o ; p p y , , y b s D &.r.y.y.y.a.y.y.4.4.4.;.4.4.i.p.4.y.6.:.&.} 4.Z.[.].a.}.}.%X,X,X%Xp.{.XX%X%X%XB.k.G.K.=XuXdXsXsXfXfXlXfXzXzXzXzXzXBXBX1X7X8X8X8X8X8Xz.g.d.H U @.h 2 h P @.P g h ",
"P K h g g g g g g g z.g.d.H sXsXsXsXsXsXsXsXsXfXkXV.9XjXkXA.F.G.i & o o # ; , c a a a a p y s D =.=.y.1.y.y.y.y.4.4.4.4.4.4.4.:.&.&.3.&.D S } 4.p.p.4.a.}.XX%X%X%X;.a.}.XXXXoXN.G.S.H.=XuXdXdXdXdXfXfXdXdXBXBX`.7X8X8X`.8X8X8X8X8X8Xz.g.d.H U @.h 2 h P @.P g h ",
"P K h g g g g g g g z.g.d.H iXsXaXiXiXiXiXiXiXaX9XL.9X9XkXA.J.F.P.c.- X O , a b b y b y y b a A *.=.1.6.:.y.y.y.4.y.4.4.6.6.6.+.T *.D A b b s j S ;.;.;.p.{.{.XX%X;.i.{.}.XX.XV.D.D.H.=XdXzXfXdXdXzX7X`.8X`.8X8X8X8X8X8X8X8XeX8X8X8Xz.g.d.H U @.h 2 h P @.P g h ",
"P K h h g g g g g g z.g.d.H iXiXiXiXiXiXiXiXiXaX9XV.9X9X9XA.K.J.J.B.L - : c G Y m m p c y y p A T *.=.6.:.3.3.4.1.1.y.p.b.<.T I I A A A s y y y j } } } ;.p.4.{.#.o.;.C.{.XX.XH.S.H.H.=XkXBX9X`.8X8X8X8X8X8X8X8XeXeX8X8X8XeXeXeXeX8Xz.g.d.H U @.h 2 h P @.P g g ",
"P P h h g g g g g g z.g.d.H iXiXiXiXiXiXiXiXsXsXkXV.jX8X!.L.J.J.K.c.L 9 0 c G m G G Y y y c b A A &.3.3.=.:.3.=.1.4.6.Z.D s b A s b a A a p * * y s j } o.o.#.b.o.} ;.C.[.{.V.H.H.H.G.A.>X6X6X8X8X8X8X8X8XeX8X8XeXeX8X8XeXeXeXeXeX8Xz.g.d.H U @.h 2 h P @.P g g ",
"P P K h h g g g g h z.g.d.H yXiXiXiXiXiXiXiXsXsXBX<XtXv.:X@.K.l.=X) ! N Z c m c c c , , , c c b A X.&.1.=.=.1.=.6.4.6.=.b y t b y s b y b b y p y a s j T +.C.b.<.o.o.p.C.XXV.l.H.H.=X:X6X8X8X8X8XeXeXeXeXeXeXeXeXeXeXeXeXeXrXrXeX#Xz.g.d.H U @.h 2 h P @.P g g ",
"K P K h h g g g g h z.g.d.H iXiXiXiXiXiXiXsXsXlXE.w.( ^ B L , K f < ! _ Z Z b Y b p , , ; p 3 , s *.&.3.*.*.=.:.6.6.1.#.s y a t t t s s s s y p s b a A I *.X.<.<.#.o.C.{.I.V.x.H.J.=X>X6X0XeXeX8XeXeXeXeXeXeXeXeXeXeX8X_._._._._.0Xz.g.d.H U @.h 2 h P @.P g g ",
"K P P K h h g g h h z.g.d.H iXiXiXiXiXiXsXsXaX1X7.7.7.M M v 3 3 ; : ` 0.Z G G m ^ m L & ; ; ; y s G T X.X.*.#.=.=.1.=.X.D D D D T D u s s j s s D 3.+.j j s i +.+.+.4.|.oXL.G.D.H.H.I.>X+XeXrXeXeXeXeXeXeX6X+X(.#X#X#XeXrXeXeXeXrXeXz.g.d.H U @.h 2 h P @.P g g ",
"h P P K h h g g h h z.g.d.H iXiXiXiXiXiXiXsXaX^.7.%.Q Q 6 < q 9 > c 0.,.,.,.-.) Y m c > , ; - ; , s T X.X.X.+.X.X.*.+.*.X.I +.+.+.=.=.} } } ;.=.} } } S j t t D D X.C.oXoXN.N.H.H.H.=XOXqXrX^.eX6X@X_.6X@X8XeXrXrXeXeXrXeXrX@X^._._.z.g.d.H U @.h 2 h P @.P g g ",
"h K P P K h h h h K z.g.d.H yXyXiXyXiXyXiXaXiX7.-.Q Q Q Q M - - % w.0.w.w.,.,.q.,.( < ; , ; % ; y y A A A A X.D X.D X.+.=.#.#.<.=.3.3.5.4.4.i.a.[.}.p.&.o.T j D I j C.oX|.L.l.S.H.J.=X~.+XrX!.6XeXrXrXeXeXrXrX8X6X_._.+X_.@XrXrXeXeXz.g.d.H U @.h 2 h P @.P g g ",
"h K P P K K h h K K z.g.d.H yXyXyXiXyXiXiXiX1X7.%.%.%.Q Q Q Q = ( w.q.0.0.w.q.q.q./ ; < > ; & ; y y s s b A A A D j A X.#.=.=.3.3.<.<.<.r.m.Z.C.[.{.C.a.XX|.1.o.=.=.|.C.A.L.G.H.H.J.=X~.qXeX+X6XrX6X_._.#X_.@XeXrXeXeXeXeXeXrXrXrX6Xz.g.d.H U @.h 2 h P @.P g g ",
"g h P U K K h h K K z.g.d.H 5XyXyXiXiXiXiXsX7.7.%.%.Q Q F F F F 0.0.w.q.q.q.t.q.w.q.c & - ; - ; ; a p y s j j s s A A D X.=.=.3.r.5.3.>.=.1.<.y.b.'. XoX$XoXC.1.2.b.C.b.A.k.l.x.H.H.=XOXOX_._.+X6XrXrXeXeXeXrXrXrXeX8X_._.@X6X6X_.#Xz.g.d.H U @.h 2 h P @.P g g ",
"g h P U P K K K K P z.g.d.H 5XyXiXiXiXiXiX1X7.-.%.%.F F Q F F F F / q.q.q.q.q.q.q.0.n ; - ; - ; ; ; , a t j D s s j j D I *.>.r.m.3.=.3.5.=.#.3.b.b.Z.|.oXoX|.6.C.5.5.c.c.V.G.S.D.H.=X:X6XrXrXrXrXrX6X6X@X#X#X_._.8X8XrXrXeXeXeXeXeXz.g.d.H U @.h 2 h P @.P g g ",
"g h P U P K K K K P z.g.d.H iXiXiXiXiXyXfXE.7.-.%.F F F F F F F F x x 0.q.q.q.q.q./ v ; & o % ; - ; , , y a y s a s D *.I X.+.5.r.y.Z.y.r.=.#.X.3.5.C.|.|.oX|.b.>.5.>.c.c.I.S.D.H.H.=X:X6X@XrX+X+X6XeXrXeXeXeXeXeXrXeXrXeX8X@X_.6X_.z.g.d.H U @.h 2 h P @.P g g ",
"g h K U U P K K P P z.g.d.H iXiXiXiXyXsX`.7.7.%.%.Q F F F x F F x F F l b q.0.q.q.w.B ; ; - ; ; o % , , * , * s s s y T D I +.#.y.Z.'.m.5.1.=.3.X.1.C.oXoXoX6.>.=.@.>.2.B.V.S.D.D.J.=X@X>X^.rXeXrXeXrXeX0X_.@X_._._._._.#X8XeXrXrX8Xz.g.d.H U @.h 2 h P @.P g g ",
"g g K U U U P P P U z.g.d.H iX1X).).).).R.7.%.Q Q F F F l z z F z F F l l k ,.,.,.,.Z 0 - o o - o O ; , , * * y p b y A s j D =.3.4.3.r.m.6.1.6.6.3.3.oXoX|.5.+. .+.O.$.j.G.D.S.D.F.=X+X>XeXeX+X_.+X+X6XrXeXrXrXrXrXrXeXeXrXeXeXeXeXz.g.d.H U @.h 2 h P @.P g g ",
"g g K P U U P P U U z.g.d.H ).).T.Q.).!.!.7.-.Q F Q F F x l l l l F z z l l k G ,.,.^ c < O o o o ; ; ; & ; a * p * t s s s j I X.=.3.5.5.=.=.5.1.Z.|.C.$XC.*.D +. .>.n.c.K.D.H.D.F.=X>X6X0XeXrXrXrXrXrXeXrXrX8X6X@X@X+X6X#X8XeXrXeXz.g.d.H U @.h 2 h P @.P g g ",
"g g K K P U U U U U z.g.d.H Q.T.T.Q.!.Q.^./.&.Q Q F F l l z x l l l x F l l l k Z ` Y Z < O - o O - - O ; , & p c * b m s b s A I X.#.#.=.3.3.3.6.3.5.b.b.>.I j +.+.I $.c.l.D.D.S.D.=X>X6X0XqX+X(.#X+X_.+X#X6X6XeXrXeXeXeXeXeXeXrXrXz.g.d.H U @.h 2 h P @.P h g ",
"g g K K P U U U U U z.g.d.H T.T.T.T.Q.T.#X/.v.-.Q F F F x x x l l l x F x l l k k b ^ Z < - o o o O o O O - % , * , a s b t p s +.X.+.#.:.1.#.=.#.1.1.b.b.>.j +.U I >.$.B.G.x.H.D.F.=X>X6X0XqXeXeXeXeXeXeXeXeXeXeXeXeX6X@X_._._._.+Xz.g.d.H U @.h 2 h P @.P h g ",
"g g h h P P U U U U z.g.d.H Q.T.T.T.^.E.7.7.,.` 0.F F x F F x x l l l l l l l l y y c Y c - - # X o o - O o & & b y , s * s s b i D I X.=.+.3.X.X.<.=.3.=.>.s s >.+.5.$.I.l.S.D.D.F.=X>X0X0XeX#X+X+X>X+X_.@XeX0X0X0X6X+X_.@X_.@X_.@Xz.g.d.H U @.h 2 h P @.P h g ",
"g g g h K P U U U U z.g.d.H T.T.!.E.E.7.7.F M 6 6 6 M x F F x l l l l k l l l l l y = c v c : o O O O o o - , , m * & p y p y p b G s D I *.+.D j X.=.>.+.b.+.I I D @.c.N.G.D.F.D.F.=X>X6X0XeX>X+X+X+X^._.+XeX0X6X6X6X+X@X@X(._._.@Xz.g.d.H U @.h 2 h P @.P h g ",
"g g g h K P U U U U z.g.d.H T.!.E.7.W E E r e e 8 8 8 5 5 5 6 l x l k l k l l l l l y = y c c - - . X X o - ; & p , , , , * a p s t D s I X.A T T =.X.=.=.=.+. .+.P j.N.V.H.D.D.D.F.=X>X6X0XeX@X_.>X#X_.+X@X6X6X0X6X6X@X@X_._.(._.6Xz.g.d.H U @.h 2 h P @.P h h ",
"g g g h K P P U U U z.g.d.H R.E.W W E e e e e e 8 8 e 8 4 4 5 4 : k k k y y l x l l y y = , c - O X X o X o ; % , y * ; & * * y a y s A s s A s A A T T I U I +.>.C.B.I.N.P.S.D.D.J.=X>X6XqXqX#X@X@X+XOX#X6X#X0X0X6X6X+X+X_.+X_./._.z.g.d.H U @.h 2 h P @.P K h ",
"g g g g K K P U P P z.g.d.H E.~ E r e 8 e e e e 8 8 8 4 4 4 4 4 4 4 - y y y y l l l k k y = , , - X o o o o - % ; % ; * & * a y p p , y b a s I A A D D I *.+.P I 5.c.k.P.S.D.D.D.F.=X>X6X0XqX#X#X+X+X_.#X^.>X6X6X6X6X+X/._.+X@X(./.z.g.d.H U @.h 2 h P @.P K h ",
"g g g g K K P U P K z.g.d.H ~ ~ E r e e e 8 8 8 e 4 8 8 8 4 4 4 5 4 $ $ = y y y l l l l y y = , ; - o o o : - % ; & ; * ; & y a y , y b a * * m s A A +.I T T U U A.c.k.l.S.D.D.D.F.=X>X6X0X0X6X+X#X@X(.#X6X6X6X#X6X6X+X_._.+X(.@X_.z.g.d.H U @.h 2 h P @.P K h ",
"g g g g h h K P P K z.g.d.H W E r r e e e e e 8 8 8 8 8 4 4 4 4 4 4 $ $ $ @ = = y l l l k k y = , - % - - o o - o o % c , y a * y * * y * * , y p A s G *.*.A P I c.k.H.F.D.D.D.D.J.=X>X6X0XqX>X#X@XOX+X_.>X#X6X#X6X6XOX@X/.@X$X_.(.z.g.d.H U @.h 2 h P @.P K K ",
"g g g g g h K P K K z.g.d.H E r r r r e e e e e e e 8 8 8 7 5 4 4 4 $ + $ + X = = l x l l l y y & , , < % - o . o % % * % , * c , p * p p , y y a s s s b A A h ..V.G.J.F.D.F.D.F.J.Y.>X6X0X0X6X#X@X/._.+X@X@X+X#X6X#XOX+X+X/.(./._.z.g.d.H U @.h 2 h P @.P P K ",
"g g g g g h K K K m z.g.d.H E e Q E.u.u.E.9.9.7.w e e e 8 8 8 4 4 $ 4 $ $ + + + = = l l l x l k y , y p y * * % & % & % , * G * * , * & & , y y a b b G b m A ..L.V.D.J.F.D.F.D.D.D.=X>X0X0XqX#X#X@X/.+X+X6X>X#X6X#X@X+X@X@X~._./.~.z.g.d.H U @.h 2 h P @.P P K ",
"g g g g g h h K K K z.g.d.H E.9.E.9.E.%.u.9.9.9.u.9.7.w e 8 8 5 4 4 $ $ + $ + +   ; y l l l k x l y t , s a s y * * * , , * * * * , & & * , p a p c m Y m Y ` j.V.V.x.F.D.F.F.F.D.F.=X>X6X0XqX6X+X@X~.>X+X>X>X+X#X#X+X@X+X(.~.+X^._.z.g.d.H U @.h 2 h P @.P P K ",
"g g g g g g h K K h z.g.d.H 9.9.9.E.7.u.9.9.9.8.u.9.u.u.9.w r 8 4 4 4 $ $ $ + + +   = l k k z z k t t t G b s s y A s A s y p T Y Y * a m , y a Y ^ ( L ) ] ( N.V.l.J.D.F.D.F.F.D.F.=X>X6X0XqX6X+X+X@X#X+X6X@X#X+X/.@X#X X$X#X@X_._.z.g.d.H U @.h 2 h P @.P P K ",
"g g g g g g h K h h z.g.d.H 9.E.u.u.9.u.u.9.8.u.8.8.9.9.8.8.9.8 8 8 4 $ 4 $ + +   +   % y F z t = * t A R *.A A A I D T *.>.+.5.*.b.I =. Xv.` ` _ e.{ e.e.v.v.N.V.l.F.D.D.F.F.D.D.F.=X>X6XqXqX6X+X+X>X>X+X6X>X@XOX_.#X XOX_.(./.@X/.z.g.d.H U @.h 2 h P @.P P K ",
"g g g g g g h h h g z.g.d.H u.7.E.%.u.u.9.u.9.8.a.8.8.8.u.8.8.8.6 8 8 5 $ + $ + + X     & l k y . % t s A >.*.D D T I =.3.|.|.oXoX|.b.oXoX$Xq.e.e.e.e.e.v.v.e.N.V.l.F.F.D.D.D.D.D.F.=X>X0XqXqX>X^._.>X#XOX@X#X_.OX+X].OX+X(._._.@X+Xz.g.d.H U @.h 2 h P @.P P K ",
"g g g g g g g h h g z.g.d.H E.W.E.u.u.W.u.W.u.u.9.8.8.u.8.8.8.8.8.M 8 8 5 $ + $ +         k k y % . % * t <.r.>.X.*.=.3.m.|.|.oXoX|.$XoX|.oXwXv.!._.!.!.v.v.v.N.V.l.F.F.D.D.D.D.D.F.=X>X6XqXqX#X~.+X~.+X@X_.OX_.#X~.+X@X@X/./.(._.+Xz.g.d.H U @.h 2 h P @.P P P ",
"h g g g g g g g g g z.g.d.H 9.W.%.E.E.u.u.W.a.8.9.u.8.8.8.8.8.8.8.8.%.8 8 4 $ $ + + +       y t * % % % m A <.M.5.=.3.b.C.|.C.|.oXoX,X,X,X,XoX~.!./.:XqX~.(.v.N.V.l.F.F.F.D.D.D.F.J.=X>X6XqXqX@X#X~.~. X@X@X+X6X~.OX#X>X>X(./.^._./.z.g.d.H U @.h 2 h P @.P U P ",
"h g g g g g g g g g z.g.d.H E.8.u.u.u.u.u.u.9.u.a.u.8.8.8.8.8.8.8.8.8.&.5 5 5 4 $ $ @ +       . % % % % % / >.b.b.b.m.$X/.].|.|.oXoX$X$X,X,X,X@XOX_.qX>X!./.>XN.V.l.F.D.F.F.D.F.F.F.=X>X6X0XqX>X/.OX_.~. X#X#X~./.@X@X@X6X(._./.^.(.z.g.d.H U @.h 2 h P @.P U P ",
"h h g g g g g g g g z.g.d.H W.9.u.u.u.u.u.9.u.u.u.8.8.8.8.8.8.8.8.8.8.8.&.< 8 5 $ $ + + + + + X o % % % % = A 5.b.|.|. XwXC. X].|.|.oX$X,X,X,XOXOX(.(.+Xv.+X:XN.V.l.F.F.D.F.F.F.F.F.=X>X6X0XqX@Xv._.#X#X(. X XOX@X#X#X6XqX(._._._._.z.g.d.H U @.h 2 h P @.P U P ",
"h h g g g g g g g g z.g.d.d.h.z.z.z.z.z.z.z.z.z.z.z.z.z.z.z.z.z.z.z.z.z.z.z.z.z.z.z.z.z.z.z.z.z.z.z.z.z.z.z.z.z.z.z.z.z.z.z.z.z.z.z.z.z.z.z.z.z.z.z.z.z.z.z.z.z.z.z.z.z.z.z.z.z.z.z.z.z.z.z.z.z.z.z.z.z.z.z.z.z.z.z.z.z.z.z.z.z.z.z.z.g.d.H U @.h 2 h P @.P U P ",
"K h g g g g g g g g h.g.g.g.g.g.g.g.g.g.g.g.g.g.g.g.g.g.g.g.g.g.g.g.g.g.g.g.g.g.g.g.g.g.g.g.g.g.g.g.g.g.g.g.g.g.g.g.g.g.g.g.g.g.g.g.g.g.g.g.g.g.g.g.g.g.g.g.g.g.g.g.g.g.g.g.g.g.g.g.g.g.g.g.g.g.g.g.g.g.g.g.g.g.g.g.g.g.g.g.g.g.g.g.g.g.d.H U @.h 2 h P @.P U P ",
"K h g g g g g g g g g.d.d.d.d.d.d.d.d.d.d.d.d.d.d.d.d.d.d.d.d.d.d.d.d.d.d.d.d.d.d.d.d.d.d.d.d.d.d.d.d.d.d.d.d.d.d.d.d.d.d.d.d.d.d.d.d.d.d.d.d.d.d.d.d.d.d.d.d.d.d.d.d.d.d.d.d.d.d.d.d.d.d.d.d.d.d.d.d.d.d.d.d.d.d.d.d.d.d.d.d.d.d.d.d.d.d.H U @.h 2 h P @.P U P ",
"K h h g g g g g g g H H H H H H H H H H H H H H H H H H H H H H H H H H H H H H H H H H H H H H H H H H H H H H H H H H H H H H H H H H H H H H H H H H H H H H H H H H H H H H H H H H H H H H H H H H H H H H H H H H H H H H H H H H H H U @.h 2 h P @.P U P ",
"K K h g g g g g g g g h K P h h U @.h 2 h P @.P g g g g K K P P P U P P K h g g g g g g h P U P g g h h U @.h 2 h P @.P U U P P K h K h U @.h 2 h P @.P g g g g g g g g g g g h U @.h 2 h P @.P h g h P P P h g g g g g g g g h h K P K h h U @.h 2 h P @.P U P ",
"P K h h g g g g g g g h K P h h U @.h 2 h P @.P g g g g h K K P P P P K h g g g g g g g K P U P g g h h U @.h 2 h P @.P U P P K K g K K U @.h 2 h P @.P g g g g g g g g g g h h U @.h 2 h P @.P h g h P P P h h g g g g g g g h h K K K h h U @.h 2 h P @.P U P ",
"P K h h g g g g g g g h P P h h U @.h 2 h P @.P g g g g g h K K P P K P h g g g g g g h K P U K g g h h U @.h 2 h P @.P U P P K h g h h U @.h 2 h P @.P g g g g g g g g g g h h U @.h 2 h P @.P h g g P P P h h g g g g g g g g h h K K h h U @.h 2 h P @.P U P ",
"P K K h g g g g g g g h P P h h U @.h 2 h P @.P g g g g g g h K K K K h g g g g g g g h K P U K g g h h U @.h 2 h P @.P P P K h g g h h U @.h 2 h P @.P g g g g g g g g g g h h U @.h 2 h P @.P h g g h K P K h g g g g g g g g g h h K h h U @.h 2 h P @.P U P ",
"P P K h g g g g g g h h P P h h U @.h 2 h P @.P g g g g g g g h K K h g g g g g g g g h P U P h g g h h U @.h 2 h P @.P P K h g g g h h U @.h 2 h P @.P g g g g g g g g g g h h U @.h 2 h P @.P K g g h K K K h g g g g g g g g g g h h h h U @.h 2 h P @.P U P ",
"P P K K h g g g g h K K P P h h U @.h 2 h P @.P g g g g g g g g h h g g g g g g g g h K P P K h g g h h U @.h 2 h P @.P K h g g g g h h U @.h 2 h P @.P h g g g g g g g g h h h U @.h 2 h P @.P K h g g K K K h h g g g g g g g g g g h h h U @.h 2 h P @.P P P ",
"P P K K h h g g h h K K K K h h U @.h 2 h P @.P h g g g g g g g g g g g g g g g g g h K K K K g g g h h U @.h 2 h P @.P h g g g g g h h U @.h 2 h P @.P h h g g g g g g h h h h U @.h 2 h P @.P K h g g h K K K h g g g g g g g g g g g h h U @.h 2 h P @.P P P "
};
