/* XPM */
static char *easter_egg[] = {
/* columns rows colors chars-per-pixel */
"128 128 246 2 ",
"   c #1E160C",
".  c #281B18",
"X  c #361915",
"o  c #2B230F",
"O  c #2D231D",
"+  c #3B2F17",
"@  c #36241C",
"#  c #2E2623",
"$  c #352A24",
"%  c #382926",
"&  c #3C2C24",
"*  c #383329",
"=  c #3C322C",
"-  c #3D3532",
";  c gray23",
":  c #46291B",
">  c #43331B",
",  c #4B3B1B",
"<  c #573F1F",
"1  c #63381D",
"2  c #442D27",
"3  c #512C22",
"4  c #483327",
"5  c #43332C",
"6  c #4C352C",
"7  c #55382A",
"8  c #433532",
"9  c #473834",
"0  c #4B3B34",
"q  c #4C3D3A",
"w  c #533C33",
"e  c #593C35",
"r  c #693A32",
"t  c #5F5F00",
"y  c #777700",
"u  c #5F4323",
"i  c #5E412E",
"p  c #4C433B",
"a  c #5C4437",
"s  c #53433C",
"d  c #5C443B",
"f  c #5A533E",
"g  c #6F4B27",
"h  c #68422D",
"j  c #71462D",
"k  c #774F2B",
"l  c #644334",
"z  c #65483B",
"x  c #6C4B3C",
"c  c #744C38",
"v  c #6D533E",
"b  c #77523C",
"n  c #6D3D41",
"m  c #554E47",
"M  c #594A45",
"N  c gray34",
"B  c #5B5754",
"V  c #5B5B5B",
"C  c #664C44",
"Z  c #774A45",
"A  c #695449",
"S  c #785748",
"D  c #685955",
"F  c #775C54",
"G  c #6C6359",
"H  c #786457",
"J  c #676767",
"K  c #6A6867",
"L  c #7A6865",
"P  c #767469",
"I  c #737373",
"U  c #7C7779",
"Y  c #7B7B7B",
"T  c #83532F",
"R  c #834B3C",
"E  c #8B5B33",
"W  c #81553B",
"Q  c #935F37",
"!  c #8E3F47",
"~  c #864A48",
"^  c #875A49",
"/  c #885A53",
"(  c #925250",
")  c #945A53",
"_  c #AE5758",
"`  c #8B624C",
"'  c #98664C",
"]  c #876759",
"[  c #986855",
"{  c #89705B",
"}  c #99715C",
"|  c #A56959",
" . c #A8755B",
".. c #AF7559",
"X. c #A85C66",
"o. c #886C67",
"O. c #966B65",
"+. c #8C7468",
"@. c #977669",
"#. c #887875",
"$. c #997B74",
"%. c #A96A65",
"&. c #B7666D",
"*. c #A97868",
"=. c #B57967",
"-. c #A57B77",
";. c #B77A74",
":. c #C9736F",
">. c #878700",
",. c #939300",
"<. c #9F9F00",
"1. c #AFAF00",
"2. c #C7C700",
"3. c #918273",
"4. c #9A847A",
"5. c #A9826B",
"6. c #B8846A",
"7. c #A98579",
"8. c #B38475",
"9. c #BA8676",
"0. c #B48B7C",
"q. c #BA8C7C",
"w. c #BB927A",
"e. c #C3876D",
"r. c #C58A76",
"t. c #C38C7C",
"y. c #C4947D",
"u. c #C9967B",
"i. c #D3977C",
"p. c #CC7B82",
"a. c #9A8784",
"s. c #948F8C",
"d. c #A98A84",
"f. c #B48C83",
"g. c #B98C86",
"h. c #AA938A",
"j. c #B59284",
"k. c #BB9484",
"l. c #B99987",
"z. c #B4938B",
"x. c #BB958B",
"c. c #BC9A8C",
"v. c #A98E95",
"b. c #A89794",
"n. c #BC9B93",
"m. c #B89996",
"M. c #BDA08C",
"N. c #BBA29A",
"B. c #BCA8A5",
"V. c #B3ADAC",
"C. c #C68C83",
"Z. c #C79786",
"A. c #C49B84",
"S. c #CB9C85",
"D. c #C29C8C",
"F. c #D0908D",
"G. c #D39B88",
"H. c #C49A95",
"J. c #CAA58A",
"K. c #CBA38C",
"L. c #D4A78B",
"P. c #C3A393",
"I. c #CBA896",
"U. c #C3A49C",
"Y. c #D3AC93",
"T. c #DAAC93",
"R. c #D6A998",
"E. c #CEB297",
"W. c #D7B498",
"Q. c #DBB49B",
"!. c #E2AB98",
"~. c #E3B59C",
"^. c #CD9DA3",
"/. c #C4ABA5",
"(. c #C6AAA6",
"). c #CEAEAB",
"_. c #C8B3AC",
"`. c #D9B8A6",
"'. c #C6B7B4",
"]. c #CBB5B3",
"[. c #CDBBB4",
"{. c #CDBDBA",
"}. c #D8BBB6",
"|. c #D3BDBA",
" X c #E4B5A2",
".X c #E3BCA4",
"XX c #E9B8A4",
"oX c #E4BBAA",
"OX c #EDBDAB",
"+X c #E9BDB1",
"@X c #DEC1AA",
"#X c #CDC1B7",
"$X c #CDC2BD",
"%X c #D3C2BD",
"&X c #DAC3BC",
"*X c #E6C3A8",
"=X c #E4C2AB",
"-X c #EBC4AD",
";X c #F1C1AE",
":X c #E4C4B3",
">X c #ECC4B3",
",X c #EEC9B3",
"<X c #EDC5BA",
"1X c #E5C8BA",
"2X c #ECCBBC",
"3X c #F2C4B2",
"4X c #F2C8B7",
"5X c #F1CCBC",
"6X c #E0D0B3",
"7X c #EBD2BD",
"8X c #F3D1BE",
"9X c #D3BDC1",
"0X c #CEC4C2",
"qX c #D3C5C2",
"wX c #DAC5C3",
"eX c #D5C9C4",
"rX c #DACBC5",
"tX c #DCC5CA",
"yX c #D5CCCA",
"uX c #DBCDCA",
"iX c #DAD0CC",
"pX c #D9D5D3",
"aX c #DCDBDB",
"sX c #E4CCC4",
"dX c #ECCDC3",
"fX c #E8C8C4",
"gX c #E3CDCA",
"hX c #F2CDC1",
"jX c #ECD2C5",
"kX c #E4D2CC",
"lX c #ECD4C8",
"zX c #F4D3C4",
"xX c #F7D8C9",
"cX c #E4D8D5",
"vX c #E2DEDB",
"bX c #FDDED0",
"nX c #DFE1DF",
"mX c #F4E7C6",
"MX c #E5E1DD",
"NX c #ECE4DD",
"BX c #EFE6DC",
"VX c #F1E6DD",
"CX c #F1E8DF",
"ZX c #EAE5E2",
"AX c #F1E7E1",
"SX c #F2E9E1",
/* pixels */
"k k k k k k k k k k k k k k k k k k k k k k k k k k k k k k k k k k k k k k k k k k k k k k k k k k k k k k k k k k k k k k k k k k k k k k k k k k k k k k k k k k k k k k k k k k k k k k k k k k k k k k k k k k k k k k k k k k k k k k k k k k k k k k k k ",
"u u u u u u u u u u u u u u u u u u u u u u u u u u u u u u u u u u u u u u u u u u u u u u u u u u u u u u u u u u u u u u u u u u u u u u u u u u u u u u u u u u u u u u u u u u u u u u u u u u u u u u u u u u u u u u u u u u u u u u u u u u u u u u u u ",
"E E E E E E E E E E E E E E E E E E E E E E E E E E E E E E E E E E E E E E E E E E E E E E E E E E E E E E E E E E E E E E E E E E E E E E E E E E E E E E E E E E E E E E E E E E E E E E E E E E E E E E E E E E E E E E E E E E E E E E E E E E E E E E E E ",
"Q Q Q Q Q Q Q Q Q Q Q Q Q Q Q Q Q Q Q Q Q Q Q Q Q Q Q Q Q Q Q Q Q Q Q Q Q Q Q Q Q Q Q Q Q Q Q Q Q Q Q Q Q Q Q Q Q Q Q Q Q Q Q Q Q Q Q Q Q Q Q Q Q Q Q Q Q Q Q Q Q Q Q Q Q Q Q Q Q Q Q Q Q Q Q Q Q Q Q Q Q Q Q Q Q Q Q Q Q Q Q Q Q Q Q Q Q Q Q Q Q Q Q Q Q Q Q Q ",
"T T T T T T T T T T T T T T T T T T T T T T T T T T T T T T T T T T T T T T T T T T T T T T T T T T T T T T T T T T T T T T T T T T T T T T T T T T T T T T T T T T T T T T T T T T T T T T T T T T T T T T T T T T T T T T T T T T T T T T T T T T T T T T T T ",
"g g g g g g g g g g g g g g g g u < , < < , < u g g g g g g g g g g g g g g g g g g g g g g g g g g g g u < , < < , < u g g g g g g g g u < , < < , < u g g g g g g g g g g g g u < , < < , < u g g g g g g g g g g g g g g g g g g g g g g u < , < < , < u g g ",
"< < < < < < < < < < < < < < > + , < + o + > < < < , > > > > > > > > , < < < > > < < > > < < > > > > < < , < + o + > < < < < > > < < + + , < + o + > < < < , > > > > > > , < + + , < + o + > < < > , < < , > > , < < , > , < > > < < < < < , , < + o + > < < < < ",
"< < < < < u u u u u u u u u > + u k + o + < k < < , > > > > > > > > , < < < > > < < > > < < > > > > < < u k + o + < k < < < > > < < + + u k + o + < k < < , > > > > > > , < + + u k + o + < k < > , < < , > > , < < , > , < > > < < < < < , u k + o + < k < < < ",
", , , , < g k k k k k k k g , < k Q < + < g Q g u < , , , , , , , , u k k k , , u g , , u g , , , , < < k Q < + < g Q g k k , , g k < < k Q < + < g Q g u u , , , , , , u u < < k Q < + < g Q g , u k k u , , < k k < , u k < , u k k k k g k Q < + < g Q g u g ",
", , , , < g k k k k k k k g , < k Q < + < g Q g u < , , , , , , , , u k k k , , u g , , u g , , , , < < k Q < + < g Q g k g , , g k < < k Q < + < g Q g u u < , , , , < u u < < k Q < + < g Q g , u k k u , , < k k < , u k < , u k k k k g k Q < + < g Q g < g ",
", , , , < g k k k k k k g u , < k Q < + < g Q g 2.2.2.2.2.2.2.2.2.2.2.2.2.2.2.2.2.2.2.2.2.2.2.2.2.2.2.2.2.2.2.2.2.2.2.2.2.2.2.2.2.2.2.2.2.2.2.2.2.2.2.2.2.2.2.2.2.2.2.2.2.2.2.2.2.2.2.2.2.2.2.2.2.2.2.2.2.2.2.2.2.2.2.y u k < , u k k k k g k Q < + < g Q g , u ",
", , , , < u k k k k k k g u , < k Q < + < g Q g ,.y y y y y y y y y y y y y y y y y y y y y y y y y y y y y y y y y y y y y y y y y y y y y y y y y y y y y y y y y y y y y y y y y y y y y y y y y y y y y y y y y ,.y u k < , < k k k k g k Q < + < g Q g , u ",
", , , , < u g k k k k k g < , < k Q < + < g Q g ,.y t t t t t t t t t t t t t t t t t t t t t t t t t t t t t t t t t t t t t t t t t t t t t t t t t t t t t t t t t t t t t t t t t t t t t t t t t t t t t t t ,.<.y u k < , < k k k k g k Q < + < g Q g , u ",
", , , , < u g k k k k k u < , < k Q < + < g Q g ,.y t ; ; ; ; ; ; ; ; ; ; ; ; ; ; ; ; ; ; ; ; ; ; ; ; ; ; ; ; ; ; ; ; ; ; ; ; ; ; ; ; ; ; ; ; ; ; ; ; m ; ; ; ; ; ; ; ; ; ; ; ; ; ; ; ; ; ; ; ; ; ; ; ; ; ; ; ; ; 1.<.y u k < , < k k k k g k Q < + < g Q g , u ",
"< , , , < < g g k k k k u < , < k Q < + < g Q g ,.y t V N N N N N V N V V N N N N V N V N V N V V N N V V N N N V V V N V N N V V V N V V N N V N N N N N N V N V N N N N N V N V V N N N N V N V N V N V V N N N 2.<.y u k < , < k k k k g k Q < + < g Q g , u ",
"< , , , < < u g k k k g < < , < k Q < + < g Q g ,.y t J Y I Y J J Y I I J J I J I I Y I Y J I J Y Y I J I I I J J I Y I I J I I J J J I I Y I I Y I I J Y Y I J J Y I Y J J Y I I J J I J I I Y I Y J I J J I I I 2.<.y u k < , < k k k k g k Q < + < g Q g , u ",
"g u , , , < u u g k g u < , , < k Q < + < g Q g ,.y t V I I J Y Y J I J Y Y I Y J I I J I I J I I J J I I I J I I I J J J Y J I Y J I I I I I J I J J Y I I I I J I I J Y Y J I J Y Y I Y J I I J I I J I J I Y I 2.<.y u k < , < g k k k g k Q < + < g Q g , u ",
"g u , , , , < u u g u u < , , < k Q < + < g Q g ,.y t J I J Y J Y I J Y I I J I Y Y I Y Y Y Y I I I I J I J I J J I J Y I J I J I I Y J J Y I J I I I I I Y Y Y Y I J Y J Y I J Y I I J I Y Y I Y Y Y Y I Y I J I 2.<.y u k < , < g k k k g k Q < + < g Q g , u ",
"g u , , , , , u u u u < , , , < k Q < + < g Q g ,.y t J J Y Y I J I I J Y J I Y I I J I I J J I I I J I J I J I I I I I I I I I J I J I Y J I I I I Y J J J I I I J Y Y I J I I I J J I Y I I J I I J J J I I Y I 2.<.y u k < , < g k k k g k Q < + < g Q g , u ",
"g u , , , , , < < u < < , , < < k Q < + < g Q g ,.y t J J I J J I I Y Y J I I Y I Y J Y J Y I I J I I J I I Y I J J J J I +.G D H D D 0 P * q = B I I I Y J I I I J I J J I I I J I I I J J J Y J I Y J I I I I I 2.<.y u k < , < g k k k g k Q < + < g Q g , < ",
"k u < , , , , , < < < , , , < < k Q < + < g Q g ,.y t J I I I I J I J I I J I Y I J Y J J Y I I Y I I Y J I J J 3.z.3.j.$.+.6 6 5 5 * # O   0 & 8 8 - I I I J I I I I I I I J I I J I I J Y I J I J I I Y J J Y I 2.<.y u k < , < u k k k g k Q < + < g Q g , < ",
"k g u , , , , , < < , , , , u < k Q < + < g Q g ,.y t J Y I I J I I J I I Y J J I Y J I I I J J I J J I Y I H 7.@.{ H z a f 7 @ d = $ 0 * & = $ 8 = M - q I I I I Y I I J I J I I Y J J I Y J I I I J I J I Y J I 2.<.y u k < , < u k k k g k Q < + < g Q g , < ",
"k k u , , , , , , , , , , , u < k Q < + < g Q g ,.y t V I J I I I Y I I I I I Y I J I Y I J Y Y I I I I H H f H H H h S l.+.C H 7 2 s D A M s $ * 0 & p p p V J I I J I I Y I I I I I Y I J I Y I J Y Y Y I I I I 2.<.y u k < , < u k k k g k Q < + < g Q g , , ",
"k k u < , , , , , , , , , < g < k Q < + < g Q g ,.y t J I Y I I I J I I J I J J I J J J I Y J J I I I D o.S S f ] F H +.H S H o @ 4 7 5 s H 0 & @ 5 8 0   O = $ Y I Y I I J I I J I J J I J J J I Y J J J Y J Y I 2.<.y u k < , < u k k k g k Q < + < g Q g , , ",
"g g g u , , , , , , , , < u g < k Q < + < g Q g ,.y t J I I J I I I I J J J Y I I J J Y Y J I Y I I I S C 4.: ] S +.S +.H F 4 : S 7 A $ q % 5 & A F = & O 5 & 5 q D I J I I I J J J Y I I J J Y Y J I Y J Y I J I 2.<.y u k < , , < k k k g k Q < + < g Q g , , ",
"g g k u , , , , , , , , < g g < k Q < + < g Q g ,.y t J I I Y I I J I Y J I J J Y I I I J Y J I I P F { A S x F a X 6 w a F d 4 S e l 2 2 5 s 5 5 A w @ 6 4 4 @ # = D I I J I Y J I J J Y I I I J Y J I I I Y I I 2.<.y u k < , , < g k k g k Q < + < g Q g , , ",
"g g k g u < , , , , , , u g g < k Q < + < g Q g ,.y t J Y I J I I Y I J Y Y I I J I J I J I I J I A H S d H F S A j.5.w 7 l ] x ] S S 6 & 6 & & C 2 7 w 4 w : 6 5 q M I I Y I J Y Y I I J I J I J I I J J I J I I 2.<.y u k < , , < g k k g k Q < + < g Q g , , ",
"g g k k u < , , , , , < u k u < k Q < + < g Q g ,.y t J J I Y I I I I I J J I I J Y Y J I J I I I s H A +.F C S @.O.] ] } ` S ` S @.F ] w 7 6 z x e 3 6 z e x 7 6 w & m I I I I J J I I J Y Y J I J I I I I I Y I 2.<.y u k < , , < g k k g k Q < + < g Q g , , ",
"u g k k g u , , , , < < g g < < k Q < + < g Q g ,.y t J J I I I I J J J I Y I I I J I J I I I a.$.+.o.7.7.U.(.).I.I.w.[ Z.w.y.9.=.' 6.b S [ r.;.u.u.u.r.t.=.t.=. .c z 4 9 U J J I Y I I I J I J I I I I I Y I I I 2.<.y u k < < , < u k k g k Q < + < g Q g , , ",
"u g k k k g u , , , < u k g , < k Q < + < g Q g ,.y t J I J I J I Y I I I I I I I I J J I I J $.d.7.N.(.}.}.}.}.+X:X`.Q.S.J.Y.y.=.| u.6.L.Y.W.L.L.T.T.Y.T.L.K.Y.e.=.^ s 0 p I I I I I I I I J J I I J I I J J J I 2.<.y u k < < , < u k k g k Q < + < g Q g , , ",
"< g k k k k u u , , < g g u , < k Q < + < g Q g ,.y t J Y I J Y I J I I Y J I J J Y J Y I Y Y d._.(.}.sX1XsXdX2X2X2X:X:X2X:X`.Q. X`..X`.L.oX=XoX.X=X-X>X=X-X-X.XT.L.r.z & 5 I I Y J I J J Y J Y I Y Y J I I I J I 2.<.y u k < < , < u k k g k Q < + < g Q g < , ",
"< u k k k k g u < , u k g u , < k Q < + < g Q g ,.y t J J Y Y I J J J J I I Y Y Y J I I J V h.[.rX&XsXdXdXdXdXhXhX2XdXzXzX2X2X>X=X=XdX:X5X2X2X8X-X4X4X>X>X>X-X-X-X.XQ.r.l F B J I I Y Y Y J I I J V J I I I I Y I 2.<.y u k < < , < u k k g k Q < + < g Q g < , ",
", u g k k k k g u u g k g < , < k Q < + < g Q g ,.y t J I J I I I I Y I I J J I I Y Y Y Y a.&XgXdXsXdXdXlXjXjXjXhXzXhXxXjXxXzX2X7XzX2XzXhX8XzXxX5X5X4X4X,X,X-X-X-X=X-XW.5.S C I I J J I I Y Y Y Y I I I I J J J I 2.<.y u k u u , , u k k g k Q < + < g Q g < , ",
", u g k k k k k g u g k g < , < k Q < + < g Q g ,.y t J Y I I I Y I I J I Y J Y I J I I s.U.gXkXjXsXdXlXjXdXjXdXlXzXzXzXxXxXzXzXxXxXdXzXxXxXzXzXzX8X4X4X,X-X>X>X-X-X,X=XQ.y.{ M I Y J Y I J I I J I I J I I I I I 2.<.y u k u u , , < k k g k Q < + < g Q g < , ",
", < g g k k k k g g k k u < , < k Q < + < g Q g ,.y t J I J J I I J I Y J I Y I I I I J h.rXkXkXkXjXsXjXlXlXlXjXzXhXhXzXzXbXzXxXzXxXxXzXzXzXzXzX8X5X4X,X,X,X X-X3X,X-X=X.X~.J.+.L I Y I I I I J Y J Y I I J I Y I 2.<.y u k u u , , < g k g k Q < + < g Q g < , ",
", < g g k k k k k g k k u < , < k Q < + < g Q g ,.y t J J Y J I I Y I J Y I I J I J Y b.N.rXgXgXlXdXdXlXlXdXdXdXhXdX2X5XbX7XzXzXzX2XzXhXzX2X2XzX5X4X,X4X>X>X>X,X,X,X-XQ..X.XW.8.z U I J I J Y I I I J I Y Y I J I 2.<.y u k u u , , < g k g k Q < + < g Q g < , ",
", , u g g k k k k k k g < , , < k Q < + < g Q g ,.y t V J J Y I J I I I I J Y Y J Y Y d.|.uXgXkXlXlXlXlXdXfXhX2XdX2X2XzXzX2XzXxXzX2XzXzX5XzX5XhX5X2X2X>X-X-X>X,X,X>X-X`..X=X`.J.} z Y Y J Y Y J J Y J I J J I I I 2.<.y u k g u , , , u k g k Q < + < g Q g u < ",
", , u g g k k k k k k g < , , < k Q < + < g Q g ,.y t J Y I J I Y J I I J Y J I I J I $XrXwXkXkXkXsXkX2X2XdX2XdXhXhXhXhXzXzXzXzX7X2X5XzXzXzXzXxX2X8X2X,X-X,X-X-X>X-X=X=X=X=XW.L.8.S H I I J I I I J Y J J I I J I 2.<.y u k g u < , , u k g k Q < + < g Q g u < ",
", , < u g k k k k k g u < , , < k Q < + < g Q g ,.y t J J I J I I I I I I I I I Y I I %XqXrXkXkXkXkXlXkXdXdXdX2XhXzX2XzXxXxXzXxXxXzXzXzXxXzXzXzXxX8X,X,X,X,X-X-X-X=X.XoX=X`.Q.J.J.7.F I Y I I I Y J Y I J I I Y I 2.<.y u k g u < , , < g g k Q < + < g Q g u < ",
", , < u g g k k k k g u < , , < k Q < + < g Q g ,.y t J I I I J Y I I I I I I J J I I qXrXiXkXuXkXkXlXlXdXjXdX2XhXhXhXzXzXzXzXxXzXzXxXxXxXxXxXzXzXzX,X,X,X,X-X-X-X=X=X`..X`.W.J.A.5.{ b.J I I I I Y J J I I I J I 2.<.y u k g u < , , < u g k Q < + < g Q g u < ",
", , , < u g k k k k g u , , , < k Q < + < g Q g ,.y t N I J I Y J J J I J I I I I I a.$XeXuXkXkXkXkXkXsXdXdXdXhX2X5XhXhXxXzXzXxXxXxX2XxXbXxXzXhXzX8X4X,X-X,X-X=X=X=X=XoXQ.`.W.E.I.*.H D I I J J J J I Y Y I I J I 2.<.y < k g u < , , , u g k Q < + < g Q g u u ",
", , , < u g g k k g u < , , , < k Q < + < g Q g ,.y t J I I I I I I Y I I J I J I Y a.'.eXiXkXkXkXkXgXjXdXfXdXfXdX<X2X<XdX5XzXxXzXxXxXzXzX5XxXzX2X5X,X4X3X-X=X-X=X=X=X.X`.Q.E.J.K.5.S L I Y I I I I J I J J Y Y I 2.<.y < k g u < , , , < u k Q < + < g Q g < u ",
", , , < < u g g g g u < , , < < k Q < + < g Q g ,.y t J I Y I Y I I I J Y I J Y J J a.$XeXkXgXkXkXkXlXdX2X2X2X1X2X1X:X2X2X2X4X2X,XhX1X<X2X2X2X4X>X<X>XOX>X>X-X-X-X*X.XQ.`.Q.L.J.P.5.{ A J J J I J J I J I Y J I I 2.<.y < k k g < , , , < u k Q < + < g Q g < u ",
", , , , < u u g g u < < , , < < k Q < + < g Q g ,.y t I Y I J J J I J J J I I J I I 3.'.yXuXkXkXkXkXfX&X1X&X=X`.Q.`.`.oXoXoXoX:X+X+X:X>X>X>X>X XOXQ..X~.=X-X-X-X-X-X.X`.Q.W.Q.J.k.7.H H I I J I I I J I I I I J I 2.<.y < k k g < , , , , < k Q < + < g Q g < u ",
"< , , , < < u u u < , , , , < < k Q < + < g Q g ,.y t J I I I Y J I I I I I Y I J I b.$XiXgXkXkXgXsX&XI.A.5.f.k.k.} 9.Z.S.R.`. X XoXoX XoXw.L.K.|  .|  .6.5.E.Q.*X.X.XQ.Q.W.I.A.l.@.H H J J Y I J J I J I J Y Y I 2.<.y < g k g < , , , , < k Q < + < g Q g < u ",
"< , , , < < < u < < , , , , < < k Q < + < g Q g ,.y t V I I J I I J J I I I I Y J Y I qXuXiXkXkXsXz.7.O.5.O.] Z S O.S *.Z.9.R.R.!.Q.R.S.Z.t.9.%.) / Z S ^ [ 9.} *.y.=X.X`.W.J.A.w.4.F G I Y J Y Y I I I I I J J I 2.<.y < g k g < , , , , < k Q < + < g Q g < u ",
"< , , , , < < < < , , , , < < < k Q < + < g Q g ,.y t J Y I J J Y I I I J Y J J I J J eXuXkXuX_.4.m.{.).(.(.H.H.C.q.9.q.Z.q.Z.R.R.R.L.t.t.9.;.;.;.;.8.9.k.C.q.t.9.q.y..XW.W.J.L.A.@.H M J I I J I I I I I I J I I 2.<.y < g k g < < , , , < k Q < + < g Q g < u ",
"< < , , , , < < , , , , , < < < k Q < + < g Q g ,.y t J J J J J J I I I I I I I I I J eXuXuXqX_.].[.[.].).).I.I.D.Z.9.q.C.D.U.`.`..XR.y.r.;.=.=.=.;.t.Z.Z.t.t.C.C.q.t.y.L.Y.Y.J.J.{ H D Y I Y I I J I J Y I Y I I 2.<.y < g k g < < , , , , k Q < + < g Q g < u ",
"u < , , , , , , , , , , , < < < k Q < + < g Q g ,.y t J Y I I J I I Y J I I J I Y Y J eXrXuX{.].%X{.].(.D.%.%.q.8.) r =.9.H.(.}.1X+X>Xr.;.%.%.| %.) ~ | *.;.9.9.t.9.q.t.w.T.Y.Y.J.{ H m I I I J I I I I J J I I I 2.<.y < g k g u < , , , , k Q < + < g Q g < u ",
"u < , , , , , , , , , , < u < < k Q < + < g Q g ,.y t J I J I J I J Y J Y I I J I J V.rXuXeX_.qX].(.(.O.].n./ 2 @ e C ~ %.f.(.1XsX5X5Xr.%.| ) r ) ~ z q.8.q.~ | =.9.t.;.A.Y.Y.Y.J.A H H J J J I J J J I I J J J I 2.<.y < u k k u < , , , , k Q < + < g Q g < u ",
"g < , , , , , , , , , , < u < < k Q < + < g Q g ,.y t V I I I I J Y I J J J I J J J s.rXuX{.%X|.].(.0.'.S A K # O 5 b./ O.H.(.fXdXhXzXu.%.) ^ ~ $.5 . X e Z q.[ ) *.9.8.A.T.T.Y.K.] H M I Y I I Y I Y I I I J I I 2.<.y < u k k u u < , , , k Q < + < g Q g < < ",
"g u , , , , , , , , , , < u < < k Q < + < g Q g ,.y t J J I I J I I I I J I I I I I b.rXuXrX%X{.(.U.7.S a.V.V.m p z m.( Z c.(.1X2XhX5XL.9.*.r ] d.7 O 2 a.o.r [ O.=.5.k.K.Y.Y.Y.I.H A C I I I I J J J I J I I I I 2.<.y < u g k g u < , , , k Q < + < g Q g , < ",
"g u , , , , , , , , , , u u < < k Q < + < g Q g ,.y t J Y J I Y I J J I I I I J I Y a.eXrXeXeX[.(.(.g.N.-.qX#.e e e *.r.D.U.1XfX5X4X4X!.u.u.K.=.| ^ 7 6 -.~ r [ | %.=.S.J.Y.W.Y.I.H A G I J J I Y I I I I I Y J I 2.<.y < u g k g u < , , , k Q < + < g Q g , < ",
"g g , , , , , , , , , , u u < < k Q < + < g Q g ,.y t V J J I J J Y Y I I J I I I I V.wXuXwX%X[.].[.).qX}.(.g.g.Z.y.r.K.I.}.1X1XhX,X3X!.T.y.t.=.e.y.=.8.9.r.q.r.r.e.e.L.W.W.W.Y.E.] C d I I Y I J J I Y I J J J I 2.<.y < u g k g u < , , , k Q < + < g Q g , < ",
"g g < , , , , , , , , < g u < < k Q < + < g Q g ,.y t J I Y I I Y I I I I I tXrX;.#.V.rXrXsX&X&X}.}.[.[.].).K.y.| E.Q.`.1X<XfX1X<X4X4X!.!.!.R.Y.I.:.r.K.r.:.e.r.L.L.Y.~.=XQ.W.W.I.H F f 6X.XmXI I Y J J I J I Y I 2.<.y < u g k g u < < , , k Q < + < g Q g , , ",
"g g u , , , , , , , , u g u < < k Q < + < g Q g ,.y t J J Y J J I J J I I I $Xp._.H.0XwXrXsXfX1X1X:X:X>X:X:X:X:X>X<X<X<XfXdXfX+X<X4X4X~.~.~.~.OX3X>X3X-X-X>X-X-X>X-X-X-X=X.XW.Y.I.j.] [ !.:.:.J I I Y Y J Y I I I 2.<.y < u g k g u < < , , k Q < + < g Q g , , ",
"u g u , , , , , , , , u g u < < k Q < + < g Q g ,.y t J Y J I I I I I J I I %X:.tX].$XwXsXsXsX1XfXfX<X<X<X<X4X>X2X4X2X2XdXfX<X<X4XxXbXOX~.~.OXOX3X4X4X3X>X4X>X>X3X,X;X-X.XQ.Q.T.L.l.` u.&.&.:.I Y J I J Y J J J I 2.<.y < u g k g u u < , , k Q < + < g Q g , , ",
"u g u < , , , , , , , u g < < < k Q < + < g Q g ,.y t J J J I Y J I I I I I $X:.tX|.qXrXuXgXfXdXlXfXfX+X<X<X<X2X5X4X3X1XdX1XdX<X2X4XhXoX X!.XX;X;X3X3X-X3X3XOX;XOXOX-X.X.X~.T.Y.K.M.-.y.;.&.:.J I J I Y J Y I I I 2.<.y < < g k g g u < , , k Q < + < g Q g , , ",
"< g g < , , , , , , , u g < < < k Q < + < g Q g ,.y t V I I I J I I I I I I 9X}.|.).qXwXrXgXgXgXgXsX1X<X<X<X4X4X4X X<X+XfX&X&XfX X X XG.G.T.!.OX>X3X3X-X3X3XOXOXXXOXXX.X XQ.Y.K.S.I.8.C.&.X.:.Y I Y I I I J I J I 2.<.y , < u k k g u < , , k Q < + < g Q g , , ",
"< u g u , , , , , , < g u < < < k Q < + < g Q g ,.y t J Y J J Y I I I J I I 9XwX).H.$X%XwXrXgXgXgXfXfX<X4X5X<X>X4X3XOX+XfXwX].}.).K.H.9.Z.T.XXXXOX3X3X3XOX;XOXOXXXXXXX.X~.T.L.S.S.k.8.9.:.X.:.J I I J Y I J I I I 2.<.y , < u k k g u < , , k Q < + < g Q g < , ",
"< u g u < , , , , , < g u , < < k Q < + < g Q g ,.y t J J J Y J I Y I I I I 9XwXuXgX%X%XwXrXrXgXkXfXdX<X>X>X>X+X>XOXoX1XgX}.(.(.(.Z.g.*.t.Z.L.T.~.OX3XoXOXOXOXXXXXXXXX.X~.Y.K.S.S.D.*.&.G.T.:.J I I Y J J Y I I I 2.<.y , < u k k g u < < , k Q < + < g Q g < , ",
"< u g g < , , , , , u g u , < < k Q < + < g Q g ,.y t J I Y I Y J Y I Y I I gX|.|.;.[.%XwXwXrXgXgXgXfXfX<X+X+XOX>X.X!.}.).g.X r d.g.;.X ) ;.:.T.~.!.!.OXOXXX X XXX X XT.Q.T.A.S.Z.k./ _ G.!.:.I J J J I I J I J I 2.<.y , < u k k k u u < , k Q < + < g Q g < , ",
", u u g u < , , , , g g < , < < k Q < + < g Q g ,.y t J Y J J J I J I J I I }.(.(.;.m.%XwXwXgXsXfXfXfX1X+X+XoXOX X~.Q.H.H.| ( (.(.D.;.Z ~ %.=.T. XL.T.~.XX~.~.XX X~.~.T.T.K.K.A.A.7.~ _ C.!.G.I J I J I J I I I I 2.<.y , < u g k k g u < , k Q < + < g Q g < , ",
", < u g u < , , , < g u < , < < k Q < + < g Q g ,.y t V J Y I I I I I Y I I R.C.C.&.4.%X%XwXrXrXgXfXfX+XoX X X!.!.T.~.H.z.g.9Xm.7.*.@.S Z Z _ .X>X~.G.~. X!.~.T.T.!.T.R.R.K.K.k.w.0.k.:.:.!.R.I Y J I I I I Y Y I 2.<.y , < u g k k g u < < k Q < + < g Q g < , ",
", < < g g u < < < u g u < , < < k Q < + < g Q g ,.y t J I J I I Y I J J J Y G.:.&.H.7.{.%X%XwXrXwX}.}.}. XR.T.L.Q.=X`.^ / S r a e C A 7 l 8.[ ..e.~.~.i.G.G.T.L.G.S.G.S.L.S.A.q.8.*.K.F.OX3Xg.I J Y I I I I I I I 2.<.y , , u g k k g g u < k Q < + < g Q g < , ",
", < < u g g u < < g g < , , < < k Q < + < g Q g ,.y t J J J I I I I I I Y I R.:._ ;.o.B.%X|.wXwXwX}.}.}.`.R.L.L.Y.y.w.*.c S x 7 z C l r } c ^ ' y.=.u.u.i.G.G.G.G.Z.G.K.S.S.A.q.5.] G.!.OX3XH I I I I I I I J J I 2.<.y , , u g k k g g u < k Q < + < g Q g < , ",
", , < u g g u < u g u < , , < < k Q < + < g Q g ,.y t J Y I Y J J Y I I J J }.F.H.X.4.N.%XeXwX%X|.}.}.`.R.I.Y.A.y.6.' ] x 7 l 7 7 w 4 F 7 S c W } ' 6.6.9.r.S.G.Z.C.Z.S.S.y.5.5.O.b :.-X3XW.L I I I I I J J I I I 2.<.y , , < u k k k g u < k Q < + < g Q g < , ",
", , < < g g g u g g u < , , < < k Q < + < g Q g ,.y t V I I J Y Y J I J Y Y wX9XF.*.@.a.|.eX%X%X|.}.}.`.I.). .w. .b S l 7 3 x 7 7 x ~ 7 x l S ^ b ` ` ' =.6.r.S.Z.y.t.S.S.y.A.8.^ x *.OXR.=.I J I I J J J I I Y I 2.<.y , , < u k k k k g < k Q < + < g Q g < , ",
", , , < u g g g g u < , , , < < k Q < + < g Q g ,.y t J I J Y J Y I J Y I I %X9X^.p.o.d._.[.%X|.}.|.}.`.I.P.*.` ^ / A F 7 3 Z ~ %.9.;.e e z C 7 S c j W W 6.u.S.Z.u.C.S.K.A.8.} { Z t.!.D.F.J Y J I Y J I I I I I 2.<.y , , < u k k k k g u k Q < + < g Q g < < ",
", , , < u u g g u u < , , , < < k Q < + < g Q g ,.y t J J Y Y I J I I I J J qX|.|.].$.7._.].%X|.%X&X|.`.P.*.S S x l O.F / / ( ~ ( ( ( r r n r Z x x r c j  .S.K.S.u.y.y.S.Y.w.} ] b C.L.`.Y I J I J I I Y J J Y I 2.<.y , , , u g k k k g g k Q < + < g Q g < < ",
", , , , < u u u u < < , , , < < k Q < + < g Q g ,.y t J J I J J I I I J I I I qX].m.o.o.].].].%X%X}.}.I.] c ] S Z : 3 Z X.%.&.&.:.:.p.X.( ! ~ ~ r Z Z c c ` e.K.J.u.y.Z.S.J.y.} x ` C.G.I I I I I I J I J I Y J I 2.<.y , , , u g k k k k g k Q < + < g Q g < < ",
", , , , < < u u < < , , , , < < k Q < + < g Q g ,.y t J I I I I J I J I J J I qX).m.H.F b.(.[.|.&X|._.N.@.h Z l Z ] %.(.(.(.I.H.H.C.Z.C.C.9.9.8.%.%.[ ) b ^  .K.J.J.y.G.9.A.*.] r [ :.J J J I J J I I I I I I I I 2.<.y , , , u g k k k k g k Q < + < g Q g < < ",
", , , , , < < < < , , , , , < < k Q < + < g Q g ,.y t J Y I I J I J I J I I I I I ].).H 4.(.{.N.(.).P.P.*.[ ' ;.8.x.n.x.8.5.O.O.^ [ [ | ' w.=.=.y.S.L.y...=.u.u.9.w.w.9.*.' ` S F J Y I I I I Y I I I I I I J Y I 2.<.y , , , u g k k k k g k Q < + < g Q g < u ",
", , , , , , < < , , , , , , < < k Q < + < g Q g ,.y t V I J I I J I I Y I J I I I I L 3.h.h.N.h.d.(.x.k.0.` *.8.k.U.N.8.5.*.[ } r ^ R =.6.e...L.i.S.T.T.=...9.=.6.6.u.[ | [ ] o.L Y J Y I I J I I J Y J I I I J I 2.<.y , , , u g k k k k g k Q < + < g Q g < u ",
", , , , , , , , , , , , , , < < k Q < + < g Q g ,.y t J I Y I I Y Y Y I J I I I J J m F ] 4.b.d.n.l.I.k.` [ [ *.0.j.n.8.0.[ ' ^ h R ) .. .r.r.L.T.T.L.u.6.6.w.' '  . .) } O.S #.J Y J I I I Y J Y Y J I I I Y I I 2.<.y , , , < g k k k k g k Q < + < g Q g < u ",
"< , , , , , , , , , , , , , < < k Q < + < g Q g ,.y t J I I J J I I J J I I I J I I I H A d.z.@.j.g.5.8.*.| 5.*.=.D.E.E.8.r.[ 6.| | Z...i...i.T.L.Q.T.6.r.' [  . .*.^ ` [ S C F I J Y J J Y J I J I I Y J I J I I 2.<.y , , , < g k k k k g k Q < + < g Q g < u ",
"< , , , , , , , , , , , , < < < k Q < + < g Q g ,.y t J I I I I I I I I J I J I J J I G C o.4.4.N._.*.5.} 5.A.*.8.D.q.I.W.q.6.t...9.u.G.i.r.L.~.T.~.T.6.' =. .` W ^ c ` / S +.L I J I I I I I I I Y I J Y I I Y I 2.<.y , , , < g g k k k g k Q < + < g Q g , u ",
"< , , , , , , , , , , , , < < < k Q < + < g Q g ,.y t J Y I J I I I I J I J I J I I I A A $.] $.m.z.S [ 8. .7. .k.0.D.Z.R.*.6.=.;.r.| 6.=.=.6.T.~.W.J.=... .'  .b c c S ` C s I I Y J Y J I J I Y J Y I J Y I I I 2.<.y , , , < u g k k k g k Q < + < g Q g , u ",
"< < , , , , , , , , , , , < < < k Q < + < g Q g ,.y t J J I Y I J J I I J I I Y I J J D C H +.4.7.7.] $.@.{ [ } ^ w.*.D.C.*.;.| =.[ ) [ e.e...' 6.i.J...[ S ^ j c l z x w A D I J I I J I Y Y I I J J I I J J J I 2.<.y , , , , u g k k k g k Q < + < g Q g , u ",
"u < , , , , , , , , , , < < < < k Q < + < g Q g ,.y t J J I I I I Y I I Y J I J J Y I m D H $.$.] $.@.z S ` [ } S *.6.k.A.*.[ [  .^ [ R | ' | 6.6.6...| ^ h [ b c 0.S z a a I I I I I Y Y J I J Y Y I I J I I J I 2.<.y , , , , u g k k k g k Q < + < g Q g , u ",
"u < , , , , , , , , , , u u < < k Q < + < g Q g ,.y t J I J I J I I J J I Y I I Y J Y m D +.A C +.+.] ] h l Z ^ b { *.[ *.O.*.x ^ ) ' ` ' '  .6. ...' c [ j r O.l C a 7 a M I I I I J V J I J Y J J I J Y I I Y I 2.<.y , , , , < g g k k g k Q < + < g Q g , < ",
"u < < , , , , , , , , , u u < < k Q < + < g Q g ,.y t J Y I J I I I I I I J Y J Y J I I K m M d A S a { S l S e F ] 0.] { F S S ] ^ ^ c r ^ S [ 1 1 h c 7 i 7 4 e w 4 0 2 * I J I J Y Y I Y J I I I I I I J J J I 2.<.y , , , , < u g k k g k Q < + < g Q g , < ",
"g u < , , , , , , , , < u g < < k Q < + < g Q g ,.y t J J Y Y I I J Y I I I J I J Y J J J m s H H H C F l S 7 l z z S ] a x S ^ a l e x 7 [ x ` ' ` k b S 3 C A 2 6 6 - - P I I I I J I I J I J I I I Y I I I I I 2.<.y , , , , < u g k k g k Q < + < g Q g , < ",
"g u < , , , , , , , < < u g < < k Q < + < g Q g ,.y t J I J I I Y Y J I I Y I Y J Y J I J D G s D M 0 a Z S l C z A S C a a C e 7 z i c 7 7 ^ 7 7 1 W 3 x 7 A C @ 6 O - * I I I I I I I I J Y Y J I I J J J I Y I 2.<.y , , , , , u g k k g k Q < + < g Q g , < ",
"g u < < , , , , , , < u g u < < k Q < + < g Q g ,.y t J Y I I I J I I J I Y I J Y J J Y I J D D C p s C z Z e 4 e 6 w w A 6 w z w x : l 3 7 7 v v ` h z 4 7 @ w 6 & * p I I I I I I I J I I J I J I I Y Y Y I J I 2.<.y < , , , , < g g k g k Q < + < g Q g , , ",
"g g < < , , , , , , < u g u < < k Q < + < g Q g ,.y t J I J J I J I I Y J J I Y J I I I J J B M A A M p w z x 7 w w z & e 0 w w 2 s 2 7 7 4 7 F ] 6 i 3 : w 2 4 5 = q s.I I I J J I Y I I J I I J J J I I Y I I I 2.<.y < , , , , < g g k g k Q < + < g Q g , , ",
"g g u < < , , , , < < u g u < < k Q < + < g Q g ,.y t J J Y I Y I I I I I Y I J I Y I J Y Y D q M 0 s M D a C x a 6 2 5 5 2 7 & & w w s @ 4 7 4 @ 7 w a 4 4 & e & O 8 p I I J I I I J J J Y J I Y J I I I I I J I 2.<.y < , , , , < u g g g k Q < + < g Q g , , ",
"u g u < < , , , , < < g g u < < k Q < + < g Q g ,.y t V J J I J I I J I J J I J J J I Y J J J B p M M * A D 7 a d 6 6 & 2 M p 6 2 & 4 6 4 4 & @ z 4 s a 2 0 6 $ # & s f I J I J J I J Y I J I J I I Y J J Y I Y I 2.<.y < , , , , < u g g g k Q < + < g Q g , , ",
"u g g u < < , , < < u g g u < < k Q < + < g Q g ,.y t J Y I I I I J J J Y I I J J Y Y J I Y J Y p 8 s q 9 d M @ A 4 s & 0 6 & & 5 6 5 & 6 w 6 a w 2 % . = % O = $ = * I J I J I I I I I I I I I J I J I Y J I J I 2.<.y < , , , , , < u g g k Q < + < g Q g , , ",
"< g g u < < , , < < u g u u < < k Q < + < g Q g ,.y t J J I I J I Y J I J J Y I I I J Y J I I I 8 P M q 0 A s q q O . 9 9 = 6 2 0 9 9 $ $ O 4 & . & * O * % O = 0 0 & J I I Y I J J J J I J J I I I I I I I I J I 2.<.y < , , , , , < u u g k Q < + < g Q g , , ",
"< u g g u < < < < u u g u < < < k Q < + < g Q g ,.y t J I I I Y I J Y Y I I J I J I J I I J J J D h.0 a.m 9 0 $ = 9 p $ 9 % 9 = # O = = # 5 $ O # % . . $ = $ = m m O.Y J I J J Y I I I I Y I I I I I I J Y I Y I 2.<.y u < , , , , , < u u k Q < + < g Q g , , ",
"< u g g u u < < u u g g u < < < k Q < + < g Q g ,.y t N I J I I I I J J I I J Y Y J I J I I I I D D D p m M 9 % q # = % - % 5 8 - # 8 9 $ M # # . $ . q . % M % L d $.I Y I I Y J Y I I J I I J Y J I I I J I I I 2.<.y u < , , , , , , < u k Q < + < g Q g , , ",
", < g k u u < < u u k g u < < < k Q < + < g Q g ,.y t J I Y I J J J I Y I I I J I J I I I I I I s.L #.D q % q 9 = 8 $ M $ - % q 5 & . 5 q 6 2 = $ q = % = O = G D -.7.I J Y J Y J I I I Y J Y Y J I I I Y I I Y I 2.<.y u < , , , , , , , < k Q < + < g Q g , , ",
", < g k g u u u u g k g < < < < k Q < + < g Q g ,.y t J Y Y I Y I I I I I I I I J J I I J I I I b.wXa.L q 8 $ = % % m 9 9 M 8 M D s M O 5 q 5 d A $ . % 9 % q H O.g.7.f.I J I J Y J J Y J I J I I Y J I J I I I I 2.<.y u u , , , , , , , , k Q < + < g Q g , , ",
", < g k g u u u u g k g < , < < k Q < + < g Q g ,.y t J J I I J I I Y J I J J Y J Y I Y Y J I J {.%Xb.$.q m 9 9 8 p s M M 9 % 5 0 M & 0 6 M 5 % w C 2 # 9 m S A d.0.8.7.I I I J I I I I I I I Y I J Y I I Y I J I 2.<.y g u < , , , , , , , k Q < + < g Q g , , ",
", < u k k g u u g g k g < , < < k Q < + < g Q g ,.y t J I I J J J J I I Y Y Y J I I J V J I I I eX%XB.o.M $.b.s A M M F 0 2 q $ M d 0 M e 0 F C 6 A & M o.@.@.f.0.8.q.7.I I I Y J Y J I J I Y J Y I J Y I I I Y I 2.<.y g u < , , , , , , , k Q < + < g Q g , , ",
", , u k k k g g g k k g < , < < k Q < + < g Q g ,.y t V I I I I Y I I J J I I Y Y Y Y I I I I I eXwX_.L kXa.V.b.o.M a.A H A F 4.6 d C o.p s F C S F 2 $.x.f.7.f.j.j.0.0.I I J I I J I Y Y I I J J I I J J J I J I 2.<.y g u < , , , , , , , k Q < + < g Q g , , ",
", , u g k k g g k k k g < , < < k Q < + < g Q g ,.y t J Y I Y I I J I Y J Y I J I I J I I J I I rXrX%XN.$.m.L wXd.N.#.L o.F F #.z.o.H 7.F $.7.$.-.O.d.7.f.f.0.f.f.0.8.7.I I I I I Y Y J I J Y Y I I J I I J I I I 2.<.y g u < < , , , , , , k Q < + < g Q g , , ",
", , u u g k k k k k k g < , < < k Q < + < g Q g ,.y t J J I I J I Y J I Y I I I I J Y J Y I I I wXrX{.eX%XB.{.a.b.v.B.'.m.N.B.a.B.d.$.7.z.4.d.7.@.f.d.7.d.f.0.7.8.8.0.7.h.I I I J V J I J Y J J I J Y I I Y I I I 2.<.y k k u < , , , , , , k Q < + < g Q g < , ",
", , u u g k k k k k g u < , < < k Q < + < g Q g ,.y t J Y I I Y I J Y I I J I J Y I I I J I I I eXrXrXeXeXeXeXeXuXeXpX0X[._._._.(.U.U.z.n.c.$.j.-.x.z.j.j.f.j.0.q.0.f.0.8.J I J Y Y I Y J I I I I I I J J J I I I 2.<.y k k u < , , , , , , k Q < + < g Q g < , ",
", , < < g g k k k k g u < , < < k Q < + < g Q g ,.y t J I I J I I I I J Y Y J Y Y J J Y J I J V.rXrXrXrXeXeXrXrXeXqXeX0X{.{._._.(.(.U.P.n.z.d.j.n.n.x.z.j.g.g.f.0.q.q.q.7.h.I I J I I J I J I I I Y I I I I I J I 2.<.y k k u < < , , , , , k Q < + < g Q g < , ",
", , , < u g k k k k g u < , < < k Q < + < g Q g ,.y t V I I Y J I I J Y J I I J I I I J Y J Y %XwXrXyXrXeXqXeXqXeXeXrXeX|.{.].N.(.(.N.n.z.z.x.x.c.z.x.j.f.j.f.0.k.q.k.q.8.8.I I I I I J Y Y J I I J J J I Y I I I 2.<.y k k u < < , , , , , k Q < + < g Q g < , ",
", , , < u g k k k k u u < , < < k Q < + < g Q g ,.y t J J I I I I I I I I I Y I I I Y J Y I %XwXwXrXrXwXrXeXeXrXeXeXeXeX[.|.].]._.N.N.n.n.n.n.c.c.c.f.j.f.0.j.q.q.q.k.q.8.w.k.U.I J I I J I J I I Y Y Y I J I I I 2.<.y k k g u < , , , , , k Q < + < g Q g < < ",
", , , < u g g k k k u u < , < < k Q < + < g Q g ,.y t J I J Y I I I I I I J J I I I I Y J [.%XwXrXrXuXeXrXqXqXeXeXeXqXeX%X{.]._.B.(.N.n.x.n.n.x.x.x.k.f.f.0.q.k.q.k.k.q.0.w.A.J.E.(.J I I I Y J J I J J I I I J I 2.<.y k k g u < , , , , , k Q < + < g Q g u < ",
", , , , u u g k g g u u , , < < k Q < + < g Q g ,.y t V I Y J J J I J I I I I I J J J J [.%X%XrXrXrXrXrXrXwXeXqXeXeXeX%X|.{.].].(.U.N.n.c.c.n.x.x.x.x.j.f.j.j.k.k.k.k.q.w.A.K.I.E.`.`.}.J J I I Y J J I I J I J I 2.<.y k k g u u < , , , , k Q < + < g Q g u < ",
", , , , u u g k g u u u , , < < k Q < + < g Q g ,.y t J I I I I Y I I J I J I Y I I I |.eXwXrXrXrXuXeXrXeXuXeXeXeXeXeX%X%X[._._.B.U.N.n.c.c.c.n.x.x.c.j.f.z.k.k.k.k.k.q.w.A.I.W.W.`.@X=X=XJ I J J I J I I Y I Y I 2.<.y k k g g u < , , , , k Q < + < g Q g u < ",
", , , , < < u g g u < < , , < < k Q < + < g Q g ,.y t J I Y I I I J Y I J Y J +.b.'.#X%XeXrXrXuXrXrXrXuXeXeXeXeXeX$X|.%X[.[.].(.U.U.N.n.c.N.c.c.x.x.x.x.x.j.k.k.k.k.k.A.J.K.E.Q.`.`.=X:X7X7XNXVXY I I I I J I I I 2.<.y g g k k u < < < , , k Q < + < g Q g u u ",
", , , , , < u g u u < < , , < < k Q < + < g Q g ,.y t J Y J I I J J J I I ZXpX@.(.#X%XwXrXrXuXrXuXrXuXuXeXyXrXeXqX%X%X|.{.].].(.B.N.U.n.c.c.z.x.x.c.x.j.j.c.x.k.k.k.A.w.J.I.E.`.@X@X=X6X7X7XlXNXNXNXVXI I J I J I 2.<.y g g k k u u < < , , k Q < + < g Q g g u ",
", , , , , < u u u < < , , , < < k Q < + < g Q g ,.y t J J J I Y J I aXZXMXpXpXh.[.%X%XuXuXiXuXiXuXrXrXqXeXeXeXeX%XqX%X|.].]._.B.U.n.N.n.x.x.x.c.j.j.x.c.j.k.c.c.c.c.c.P.P.E.`.@X:X:X7X6X7XzXSXNXNXNXVXCXNXNXVXNXI 2.<.y u g k k g u u < , , k Q < + < g Q g g u ",
", , , , , < < u u < < , , , < < k Q < + < g Q g ,.y t V I I I J I nXMXMXaXpXpX$X(.%XeXrXrXiXiXiXuXuXrXeXeXeXeXqXqX%X|.].].].(.(.U.n.P.c.n.x.x.x.x.x.c.c.k.c.c.c.c.D.c.P.I.E.`.:X6X1X7X7XzXjXSXVXNXNXAXNXVXNXNXNXVX2.<.y u g k k g u u < < , k Q < + < g Q g g u ",
", , , , , , < u u < , , , , < < k Q < + < g Q g ,.y t J Y J J Y ZXZXvXaXvXpXpXpXc.[.eXuXiXiXiXuXiXrXuXeXeXeXeXqXqX|.|.].].H.U.(.m.H.n.n.x.x.x.x.x.c.x.c.c.k.c.c.c.c.D.I.E.W.`.1X6X6X7XjXlXlXNXVXNXVXAXAXCXNXVXNXNX2.<.y u g k k g u u < < , k Q < + < g Q g g u ",
", , , , , , < u < < , , , , < < k Q < + < g Q g ,.y t J J J MXZXZXZXvXyXMXaXpXyX(.(.qXeXrXiXuXiXiXiXuXyXeXeX%XeXeX%X_.].].(.x.U.U.n.n.c.z.n.n.x.n.x.j.j.c.c.D.c.c.D.P.I.E.`.@X:X7X2XjX7XlXVXNXNXNXAXNXNXVXVXAXSXNX2.<.y u u k k g g u < < < k Q < + < g Q g g u ",
", , , , , , < < < , , , , , < < k Q < + < g Q g ,.y t J ZXMXMXNXZXZXvXyXpXnXpXpXyXg.{.yXiXiXuXiXuXuXrXeXeXeXqXqXqXqX]._.(.(.(.(.n.m.m.n.n.m.n.m.x.z.z.c.c.D.D.D.P.P.P.I.`.`.@X1X7X7X7XlXlXNXNXNXNXNXNXSXVXVXAXSXSX2.<.y < u g g k k u < < < k Q < + < g Q g g u ",
", , , , , , , < < , , , , , < < k Q < + < g Q g ,.y t qXNXMXMXMXZXZXMXiXeXvXaXpXyX_.N.eXuXiXuXuXuXuXuXeXeXqXqXqXqXqXqX[._.(.m.n.m.n.m.n.n.x.x.n.n.x.c.c.x.c.c.c.P.P.P.E.`.`.:X1X7X7XzXlXVXVXNXNXCXSXSXSXSXSXSXCXCX2.<.y < u g g k k u < < < k Q < + < g Q g g g ",
"< , , , , , , , , , , , , < < < k Q < + < g Q g ,.y t qXMXMXMXMXZXMXMXpXeXiXaXpXpXyX7.qXeXyXyXuXuXuXyXeXeXqX$XqXeXqX%X_.(.(.B.m.n.m.m.n.n.n.m.N.z.n.c.x.l.l.P.D.P.P.I.).`.`.&X2X2X7XlXlXNXNXNXNXNXSXAXSXCXSXSXSXCX2.<.y < u u g k k g u < < k Q < + < g Q g k g ",
"< , , , , , , , , , , , , < < < k Q < + < g Q g ,.y t qXMXMXMXMXMXMXMXiXaXqXaXaXpXpXyX(.0XeXuXeXyXyXyXyXqX0X0XqXeXeX{.].(.(.z.m.z.m.m.z.m.m.m.n.c.c.x.x.c.c.P.H.P.P.I.`.`.1X1X7X7XlXzXNXNXNXNXNXNXAXSXSXCXSXAXSXAX2.<.y < < u g k k g u < < k Q < + < g Q g k g ",
"< < , , , , , , , , , , , u < < k Q < + < g Q g ,.y t qXMXMXNXMXvXMXMXpXaX0XyXaXaXpXpX0.(.$XqXeXeXyXyXeXqX0X0X0XqXeX0X[.m.m.m.m.d.n.z.z.-.7.z.z.c.n.j.x.c.H.P.P.P.I.I.`.`.:X1X2XlXxXVXAXNXVXSXNXSXSXSXSXSXSXSXSXCX2.<.y , < u g k k g u < < k Q < + < g Q g k g ",
"< < , , , , , , , , , , < u < < k Q < + < g Q g ,.y t qXNXNXMXMXNXMXvXvXaXaXaXyXaXaXaXpX'.0.N.'.0X$XqX0X0X0X0XqXqXqX{.qXb.b.7.d.d.d.$.g.z.n.(.U.n.H.c.D.D.P.P.I.E.E.`.`.:X2X7XxXSXNXNXNXAXNXNXAXSXNXAXSXCXCXSXSXSX2.<.y , < u u k k g u < < k Q < + < g Q g k g ",
"u < , , , , , , , , , , < u < < k Q < + < g Q g ,.y t qXNXMXNXMXMXMXvXvXMXpXvXpX0XpXpXpXaXpX7.f._.'.$X$X0XqXqXqXeXqX{.'._.$.m.d.-.z.-.z.x.c.z.x.c.x.D.D.k.K.I.R.R.`.`.@X1X7XlXSXNXNXvXSXNXNXNXSXVXAXAXAXSXSXSXSXAX2.<.y , < < u g g g u < < k Q < + < g Q g k g ",
"u < , , , , , , , , , , < g < < k Q < + < g Q g ,.y t qXAXAXNXNXMXNXNXvXvXvXaXaXqXyXpXaXaXaXpXd.0.n._.{.{.{.$X$XqXeX].{._.z.z.o.f.z.-.z.H.n.x.N.H.Z.k.D.I.K.I.R.W.`.`.@X1X7XCXNXNXNXNXNXNXNXNXSXNXNXNXNXAXSXSXSXAX2.<.y , , < u u g g u < < k Q < + < g Q g k g ",
"u < < , , , , , , , , < u g < < k Q < + < g Q g ,.y t qXAXAXNXNXMXMXMXvXvXvXvXaXvXyX0XaXaXaXZXpX[.0.l._.[.[.{.B.|._.].N._.z.O.-.d.d.d.x.h.n.n.P.c.k.D.S.K.K.R.W.`.`.`.:XVXNXNXNXcXNXAXAXSXSXNXNXNXNXNXNXSXSXAXSXSX2.<.y , , < < u g g u < < k Q < + < g Q g k g ",
"u u < , , , , , , , , < u g < < k Q < + < g Q g ,.y t ,.2.2.2.2.2.2.2.2.2.2.2.2.2.2.2.2.2.2.2.2.2.2.2.2.2.2.2.2.2.2.2.2.2.2.2.2.2.2.2.2.2.2.2.2.2.2.2.2.2.2.2.2.2.2.2.2.2.2.2.2.2.2.2.2.2.2.2.2.2.2.2.2.2.2.2.2.2.2.<.y , , , < < u g u < < k Q < + < g Q g k g ",
"g u < < , , , , , , , < u g < < k Q < + < g Q g ,.y >.<.<.<.<.<.<.<.<.<.<.<.<.<.<.<.<.<.<.<.<.<.<.<.<.<.<.<.<.<.<.<.<.<.<.<.<.<.<.<.<.<.<.<.<.<.<.<.<.<.<.<.<.<.<.<.<.<.<.<.<.<.<.<.<.<.<.<.<.<.<.<.<.<.<.<.<.<.<.<.<.y , , , < < u u u < < k Q < + < g Q g k g ",
"g u < < , , , , , , , < g g < < k Q < + < g Q g ,.y y y y y y y y y y y y y y y y y y y y y y y y y y y y y y y y y y y y y y y y y y y y y y y y y y y y y y y y y y y y y y y y y y y y y y y y y y y y y y y y y y y , , , , < < u u < < k Q < + < g Q g k g ",
"g u u < , , , , , , , < g g < < k Q < + < g Q g , , , , , , < u h h u < , , , , , , , < u g k u , , < < k Q < + < g Q g g g u < , , < < k Q < + < g Q g , , , , , , , , , , < < k Q < + < g Q g < , , < u g u < , , , , , , , , , < < u < < k Q < + < g Q g k g ",
"g g u < , , , , , , < < g g < < k Q < + < g Q g , , , , , , , < h h < , , , , , , , , < g k g < , , < < k Q < + < g Q g g u < , , , < < k Q < + 7 g Q g , , , , , , , , , , < < k Q < + < g Q g u , , < u u u < , , , , , , , , , , < < < < k Q < + < g Q g k g ",
"g g u u < , , , , < u u g g < < k Q < + < g Q g , , , , , , , , < < , , , , , , , , < u g g u < , , < < k Q < + < g Q g u < , , , , < < k Q < + 7 g Q g u , , , , , , , , < < < k Q < + < g Q g u < , , u u u < < , , , , , , , , , , < < < k Q < + < g Q g g g ",
"g g u u < < , , < < u u u u < < k Q < + < g Q g < , , , , , , , , , , , , , , , , , < u u u u , , , < < k Q < + < g Q g < , , , , , < < k Q < + 7 g Q g u < , , , , , , < < < < k Q < + < g Q g u < , , < u u u < , , , , , , , , , , , < < k Q < + < g Q g g g "
};
