/* XPM */
static char *easter_egg3[] = {
/* columns rows colors chars-per-pixel */
"128 128 245 2 ",
"   c #28130E",
".  c #2C1816",
"X  c #271B1D",
"o  c #361B18",
"O  c #2A2312",
"+  c #3B2F17",
"@  c #38231D",
"#  c #2B2A2B",
"$  c #3A2826",
"%  c #323030",
"&  c #383837",
"*  c #431D1A",
"=  c #47241D",
"-  c #43331B",
";  c #4B3B1B",
":  c #573F1F",
">  c #461F21",
",  c #482A27",
"<  c #542D28",
"1  c #44332D",
"2  c #4B332D",
"3  c #57342C",
"4  c #442E34",
"5  c #483735",
"6  c #4D3A34",
"7  c #583935",
"8  c #533D3A",
"9  c #65372E",
"0  c #653C36",
"q  c #5F5F00",
"w  c #6B6B00",
"e  c #5F4323",
"r  c #47423C",
"t  c #54433C",
"y  c #5B4438",
"u  c #5C433C",
"i  c #6F4B27",
"p  c #774F2B",
"a  c #67443C",
"s  c #75463C",
"d  c #443A41",
"f  c #3C4243",
"g  c #2F497B",
"h  c #484947",
"j  c #5B4542",
"k  c #574945",
"l  c #5C4B44",
"z  c #56534C",
"x  c #4E5050",
"c  c #545454",
"v  c #585A55",
"b  c #5C5B5B",
"n  c #674A46",
"m  c #634C44",
"M  c #764B45",
"N  c #64534C",
"B  c #6A5449",
"V  c #77564B",
"C  c #694E54",
"Z  c #695955",
"A  c #6C5B54",
"S  c #755B55",
"D  c #5D615B",
"F  c #7D624F",
"G  c #63645D",
"H  c #6C635A",
"J  c #74625C",
"K  c #7A6459",
"L  c #5A5B65",
"P  c #655D64",
"I  c #5B6468",
"U  c #646363",
"Y  c #6B6A64",
"T  c #696967",
"R  c #756966",
"E  c #7C6B64",
"W  c #6D716A",
"Q  c #72726C",
"!  c #7A746C",
"~  c #676E72",
"^  c #726E72",
"/  c #6B7476",
"(  c #787875",
")  c #8F363F",
"_  c #83532F",
"`  c #8B5B33",
"'  c #935F37",
"]  c #85554C",
"[  c #8E5450",
"{  c #875C54",
"}  c #B04F55",
"|  c #87665A",
" . c #95655C",
".. c #8C715E",
"X. c #856B65",
"o. c #976B63",
"O. c #84726B",
"+. c #8A7568",
"@. c #967869",
"#. c #826F71",
"$. c #897A74",
"%. c #967C75",
"&. c #AE6062",
"*. c #A6766B",
"=. c #AF706E",
"-. c #A87B73",
";. c #CF6E75",
":. c #7E817B",
">. c #878700",
",. c #939300",
"<. c #AFAF00",
"1. c #BBBB00",
"2. c #D7D700",
"3. c #97816E",
"4. c #89857C",
"5. c #94847B",
"6. c #998778",
"7. c #A58979",
"8. c #B5867B",
"9. c #A7917E",
"0. c #C3857C",
"q. c #3E6390",
"w. c #367BB3",
"e. c #617899",
"r. c #967D84",
"t. c #D77786",
"y. c #E57E8E",
"u. c #3B82BB",
"i. c #748690",
"p. c #788C98",
"a. c #4F88B9",
"s. c #788EA5",
"d. c #3F8AC3",
"f. c #498EC5",
"g. c #6295C5",
"h. c #878886",
"j. c #8D8A83",
"k. c #938C83",
"l. c #9B8C83",
"z. c #958C88",
"x. c #99938A",
"c. c #8A8E91",
"v. c #87949A",
"b. c #989895",
"n. c #A58C84",
"m. c #B98C84",
"M. c #A39384",
"N. c #A69788",
"B. c #AB9C8C",
"V. c #B6978A",
"C. c #A59B95",
"Z. c #BB9B94",
"A. c #ACA294",
"S. c #A9A59A",
"D. c #B2A390",
"F. c #B3A393",
"G. c #B5A798",
"H. c #B4AB9C",
"J. c #BAAC9C",
"K. c #8295A4",
"L. c #8699A6",
"P. c #869BAA",
"I. c #8A9EAB",
"U. c #9F9FA0",
"Y. c #919BA8",
"T. c #8BA1AE",
"R. c #8EA3B1",
"E. c #91A6B3",
"W. c #96ABB7",
"Q. c #9BA9B1",
"!. c #AAA9A6",
"~. c #B6ADA2",
"^. c #BCB3A4",
"/. c #B8B5AA",
"(. c #A8B2B5",
"). c #B9BAB5",
"_. c #CA8B87",
"`. c #C6948A",
"'. c #D2968D",
"]. c #C89A93",
"[. c #D79C95",
"{. c #EB8494",
"}. c #E98694",
"|. c #EA8E93",
" X c #EE8B9A",
".X c #F18C96",
"XX c #F28C9B",
"oX c #F3959D",
"OX c #C9A39B",
"+X c #D7A39B",
"@X c #C2B19E",
"#X c #E5A49C",
"$X c #DB9BA0",
"%X c #F593A2",
"&X c #F998A7",
"*X c #D8A9A3",
"=X c #C2B7A9",
"-X c #C3BAAC",
";X c #D1B0A9",
":X c #D9B3AB",
">X c #C6BDB2",
",X c #E5A9A6",
"<X c #EBADAB",
"1X c #F6A9AB",
"2X c #E8B3AD",
"3X c #FBA8B4",
"4X c #EDB4B2",
"5X c #E8BBB5",
"6X c #EDBAB5",
"7X c #F1B9B7",
"8X c #BDC2BB",
"9X c #C9C4B8",
"0X c #D2C9BC",
"qX c #EAC5BC",
"wX c #F1C2BD",
"eX c #9FB4C0",
"rX c #A5B8C5",
"tX c #B7BDC2",
"yX c #F1B8C3",
"uX c #B8C3C8",
"iX c #B7CAD7",
"pX c #BFD2E1",
"aX c #C8C9C5",
"sX c #CFD1CC",
"dX c #D5D4CA",
"fX c #DADBD6",
"gX c #ECCCC4",
"hX c #ECCCC6",
"jX c #ECD2CB",
"kX c #F4D3C8",
"lX c #F2D4CA",
"zX c #DDE1DC",
"xX c #E7E6DB",
"cX c #F1EEDE",
"vX c #C9D7E3",
"bX c #DDE9ED",
"nX c #EAEBE3",
"mX c #F4F3E5",
"MX c #F6F6E9",
"NX c #F8F7E9",
"BX c #FAFAED",
"VX c #EEF2F0",
"CX c #E6F5FC",
"ZX c #EBF6FB",
"AX c #EAF6FD",
/* pixels */
"p p p p p p p p p p p p p p p p p p p p p p p p p p p p p p p p p p p p p p p p p p p p p p p p p p p p p p p p p p p p p p p p p p p p p p p p p p p p p p p p p p p p p p p p p p p p p p p p p p p p p p p p p p p p p p p p p p p p p p p p p p p p p p p p ",
"e e e e e e e e e e e e e e e e e e e e e e e e e e e e e e e e e e e e e e e e e e e e e e e e e e e e e e e e e e e e e e e e e e e e e e e e e e e e e e e e e e e e e e e e e e e e e e e e e e e e e e e e e e e e e e e e e e e e e e e e e e e e e e e e ",
"` ` ` ` ` ` ` ` ` ` ` ` ` ` ` ` ` ` ` ` ` ` ` ` ` ` ` ` ` ` ` ` ` ` ` ` ` ` ` ` ` ` ` ` ` ` ` ` ` ` ` ` ` ` ` ` ` ` ` ` ` ` ` ` ` ` ` ` ` ` ` ` ` ` ` ` ` ` ` ` ` ` ` ` ` ` ` ` ` ` ` ` ` ` ` ` ` ` ` ` ` ` ` ` ` ` ` ` ` ` ` ` ` ` ` ` ` ` ` ` ` ` ` ` ` ` ` ` ",
"' ' ' ' ' ' ' ' ' ' ' ' ' ' ' ' ' ' ' ' ' ' ' ' ' ' ' ' ' ' ' ' ' ' ' ' ' ' ' ' ' ' ' ' ' ' ' ' ' ' ' ' ' ' ' ' ' ' ' ' ' ' ' ' ' ' ' ' ' ' ' ' ' ' ' ' ' ' ' ' ' ' ' ' ' ' ' ' ' ' ' ' ' ' ' ' ' ' ' ' ' ' ' ' ' ' ' ' ' ' ' ' ' ' ' ' ' ' ' ' ' ' ' ' ' ' ' ' ",
"_ _ _ _ _ _ _ _ _ _ _ _ _ _ _ _ _ _ _ _ _ _ _ _ _ _ _ _ _ _ _ _ _ _ _ _ _ _ _ _ _ _ _ _ _ _ _ _ _ _ _ _ _ _ _ _ _ _ _ _ _ _ _ _ _ _ _ _ _ _ _ _ _ _ _ _ _ _ _ _ _ _ _ _ _ _ _ _ _ _ _ _ _ _ _ _ _ _ _ _ _ _ _ _ _ _ _ _ _ _ _ _ _ _ _ _ _ _ _ _ _ _ _ _ _ _ _ _ ",
"i i i i i i i i i i i i i i i i e : ; : : ; : e i i i i i i i i i i i i i i i i i i i i i i i i i i i i e : ; : : ; : e i i i i i i i i e : ; : : ; : e i i i i i i i i i i i i e : ; : : ; : e i i i i i i i i i i i i i i i i i i i i i i e : ; : : ; : e i i ",
": : : : : : : : : : : : : : - + ; : + O + - : : : ; - - - - - - - - ; : : : - - : : - - : : - - - - : : ; : + O + - : : : : - - : : + + ; : + O + - : : : ; - - - - - - ; : + + ; : + O + - : : - ; : : ; - - ; : : ; - ; : - - : : : : : ; ; : + O + - : : : : ",
": : : : : e e e e e e e e e - + e p + O + : p : : ; - - - - - - - - ; : : : - - : : - - : : - - - - : : e p + O + : p : : : - - : : + + e p + O + : p : : ; - - - - - - ; : + + e p + O + : p : - ; : : ; - - ; : : ; - ; : - - : : : : : ; e p + O + : p : : : ",
"; ; ; ; : i p p p p p p p i ; : p ' : + : i ' i e : ; ; ; ; ; ; ; ; e p p p ; ; e i ; ; e i ; ; ; ; : : p ' : + : i ' i p p ; ; i p : : p ' : + : i ' i e e ; ; ; ; ; ; e e : : p ' : + : i ' i ; e p p e ; ; : p p : ; e p : ; e p p p p i p ' : + : i ' i e i ",
"; ; ; ; : i p p p p p p p i ; : p ' : + : i ' i e : ; ; ; ; ; ; ; ; e p p p ; ; e i ; ; e i ; ; ; ; : : p ' : + : i ' i p i ; ; i p : : p ' : + : i ' i e e : ; ; ; ; : e e : : p ' : + : i ' i ; e p p e ; ; : p p : ; e p : ; e p p p p i p ' : + : i ' i : i ",
"; ; ; ; : i p p p p p p i e ; : p ' : + : i ' i i : ; ; ; ; ; ; ; : e p p i ; ; e i ; ; e i ; ; ; ; : : p ' : + : i ' i p i ; ; i p : : p ' : + : i ' i i e : ; ; ; ; : e p : : p ' : + : i ' i ; e p p e ; ; : p p : ; e p : ; e p p p p i p ' : + : i ' i ; e ",
"; ; ; ; : e p p p p p p i e ; : p ' : + : i ' i i e ; ; ; ; ; ; ; : e p p i ; ; e i ; ; e i ; ; ; ; : : p ' : + : i ' i p i ; ; i p : : p ' : + : i ' i i i e : ; ; : e i p : : p ' : + : i ' i ; e p p e ; ; : p p : ; e p : ; : p p p p i p ' : + : i ' i ; e ",
"; ; ; ; : e i p p p p p i : ; : p ' : + : i ' i p e : ; ; ; ; ; ; : i p p e ; ; e i ; ; e i ; ; ; ; : : p ' : + : i ' i i i ; ; i p : : p ' : + : i ' i p i e e : : e e i p : : p ' : + : i ' i ; e p p e ; ; : p p : ; e p : ; : p p p p i p ' : + : i ' i ; e ",
"; ; ; ; : e i p p p 2.2.2.2.2.2.2.2.2.2.2.2.2.2.2.2.2.2.2.2.2.2.2.2.2.2.2.2.2.2.2.2.2.2.2.2.2.2.2.2.2.2.2.2.2.2.2.2.2.2.2.2.2.2.2.2.2.2.2.2.2.2.2.2.2.2.2.2.2.2.2.2.2.2.2.2.2.2.2.2.2.2.2.2.2.2.2.2.2.2.2.2.2.2.2.2.2.2.2.2.2.2.2.2.2.2.2.>.p ' : + : i ' i ; e ",
": ; ; ; : : i i p p 2.<.<.<.<.<.<.<.<.<.<.<.<.<.<.<.<.<.<.<.<.<.<.<.<.<.<.<.<.<.<.<.<.<.<.<.<.<.<.<.<.<.<.<.<.<.<.<.<.<.<.<.<.<.<.<.<.<.<.<.<.<.<.<.<.<.<.<.<.<.<.<.<.<.<.<.<.<.<.<.<.<.<.<.<.<.<.<.<.<.<.<.<.<.<.<.<.<.<.<.<.<.<.<.<.<.,.q p ' : + : i ' i ; e ",
": ; ; ; : : e i p p 2.<.,.,.,.,.,.,.,.,.,.,.,.,.,.,.,.,.,.,.,.,.,.,.,.,.,.,.,.,.,.,.,.,.,.,.,.,.,.,.,.,.,.,.,.,.,.,.,.,.,.,.,.,.,.,.,.,.,.,.,.,.,.,.,.,.,.,.,.,.,.,.,.,.,.,.,.,.,.,.,.,.,.,.,.,.,.,.,.,.,.,.,.,.,.,.,.,.,.,.,.,.,.,.,.,.,.q p ' : + : i ' i ; e ",
"i e ; ; ; : e e i p 2.<.,.q q q q q q q q q q q q q q q q q q q q q q q q q q q q q q q q q q q q q q q q q q q q q q q q q q q q q q q q q q q q q q q q q q q q q q q q q q q q q q q q q q q q q q q q q q q q q q q q q w w w w w <.,.q p ' : + : i ' i ; e ",
"i e ; ; ; ; : e e i 2.<.,.q Y Y W W W Q W W W Q ( Q Q W W W Y Y Y W Y Y U D v x.v v v v c v c c c c x x x x x x x x x h h h h x v Y h.U./.8XsXdXzXfX).4.! 4.4.G G G Y ( S.dXdXU & v i./ I c U.f VXZX8Xv.Q.i.v.L.L.I.I.I.I.I.W.T.iXW.1.<.,.q p ' : + : i ' i ; e ",
"i e ; ; ; ; ; e e e 2.<.,.q :.( :.( :.( :.( ( ( Q W W U D D D G G D G U T T W 4.W W W W Q Q W W W W Y Y Y Y T G G G G G D v b c v c v c z z h h h r r & % % # # % # % % % % h W & D i./ I x b.h ZXZXbXi.(.Q.v.I.P.L.I.I.I.R.W.E.iXW.2.<.,.q p ' : + : i ' i ; e ",
"i e ; ; ; ; ; : : e 2.<.,.q U D D v c c x c c c c v v D D Y Y W W W Q Q ( ( ( ( :.:.( ( :.( ( ( Q ( Q D G v v v v D G Y G G G G Y G Y G Y G G G v z r r & & & & % & % # # # c T x L / ~ L h b.f bXZXbXi.rXU.p.L.I.L.I.P.T.R.W.W.iXW.2.<.,.q p ' : + : i ' i ; : ",
"p e : ; ; ; ; ; : : 2.<.,.q ( Y D D v v v D D D D U U Y W W Q Q Q ( j.( Q Q Y G D v ( v c c c x c c c v Y G T T W Q W Y ( Q ! ! Q Q ! x.Q Q Q Y Y H z h h r r r & & & & % & G b c I / I c f b.f sXZXbXi.rXY.v.I.P.I.T.I.T.R.W.W.iXeX2.<.,.q p ' : + : i ' i ; : ",
"p i e ; ; ; ; ; : : 2.<.,.q MXMXNXNXNXNXNXNXmXMXNXBXNXMXmXnXxXdXsX8X/./.Q G Y G D v c v b G D G G G G Y Y W Y W W W ( Q W G G b G j.G h z z k k v k k z r r r h h r h r r & U h c ~ ~ L x f b.h sXAXbXi.rXY.v.I.I.I.T.I.R.R.W.W.iXeX2.<.,.q p ' : + : i ' i ; : ",
"p p e ; ; ; ; ; ; ; 2.<.,.q MXMXNXMXMXMXNXBXBXBXBXBXBXBXBXBXBXBXBXBXBXmXNXMXBXMXBXBXBXBXBXBXBXBXBXBXBXNXMXnXxXdX9X/./.!./.S.4.j.j.4.Q v G 4.G $.Y ! H v b z v z h h r r 5 r Y G v / ~ c f % b.f aXAXbXi.rXY.v.T.I.L.R.R.E.T.W.W.iXrX2.<.,.q p ' : + : i ' i ; ; ",
"p p e : ; ; ; ; ; ; 2.<.,.q dX9XS.b.9XnXMXmXmXNXNXMXxXmXmXBXBXBXBXBXBXNXBXBXBXBXBXBXBXBXBXBXBXBXBXBXBXBXNXmXdX/.b.x.H.0XmXBXBXBXBXBXBXBXNXmXmXmXNXMXBXmXmXfXzXsX9X/.!.S.h.D G f v / I x f % x.h zXAXzXi.rXY.L.T.I.P.T.P.R.R.W.rXiXrX2.<.,.q p ' : + : i ' i ; ; ",
"i i i e ; ; ; ; ; ; 2.<.,.q MXmXMXMXmXMXMXmXmXMXNXMXMXmXmXMXcXMXmXmXMXnXmXMXMXMXBXcXnXcXnXmXMXnXdX)./.dXcX9X~.0X/.H.x.b.dXcXmXBXMXNXcXNXNXmXmXmXcXNXNXmXNXBXBXmXxXcXcXcXxX~.v x L ~ L x & & b.h ZXAXzXp.rXv.L.I.I.I.T.I.R.R.W.rXiXrX2.<.,.q p ' : + : i ' i ; ; ",
"i i p e ; ; ; ; ; ; 2.<.,.q h x Y Q b.!.).8X8XsXfXxXcXmXMXMXMXMXmXMXMXMXMXMXmXmXNXMXmXBXMXmXMXMXMXmXcXmXmXMXMXcXMXxXcXmXxXxXmXcXBXmXmXcXNXcXmXBXxXcXmXxXcXmXNXmXdXxXmXmXcX0Xc x I I c h % & b.h CXCXaXp.rXv.L.I.I.I.T.T.E.R.W.rXiXrX2.<.,.q p ' : + : i ' i ; ; ",
"i i p i e : ; ; ; ; 2.<.,.q & & D & & & & & & & & & & h r 5 Y v v z H x.4.~.k.S.k./.S.!./.8X9XdXxXnXmXmXmXmXmXmXxXmXcXxXmXcXMXcXfXdX-X0X0X9X0X-X9XdXdXxXxXxXmXcXmXmXmX/.S.W h v ~ L x f & h z.f ZXAXuXp.rXv.I.T.I.T.T.T.T.R.W.rXiXrX2.<.,.q p ' : + : i ' i ; ; ",
"i i p p e : ; ; ; ; 2.<.,.q r x G x h h h h & & & & r r & h 1 x.S.H.H N ! r t z.4.k t ! z Z r r Z r r 5 + X.J.N.H 6.J.J.J.J.@X^.^.=X=X=XG.=X/./.J.9XdXfXxXdXmXcXmXmXcXxXxXb f v L c f & & c c.h CXCXbXi.rXv.L.I.I.I.T.T.T.R.W.rXiXrX2.<.,.q p ' : + : i ' i ; ; ",
"e i p p i e ; ; ; ; 2.<.,.q f r h x h x x x v c c c v z Z Y k ( Z k Z r z S.k H $.$.$.4.5 H t H t R $.1 l.6.u X.X.N.3.6.M.M.G.+.F.6.M.M.9.B.B.F.B.F.F.N.F.@XG.F.J.6.+.t v D h x c x f % & D j.h CXAXbXp.rXc.I.I.I.T.I.T.T.E.W.rXuXrX2.<.,.q p ' : + : i ' i ; ; ",
"e i p p p i e ; ; ; 2.<.,.q r h r h h h h r h h h r r Q z r r r h r k r 4.! r $.! x.4.! 5.! N.M.5.N 6.6.X.S +.9.B.3.9.G.B.B.9.9.3.7.B.M.| +.+.3.3.N.F.F.M.B.B.F.F.6.6.3.r G b h x f % & h x j.h CXAXbXp.rXi.I.T.T.T.T.I.T.R.W.rXrXrX2.<.,.q p ' : + : i ' i ; ; ",
": i p p p p e e ; ; 2.<.,.q 4.4.4.4.4.4.( Q Y Y Q 4.z Z H z v z z v z z r 6 Z z k H t x.5.Z N t A B.+.B.B.F.M.6.F.+.M.6.9.6.@.M...7.B.9.7.6.3.3.F.B.F.M.9.B.@XJ.J.J.6.@.+.M.z x f & # & c % j.h CXCXbXp.rXi.T.T.R.T.P.I.T.R.W.rXrXrX2.<.,.q p ' : + : i ' i : ; ",
": e p p p p i e : ; 2.<.,.q 4.4.4.4.4.4.4.4.j.x.x.4.4.4.k.j.4.4.j.k.x.z.k.5.k.z.C.k.C.z.5.6.6.M.+.B.B.+.+.M.6.+.B.+.B.K ..M.K B @.X.X.m 6.6.B.6.B.@.S 9.3.3.M.6.M.K 6.+.F.B.B.x f # # % b x j.h CXAXbXv.rXi.T.T.I.T.T.T.I.R.W.rXrXrX2.<.,.q p ' : + : i ' i : ; ",
"; e i p p p p i e e 2.<.,.q 4.j.j.j.4.j.j.4.j.j.j.j.j.j.k.x.k.k.k.4.k.z.k.x.k.k.5.x.N.5.l.3.6.6.+.3.+.+.K | X.6.K M.M.. K J X.N J M.u +.K B K B.6.S J +.B ..M.M.B.B.X.6.l.J.$.B.X X % & h U h.h CXAXbXv.rXi.T.I.I.T.R.T.I.T.W.rXrXrX2.<.,.q p ' : + : i ' i : ; ",
"; e i p p p p p i e 2.<.,.q 4.4.j.4.4.j.4.j.j.j.x.k.j.j.k.j.x.b.k.k.C.x.4.z.C.x.x.l.x.S.4.5.6.K K M.K m +.6.K N E X.3.1 @ l N J $.$.K A 5.J 3.M.y J y F K 3.6.9.N.B.B.A.B.G.B.J R X X h & Q h.h CXAXbXv.rXi.I.I.T.T.T.I.I.T.W.rXrXrX2.<.,.q p ' : + : i ' i : ; ",
"; : i i p p p p i i 2.<.,.q 4.4.j.j.j.j.j.j.j.z.4.j.j.C.x.k.k.j.x.x.x.k.l.C.x.k.k.x.k.l.$.K 6.u +.6.X.J N J 6 6 Z 5.3.5.m t 1 N E K E $.$.u K l.J 2 O.K K 6.X.6.+.B.6.A.F.M.F.B.M.k X z b Q h.h ZXAXbXv.rXi.R.E.T.T.T.T.R.T.W.rX(.rX2.<.,.q p ' : + : i ' i : ; ",
"; : i i p p p p p i 2.<.,.q j.j.j.j.j.j.j.j.4.j.j.j.x.x.k.k.k.z.x.z.z.z.k.k.l.x.z.l.l.$.6.$.1 6.B.$.E l $.E Z .   l Z O.6 . 1 k x.5.O.A O.J B X.m 6 N 6.6.+.6.+.6.6.l.N.~.l.F.$.l.A % 5 G W b.h CXAXbXv.rXe.T.R.R.T.T.T.T.R.W.rXrXrX2.<.,.q p ' : + : i ' i : ; ",
"; ; e i i p p p p p 2.<.,.q z.z.z.z.k.j.j.j.j.x.k.k.x.x.x.x.k.M.N.F.6.l.N.5.4.N.l.M.N.6.N u +.+.%.B E N J J N l . 5 5.%.J Z $ Z Z $.5.5.j E y J $.B J 6.6.6.M.F.+.l.6.H.>XaXM.l M.6.$.% ( ).j.x CXAXbXK.rX( T.E.R.T.T.R.R.E.W.rXW.rX2.<.,.q p ' : + : i ' i e : ",
"; ; e i i p p p p p 2.<.,.q x.z.x.x.x.x.x.x.x.x.x.x.x.C.x.B.F.B.F.F.B.M.G.l.E +.B +.M.3.t . j +.u J l t l B $.t 5 k k 6 $.1 t l N H 5.k.j O.E 6 t u 3.@.3.M.6.J J.K 6.M.~.9XJ 6.5.B.t Y ( sXh.x CXCXbXv.rX/ E.T.R.I.R.T.R.R.E.rXW.rX2.<.,.q p ' : + : i ' i e : ",
"; ; : e i p p p p p 2.<.,.q x.x.x.x.x.x.b.b.x.x.x.x.x.S.G.J.F.G.B.B.J.F.A.O.M.X.B +.3.+.1 $ $.O.K 6 6 5 1 $.E 5.$   1 6 H J Z t j N A E 1 Z Z $ t t l 5 +.3.+.5.+.B.+.6.!.S.4.O.M.1 6 Q b.b.U.x CXCXbXv.rX/ W.T.T.R.T.T.T.R.E.rXW.rX2.<.,.q p ' : + : i ' i e : ",
"; ; : e i i p p p p 2.<.,.q b.x.x.x.C.b.A.C.S.A.S.H.^.A.l.F.6.G.F.B.M.B.6.B 6.m m y K S , @ J E E E j N N A $.E k $ $ 1 Z J A 6.E O.A A N t O.H J 1 l l J t A N.l.X.K F.A.^.N.$.5.t & 4.vXaX(.x CXCXbXK.rX/ W.I.R.R.T.T.R.T.E.eXW.rX2.<.,.q p ' : + : i ' i e : ",
"; ; ; : e i p p p p 2.<.,.q C.C.S.b.S.A.A.S.S.H.^.H.H.A.G.G.X.B.A.B.6.N.+.3.+.+.m y K m m j j A S R Z k A N E t $ 5 % 1 k 5 $.A O.M.J $.Z N J l.J 1 Z O.u l 5 A l.5.>XN.5.S.N.l l.l.r k.CXCX(.c AXCXbXK.rX/ W.R.R.R.R.R.T.E.I.W.E.rX2.<.,.q p ' : + : i ' i e e ",
"; ; ; : e i i p p i 2.<.,.q S.S.S.~.~.~.S.~.~.~.~.H.J.F.F.B.B.N.B.F.M.F.B @.+...B B m y X.$.t N A Z N 1 Z k R R $ z 1 ! 1 l J N $ $.S $.A t J O.Z Z l.C.A O.k 5 O.O.G.C.O.z.N.l.O.$.z.fXCXCX(.x AXAXbXL.rX/ E.T.R.T.R.R.T.T.P.W.W.rX2.<.,.q p ' : + : i ' i : e ",
"; ; ; : : e i i i i 2.<.,.q S.!.H.H.H.H./.~.H.H.~.J.A.J.G.G.A.B.M.B.F.6.y 6.6.@.y m B K m 8 N t l A l 6 A 8 z z $.Z . % J 6 J m 1 Z J O.J $.5.5.l J K J l.E J A.l E E l.n.M.N.l.E $.$.CXCXCXuXc CXAXbXv.(./ R.E.T.R.R.R.E.E.P.W.E.rX2.<.,.q p ' : + : i ' i : e ",
"; ; ; ; : e e i i e 2.<.,.q ~.~.~.!.~./.H.H.H.~.J.G.=X=XJ.~.F.G.B.6.@.6.y +.F +.B m m B m K A 8 A k k 8 1 6 z N k z 1 1 t N A 6 y %.m 6.X.N E N l Z 1 X.N.m 5.n.J Z O.N.O.$.5.~.4.k.4.CXCXCX(./ CXAXbXv.(./ R.R.R.T.T.R.R.R.s.W.R.rX2.<.,.q p ' : + : i ' i : e ",
": ; ; ; : : e e e : 2.<.,.q ~.~.~.H.H.H.J.H.H.J.J.B.F.J.B.F.G.B.B.B.9.M.S F @.6.B m 6 6 6 J m j $ l k 6 6 $ 5 Z l @ $ $ $ j l m E S N m A $.E N m %.X.l.%.$.l.O.J t A 5.5.l.O.5.G.C.j.CXAXCX!.( AXAXbXL.(.~ R.I.R.I.E.R.R.R.s.W.T.rX2.<.,.q p ' : + : i ' i : e ",
": ; ; ; : : : e : : 2.<.,.q 6.l.6.3.l.B.N.M.N.B.F.B.M.B.F.B.B.6.B.M.9.9.V | F F m 6 6 , l B K 6 $ A z t 5 5 z k k . z l @ l.l J S t E J J t Z Z $ 6 N.X.S n.$.$.$.l E J l.M.l.O.x.x.C.bXCXAXb./.CXCXbXL.(./ R.R.T.T.T.R.E.E.s.W.T.rX2.<.,.q p ' : + : i ' i : e ",
": ; ; ; ; : : : e ; 2.<.,.q N.N.N.6.M.B.M.6.M.M.6.M.F.M.G.9.9.B.7.9.7.6.a %.| S m 6 y y | B K Z @ $ 6 z k 5 z 5 k $ $ l l.l l 2 6 6 B N S J $ 1 8 1 O.A X.$.S l j l t l.5.O.A.$.O.x.5.!.CXCX).c AXAXbXL.W./ R.R.T.T.R.R.R.E.p.W.T.rX2.<.,.q p ' : + : i ' i : e ",
": : ; ; ; ; : : ; ; 2.<.,.q N.x.l.6.l.M.l.M.F.M.J.M.B.M.M...@.3.9.7.9.7.@.F F B K 7 6 B K S m 2 1 z k 6   1 5 $ k 5 . 1 Z 8 5.o $ @ m E J E E N $ 8 O.N $.A J N N O.5 J l 5.l.$.5.Z $.x.tXAX8Xv AXAXbXK.W./ R.R.T.R.R.R.T.E.p.W.I.rX2.<.,.q p ' : + : i ' i : e ",
"e : ; ; ; ; ; ; ; ; 2.<.,.q N.x.6.M.N.N.B.N.6.M.B.9.B.M.9.9.| | 6.6.7.@.@.@.X.V B y B K S S u 2 N t 5 k . 8 k 5 5 k l $ 1 . t Z 2 Z t 6 Z E 6 O.j 5 Z B S t 6 m l E N l $.E C.4.1 R J A AXbXU.h AXCXbXL.W.~ E.R.I.R.T.T.R.E.p.W.I.(.2.<.,.q p ' : + : i ' i : e ",
"e : ; ; ; ; ; ; ; ; 2.<.,.q A.G.H.6.6.3.B.M.6.B.6.M.6.B.V.6.@.3.| 6.@.@.7.@.| S B B K n B S 7 2 Z k 5 8 t @   5 1 $ z $ k j @ l E O.j @ X.N l t 1 m B X.m , 1 j A A A J E Z O.$.$.l l k Y CX(.h AXAXbXL.W.~ R.T.R.R.R.T.E.E.i.eXP.rX2.<.,.q p ' : + : i ' i : e ",
"i : ; ; ; ; ; ; ; ; 2.<.,.q N.N.N.F.A.F.A.B.6.B.F.V.F.B.V.6.7.7.3.7.@.@.@.@.| B B S n m K S 2 y l 1 $ 1 $ k 5 $   k 6 5 1 1 m B 1 B $ l $.l t E j y O.B 6., J N S l Z t S N A 5.E l.1 A t AX!.c.ZXCXbXL.W.~ E.R.R.R.R.T.R.E.i.rXP.rX2.<.,.q p ' : + : i ' i : : ",
"i e ; ; ; ; ; ; ; ; 2.<.,.q N.6.N.J.J.G.F.F.6.F.B.9.9.N.3.3.7.@.7.9.7.......B a X.a 3 | B m B u N $ S t 5 l 5 $ $ N 1   5 8 2 N , $ N A E j 6 1 l @ E 6 m j J t N l k Z E S E $.J k.l.Z k ^ !.Q AXAXbXY.(.~ I.T.T.R.T.R.R.E.i.rXP.uX2.<.,.q p ' : + : i ' i ; : ",
"i e ; ; ; ; ; ; ; ; 2.<.,.q N.l.l.A.J.F.F.F.9.6.F.@.B.3.7.7...7.V.7...@.3.@.+.| a y B S B B B m m S 6 E K J S Z 6 E A . . m 8 7 6 t A j 5 8 . $ , 2 l.1 , J t Z t 5.t E X.Z l $.$.N R $ k Z !.U CXAXbXY.W.~ E.T.R.T.R.R.R.R.i.rXP.uX2.<.,.q p ' : + : i ' i ; : ",
"i i ; ; ; ; ; ; ; ; 2.<.,.q A.N.M.l.G.J.J.J.6.B.F.M.N.7.3.7.9.@.@.7.7.7.V | | y a a V V B B a m B S K J Z J t N 2 $ Z 6 8 u 2 6 8 Z 6 1 $ $ 1   o 6 Z %.$.8 t 6 @ X.Z E X.Z E $.R t ! A Z bX!.x ZXCXbXY.W.~ T.R.P.R.T.R.E.E.i.rXP.uX2.<.,.q p ' : + : i ' i ; : ",
"i i : ; ; ; ; ; ; ; 2.<.,.q A.H.A.F.J.G.F.F.G.J.3.6.@.7.6.V...7.7.3...| @.+.V B y B V S a n y 7 7 , 7 l J O.Z j j $ @ 8 u u B 7 o 8 j 8 o 8 $ . t j A l.N.$ 2 1 j O.l 6 O.J H A Z k.A l $.ZX).$.vXAXbXL.W.~ E.R.R.T.R.R.R.W.i.rXI.iX2.<.,.q p ' : + : i ' i ; ; ",
"i i e ; ; ; ; ; ; ; 2.<.,.q J.J.A.A.F.B.B.F.F.N.9.V.7.3.9.| 3.@.@.7.@.@.V | | V ..< V V M a a 7 2 7 . @ . 1 1 8 , $ 8 1 2 u V n , 8 1 $ Z 5 1 $ 1 1 O.K m N j A O.E O.Z S l k R R Z A R l.AX).#.ZXAXbXL.W.~ I.T.T.R.R.R.R.W.i.uXP.uX2.<.,.q p ' : + : i ' i ; ; ",
"e i e ; ; ; ; ; ; ; 2.<.,.q H.H.N.B.F.G.l.B.N.M.J.M.3.G.6.+...F @.V @.@.@.B V n S = | V M V  .7 X.0 7 = S @ $ 8 B , , $ , 2 M @.7 , 5 2 $ 8 $ $ 1 8 B +.S u 2 S S J l A 5.A 6 Y ! k E 5.l.ZX!.Z bXCXbXL.W.~ T.I.T.R.R.R.E.E.i.uXI.vX2.<.,.q p ' : + : i ' i ; ; ",
"e i e : ; ; ; ; ; ; 2.<.,.q M.N.A.3.6.N.B.B.F.F.B.7.9.G.@XB.V.3.@.@.@.V V | 7 S y a V ..o.*.M V | a 2 y B Z B S t o   1 , 7 %.X.n 2 6 2 8 k 6 , 2 m B S S 2 S 6 2 A u O.O.1 $ $ $.5 J R x.ZX).H ZXbXaXL.Q.~ I.I.P.R.I.R.E.E.i.iXI.vX2.<.,.q p ' : + : i ' i ; ; ",
": i i : ; ; ; ; ; ; 2.<.,.q G.H.A.N.J.J.G.F.B.F.6.3.F.7.M.F.7.+.| ..+.@.@.B ..3 V a M 7.| { -.] 0 V | +.A 8 j 6 1 2 . @ o o.X.a n 3 6 8 $ j $ j j 7 +.8 m u B B K V m E Z $ . E J z j m l.sX!.N.nXfX!.Q.(.~ T.T.P.T.T.R.R.E.i.iXP.sX2.<.,.q p ' : + : i ' i ; ; ",
": e i e ; ; ; ; ; ; 2.<.,.q J.~.H.A.^.-X^.J.G.J.B.3.9.M.3.9...V @.....@.| @.a a 3 V 7.*.o.7.] 0 M V * = u A 6 B u 2 o @ n m.| n , 7 8 2 6 , , 2 8 a 2 8 u u V | S < u J l o E E t A 8 l E X.S B fXC.sX/.Q.~ I.P.I.T.I.T.R.E.i.iXP.bX2.<.,.q p ' : + : i ' i : ; ",
": e i e : ; ; ; ; ; 2.<.,.q H.H.H.J.^.^.^.J.B.B.B.N.9.7.@.@.F | M.7...V ..V B 3 a V o.@.] 8.] a < o o 2 @ o , , o 2 , V | 0 9 n M 7 2 3 6 1 2 @ +.n a n @.OXOX{ 7 7 n S 2 $ 6 6 t N.6 8 m 5.N.m X.zXsXb.!.~ P.I.I.P.R.R.R.E.p.iXI.sX2.<.,.q p ' : + : i ' i : ; ",
": e i i : ; ; ; ; ; 2.<.,.q A.H.J.H.J.J.^.^.=XJ.F.N.6.V.7.@.F @.6.V.9...| V < 7 3 | | {  .-. .| a 3 3 u 7 n 2 n V o.] o.] { { { M M ] o.] M , a %.{ a -.OX:Xm.| 7 7 S S Z l Z $ $ B 5.S 8 A l.O.fXVXaXb.!.i.I.I.P.R.T.T.R.E.p.pXI.ZX2.<.,.q p ' : + : i ' i : ; ",
"; e e i e : ; ; ; ; 2.<.,.q N.J.^.^.H.J.^.^.=X=XB.M.6.M.3.@.7.9.+.@.@.@.B n a , 3 < 7.| | a M s 7 a V < V 7 3 a a -.-. .8.*.-.-.-.o.*.8.M [ [ < s 0 M @.OX:XV.*.M n.X.S A 8 m m o.7 A O.J N 6.5.sXtXfX!.b.c.I.P.I.T.R.I.R.R.p.vXI.nX2.<.,.q p ' : + : i ' i : ; ",
"; : e i e : ; ; ; : 2.<.,.q A.B.N.x.N.x.A.A.A.G.J.J.B.7.V.7.7.| @.7.V F B V a o 2 7 V a M 3 3 M V a V a V a M { V m.8.-.m.8.-.s 0 M [  .] [ `.-.] 8.`.5X5X:X].*X5X:Xn.A 1 8 1 -.*.V 7 +.m O.6.N.zXnXfX!.C.~.I.I.I.T.R.P.I.R.p.vXT.ZX2.<.,.q p ' : + : i ' i : ; ",
"; : : i i e : : : e 2.<.,.q H.J.^.^.=X=X~.=X^.F.G.=XF.9.+.J.B.+.| @.| B B 2 3 7 o = 9 { ] o. .*.-.V @.o.o.o.{ V m.].+X .o.o.[ 0 X., 7 , n  .*. .m.].2X:X5X:X5X5XwXwX;X%.8 j 1 o.-.-.n B u u N.O.+.VXnXb.~.z.Y.Q.P.P.I.I.P.R.p.vXI.AX2.<.,.q p ' : + : i ' i : ; ",
"; : : e i i e : : i 2.<.,.q J.^.=XH.A.A.H.S.H.H.G.A.J.F.@.M.V.| @.V F V y a a 7 o , ] *.-.8.8.*.M 3 S V V a  .*.].].+X]. .M ] @.%.7 7 S ~.] ] -.m.OX:X5X5X5XwXwXqXwX:XX.B C 8 { o.{ { M n.u $.B N.x.aX!.5.C.x.!.I.P.I.R.T.R.s.vXT.ZX2.<.,.q p ' : + : i ' i : ; ",
"; ; : e i i e : e i 2.<.,.q -X=X^.^.l.N.N.H.A.N.N.B.F.J.9.9.7.V V F V V V = 7 2 @    .*.8.o.] o $.2 t , a V  .8.`.+X[.`.8.]  . .n.2 3 3 o.`.].`.OX*X5XqX5X5XwXwXwXwX5X6.S , n o. .o.o.o.{ K l J +.+.X.%.n.l.C.P.P.P.I.P.T.E.s.vXE.ZX2.<.,.q p ' : + : i ' i : ; ",
"; ; : : i i i e i i 2.<.,.q ^.=X=X^.-X9X9X9X9XJ.=X=X=XF.9.+.V V @.V V V a y 7 @   o *.*.*.[ * @.u o 6 , { 3  .`.].+X].m.m.m.*. . .*.*.`.+X+X].+X5X2X5X5X5X7X5XwXwXwXqX6.S 8 V | *.s `.-.{ $.C.J J m u X.$.h.P.L.L.P.P.I.I.R.s.vXR.VX2.<.,.q p ' : + : i ' i : ; ",
"; ; ; : e i i i i e 2.<.,.q G.G.A.6.^.^.=X/.-X^.G.J.^.J.+...M.V y V V a a a 7 2 @ o -.*.-.s s %.C.7 7 V { o. ._.m.*X[.m.m.*.*.*.m.m.m.].+X*X2X2X6X5X5X7X6X6X6XwX7XwX5XZ.+.7 n n [ [ -.8.| l.A.n.5.X.5.b.!.i.L.L.P.P.P.P.I.R.s.vXE.BX2.<.,.q p ' : + : i ' i : : ",
"; ; ; : e e i i e e 2.<.,.q G.J.H.H.^.^.^.>X9X9X9XA.^.J.J.9.V V V B 3 n V K 7 . @ o 8.8.o. . .] ]  .*.o. .] *.].[.*X+X].].].m.`.`.].].+X*X2X2X4X6X6X6XwXwX7X7X7XwX7X5X;X| S n a -.[ *.{ n X.H.K X.m ~.b.!.i.L.P.P.P.P.P.I.R.L.vXR.VX2.<.,.q p ' : + : i ' i : : ",
"; ; ; ; : e e e e : 2.<.,.q ^.J.J.^.^.H.H.S.H.H.H.9X^.=XF.F.+.B.B y a @.| y B 2 o . 8.m.8.-.*.8.8.8.o.*.-.o.o.'.+X[.,X,X[.].[.[.].+X*X2X<X4X2X4X6X6X7X7X7X7X7X7X6X7X7X;Xo.@.V 7 -.*.m.o.K O.x.N S X./.C.!.c.L.L.P.P.P.P.I.R.P.vXE.VX2.<.,.q p ' : + : i ' i : : ",
"; ; ; ; : : e e : : 2.<.,.q =X^.^./.~./.=X-X~./.=X=X9X9X=X=XN.H.y F ..B X.S 7 2 $ . 8.`.8.8.8.*.-.`.m.m.8.=.=.+X<X<X*X,X,X*X[.[.,X,X*X,X,X<X2X4X7X7X7X6X6X7X7X6X6XwX7X:Xo.%.V n.-.o.M 5Xn @ 6.l.m C.^.A b.h.L.P.P.P.P.P.I.E.P.vXE.AX2.<.,.q p ' : + : i ' i : : ",
"; ; ; ; ; : : : : ; 2.<.,.q =X^.^.-X>X>X-X-X/.-XS.0X0X9X0X0XJ.^.F S 7.X.y a 6 2 $ . 8.`.[.`.`.`.[.].]._.0.=.8.,X,X[.,X<X4X<X,X,X,X<X,X<X4X<X4X4X4X4X7X7X6X7X7X7X6X7X7XOX| V 0 @.*.[ *XgXB E o u j j dX!.!.$.K.L.P.P.P.P.T.R.P.vXE.AX2.<.,.q p ' : + : i ' i : e ",
"; ; ; ; ; ; : : ; ; 2.<.,.q A.A.N.5.H.H./.J.H.H.^.^.=X9X>X=X^.9X+.y F.a K 7 y @ @ . 8.`.'.'.[.+X+X[.[.'.`.=.'.<X,X,X<X4X4X4X<X,X,X,X<X<X4X4X4X4X4X4X4X7X7X6X6X7X6X7X7XZ.{ o.a m.*X*.2X7.8 N 6 l.R fXE C.U.S c.L.P.P.P.P.T.R.I.vXE.AX2.<.,.q p ' : + : i ' i : e ",
"; ; ; ; ; ; ; ; ; ; 2.<.,.q ~./.^.=XS.A.H.H./.~.J.H.^.9X>X-X/.~.^.~.X.7 , m m 1 @ . 8.`.[.+X+X'.+X[.[.[.`.0.<X,X<X<X<X,X<X<X<X<X,X<X<X4X4X4X4X4X4X4X7X7X4X6X6X7X6X2Xm.m.S n -.*X*X].wX2 2 C J $.S E >Xx.m $.#.K.L.P.P.T.P.R.R.iXW.AX2.<.,.q p ' : + : i ' i : e ",
": ; ; ; ; ; ; ; ; ; 2.<.,.q H.^.^./.9X9X9X9X9X-X=X^.=X-X9X9X>X>X-X^.y y y a u A o . *.`.'.'.+X[.[.#X[.[.'.,X4X<X<X7X4X,X,X[.<X<X<X,X<X4X4X4X4X4X4X4X4X7X6X6X6X7X6X:X*X*.%.V ].2X2XwX5X5 2 t Z X.J n.j x.j C.C L.I.P.P.P.T.R.R.iXW.AX2.<.,.q p ' : + : i ' i : e ",
": ; ; ; ; ; ; ; ; ; 2.<.,.q >X-X-X/.0X0X0X9X9X^.^.=X^.^.H.~.^.H.J.^.F.a 7 a +.m $ . @ 8.[.'.'.#X#X#X#X[.0.<X<X4X4XgX7X4X4X,X[.,X<X<X<X<X7X4X7X4X4X7X4X7X7X4X6X6X6XOX8.| o.V 5X7X7XwX5 1 6 8 l j t O.E m C.t L.L.K.P.P.P.P.R.R.iXW.AX2.<.,.q p ' : + : i ' i ; e ",
": ; ; ; ; ; ; ; ; ; 2.<.,.q ~.N././.~./.-X>X9X9X-XG.=X9X>X=XF.>XJ.A.6.6.6.J.K m @ @ $ 8.'.'.[.[.#X#X#X'.0.,X<X,X7X4X4X4X4X4X_.$X,X,X<X4X4X7X4X4X4X4X4X4X4X4X4X7X6Xm.7.m.{ o.6X7X7XM j 8 $ 1 m n.S j o u , v.P.P.L.P.K.L.P.R.E.iXW.AX2.<.,.q p ' : + : i ' i ; e ",
": : ; ; ; ; ; ; ; ; 2.<.,.q A.A.-X>X>X/.-X-X-X9X9X^.~.^.=X-X9XJ.=X-X3.B M.B a 2 $ o . 8._.'.+X#X#X#X#X_.'.'.<X+X2X4X<X4X<X<X_.$X,X<X<X4X<X7X4X4X4X7X4X4X6X4X7X6X*X@.{ { { 5X6X6X{ m 5 6 N C . l $ t O.C.^.v.L.P.P.P.P.P.P.T.R.iXE.AX2.<.,.q p ' : + : i ' i ; e ",
"e : ; ; ; ; ; ; ; ; 2.<.,.q /./.J.H.A.S.S.~.~.~.~.-X0X0X^.^.G.9X~.9X0X>XB.| y B .   o V _.'.[.#X#X[.'._.0.=.'.[.].,X=.) _.,X[.,X,X,X<X<X4X4X4X7X4X4X4X4X7X4X6X7XOX7.o.| { *X*X0 $ @ 4 l m j $ o $ l E l.N.v.K.K.P.P.K.P.P.R.E.iXE.CX2.<.,.q p ' : + : i ' i ; e ",
"e : ; ; ; ; ; ; ; ; 2.<.,.q /.^.-X-X9X9X9X-X9X-X-XJ.-X^.^.=X=X=X=X^.>X=X@Xu 7 u . . o 6 _.`.[.#X#X#X[._._.&.s  .m.[.*Xm.0.$X<X4X<X,X,X<X4X<X4X7X4X4X4X4X7X6X6X5X7.].m.M M 0 2 . $ @ 4 8 R l O.N 4 j S $.E R I.P.P.K.K.P.P.R.R.iXE.CX2.<.,.q p ' : + : i ' i ; : ",
"e : : ; ; ; ; ; ; ; 2.<.,.q /.-X0X0X/.~.^././.H././.H.9X9X0X0X0X^.J.N.B.K 7 n.$ o o @ , 0.`.'.[.#X[.'._.'.=.0 M 8.m.{ m.o.m.<X4X7X4X4X,X,X4X4X4X4X7X4X4X7X7X6X:Xm.o.o.*.V n . j 4 $ . $ $ 5 A R A J m O.5.B L.P.P.P.P.K.P.R.R.uXE.AX2.<.,.q p ' : + : i ' i ; : ",
"i e : ; ; ; ; ; ; ; 2.<.,.q 9X0X0X0X/././.-X-X9XA.-X0X9X=X^.^.9X=X>XE m H 6.S p.T.. . 2 | '.'.'.+X'._.=.[ 9 M M { o.M | ] M ].*X+X*X7X4X<X<X4X7X4X4X4X6X6X7X7X].m.8.@.o.S %.j   $ $ . 5 5 R Z A N R $.S l.$.c.P.K.K.P.P.rXT.T.rXE.AX2.<.,.q p ' : + : i ' i ; : ",
"i e : ; ; ; ; ; ; ; 2.<.,.q /./././.9XdXaX-X9X/.>X=X=X0X0X0X0X=X0XdXdX0XX.l c s.e.  1 7 2 `.'.'.'._.8.[ ] 0 o.{ X.M { ] M o.{ V.8.].8.5X[.,X<X2X4X4X4X4X7X6X5X:Xm.o.] o.a n o 5 o $ . 4 $ N o $ $ k J 5.N.J b.L.K.K.P.K.K.T.T.rXE.uX2.<.,.q p ' : + : i ' i ; : ",
"i e : : ; ; ; ; ; ; 2.<.,.q >X9XaX9X>X0X>X0X0X-X>X>X=X9X9X9X9X9X/.aX9XaX/.E.s.a.a.e.@ , , _._.`.'.8.M M 9 { M M M 3 0 M a { M @.8.*.`.Z.OX2X4X4X4X6X4X7X6X2X2X].].o.| @.7 n 8 Z 4 $ 5 $ Z $ R 4 6 $ t C $.E K.P.K.K.P.P.P.T.R.rXR.bX2.<.,.q p ' : + : i ' i ; ; ",
"i i : : ; ; ; ; ; ; 2.<.,.q xXxXxXxX9X)./././././././././././.).).).).>XaXg.a.q.a.w.1 o < -.`.`._.] ] s M 9 9 V M V 3 0 a o. .] o.*. .s 8.4X6X4X4X6X4X`.6X6X*X7.%.M V n V V E 8 $ $ . 4 @ N 8 8 R G.C A S S K.K.K.K.K.P.P.P.T.rXE.AX2.<.,.q p ' : + : i ' i ; ; ",
"i i e : : ; ; ; ; : 2.<.,.q xXxXxXxXsXdXfXfXfXfXfXfXfXdXfXfXfXfXfXfXfXxXnXg.a.a.a.g.L , , u `.`.*.[  .] < < 9 -.t.=.=. .[ ] 8.[  . .o.] [ ].6X6X2X2X2X5X2XOXOX@.@.| 0 n n n 8 1 4 $ $ 5 1 k 8 8 S k 1 E m b.P.K.K.K.K.K.P.P.I.rXR.AX2.<.,.q p ' : + : i ' i ; ; ",
"e i e : : ; ; ; ; : 2.<.,.q xXxXnXxXsXfXfXxXzXxXfXzXzXfXxXxXxXfXxXxXxXxXxXa.f.a.a.w.g.d 2 u 8.m.[ s ] ] [ o.[ =.=.t.=.[ ) } &.} _._._.-.] `.2X,X2X*X].5X5Xm.7.o.S V n S | 2 j 6 8 j k $ 8 N l j tXZX! 8 O.K.K.s.K.K.P.P.T.P.P.eXR.AX2.<.,.q p ' : + : i ' i ; ; ",
"e i i e : : ; ; : : 2.<.,.q dXdXdXaXsXdXdXxXxXxXzXxXzXzXzXfXfXzXzXfXzXxXfXa.a.a.f.f.f.q.7 2 | m.*.s s s ] 0 [ &.=.;.t.;.=.;.*X2X2X,X+X`.`.+Xm.*X*Xm.+X5X].7.o.S V S S S X.2 j 2 j j R 4 8 8 8 4 !.bX>XB $.L.L.K.K.K.P.P.P.K.I.W.R.AX2.<.,.q p ' : + : i ' i ; ; ",
": i i e : : ; ; : : 2.<.,.q x.S.~.S.dXfXdXfX).dXfXzXzXfXfXfXfXzXzXfXzXfXaXw.w.u.f.f.f.% , n  .o. .s ]  .*.8.-.=.=.t.t.}.,X2X2X2X2X<X2X2X`.8.`.`.8.].`.m.+Xo.V X.V S 7 X.n 8 , $ C A 1 C j 6 k $ fX^ R Z b.L.K.K.s.K.s.P.P.K.I.E.E.AX2.<.,.q p ' : + : i ' i ; ; ",
": e i i e : : : : e 2.<.,.q dX9X).9XsXfXsXaXG W Q Y Y G G G b G G U G U Y w.u.f.d.f.q.e.4 n M ] 8.{ { *.*.-.m.].`.m.m.m.].].].`.,X<X2X+Xm.8.OX8.o.8.7.o.m.V | n 7 3 V X.+.3 2 8 m o 4 4 m j l C 8 Z A U.b.K.K.K.P.K.P.P.P.p.P.E.E.AX2.<.,.q p ' : + : i ' i ; ; ",
": e i i e e : : e e 2.<.,.q xXaX9X9XaXfXsX9XY Y Q ! ! Q Q Y Q Y Y Y Q Y Y w.f.f.f.f.g e.P n a V *.] ] 8.m.m.*.8.*. .-.o.{ 8.`.m.+X<X2X].8. .| { o.7.V.| -.o.| a n n S S S j o j 5 Z m , o j Z E S #.C.U.c.K.K.K.K.K.K.P.I.s.P.T.E.AX2.<.,.q p ' : + : i ' i ; ; ",
"; : i p e e : : e e 2.<.,.q xXsX9X9XaXdXaX/.Q Y Q Q Q Q Q Q Q Y Y U Y Y Y a.u.d.f.f.f.e.P J V V a s  .-.8.*.8.8.o.9 9 -.8. .8.+X*X2X2X2X+X8. .{ [ 9 | 0 a X.V a 7 a n +.%.n , j 2 n.S 8 , j m 5.~.BX).!.c.L.s.K.K.K.K.L.I.p.I.I.W.AX2.<.,.q p ' : + : i ' i ; ; ",
"; : i p i e e e e i 2.<.,.q zXdXaX8XaXaX9X).Q U Q Q Y Q R Y Q Y Y Y Y Y U a.u.u.u.u.f.a.X C a a < 9 o.] -.8.*.8.*.0 s o.[ `.].+X2X2X2X].-.| V | { a a o.S 7 3 n 7 n X.S n V j S j 8 6 K 2 S n.l.sXZXaXU.U.L.K.s.K.K.K.K.I.p.P.P.W.AX2.<.,.q p ' : + : i ' i ; ; ",
"; : i p i e e e e i 2.<.,.q fXdX9X).9XaX9X/.Y Q Q Y R R Q Y Y Y Y U U U Y f.w.w.w.u.u.u.I j 0 < = < 9 9  .*.*. . .M ] [ *.8.m.*X4X6X2X`.8. .s { M a S n X.n a %.< 3 +.%.o.{ C 3 5 8 6 , , 8 u X.#.x.>XC.h.L.K.K.K.K.K.P.P.i.I.K.W.AX2.<.,.q p ' : + : i ' i ; ; ",
"; : e p p i e e i i 2.<.,.q fXfX9X).8X9X).~.Y Y Q Y Y U U ).4.U U Z G G ~ w.w.w.w.w.w.w.q.J V < = 0 s {  . .o. .] s M [ [ `.8.8.].+XOXm.o.{ { V n 3 < a 7 7 7 7 n 7 X.X.V m.-.n < X.7 , n OX+.X.VXZXb.!.h.K.K.s.K.K.P.K.P.i.E.K.rXAX2.<.,.q p ' : + : i ' i ; ; ",
"; ; e p p p i i i p 2.<.,.q dXfX9X).).)./.!.W U Y Y Y G ! nXc.W ( ( ( ( h.p.s.s.s.e.e.e.e.C B , < < V a 0  .] s ] {  . . .8.*.8.-.8.*.*.{ { @.< < V 7 3 , 2 , , B n 7 { -.].OX{ < 7 7 3 $.%.X.%.zXzXaXU.e.K.K.K.s.K.K.L.P.e.E.K.W.bX2.<.,.q p ' : + : i ' i ; ; ",
"; ; e i p p i i p p 2.<.,.q dXfX8X).).).~.S.Y G Y U G G Z c.U.x h v v v b Y Y Y Y W ( ( Q N u , < 0 3 < 9 s ]  . .o.*. .-.[ m.*.m.o.o.o.a ] 7 M 7 < 7 m B 3 , 3 n 7 3 n.{ 8.:X].8.o.V S n n.X.n VXVXaXU./ K.K.K.K.I.P.K.P.e.W.p.I.v.2.<.,.q p ' : + : i ' i ; ; ",
"; ; e e i p p p p p 2.<.,.q dXfX).).).).~.b.b b U U G b v ( U.( C.sXfXfXsXaX)./.!.!.c.h.h.#.K 7 < = = * 0 o.] 9 { ] ] [ [  .o.o.o.*. .o.{ M 0 M V 7 B , X., m o 8 B n n ;Xn.wXqXqX:X:X:XOXV.%.o._.3XyXU./ K.K.p.L.K.L.K.L.~ rXp.vXCX2.<.,.q p ' : + : i ' i : ; ",
"; ; e e i p p p p p 2.<.,.q aXfX8X).)./.!.b.b v G G b G ( Q v.v Z U Q ( ( ( :.h.h.h.h.h.Y r.j a { 3 = < 7 3 < V  .] 0 ] M { M  .{ { M  .< V M *.= < 3 o o 8 , , , n V 3 { wXwXgXqXqXqXqXgXgXlXkX%X&X&X&XXX3X3XU.K.K.K.K.L.~ rXp.Q.tX2.<.,.q p ' : + : i ' i : ; ",
"; ; : : i i p p p p 2.<.,.q aXfX8X).).!.~.x.v v b v b x h U c.h h & & % % & 5 h x c Z b Y 8 , < < < 3 < { V { V s V M M a o.] M a | a 9 < a < 7 S 0 3 * , 2 > , 8 K n o.:XgXgXqXgXgXgXkXkXkXlX5X%X%X%X%X%X3X3X3XyXv.L.K.I.~ tXp.Y.e.2.<.,.q p ' : + : i ' i : ; ",
"; ; ; : e i p p p p 2.<.,.q aXfX).).).!.!.j.c x x x x & & h v.L h h h h h h h x x h 5 5 5 6 7 < = , 3 0 V 3 a 7 < 7 7 3 = < 0 a o.a 3  .0 o., 3 n , > C , o 3 3 m n n.V.;XqXkXgXkXkXkXkXlXlXlXt.%X%X X%Xt.%X%X&X3X3X3XyXyXe.uXp.L.( 2.<.,.q p ' : + : i ' i : ; ",
"; ; ; : e i p p p p 2.<.,.q aXfX).).).!.!.b.! Q U b c & & & c.~ x h h h x c b x h h 5 5 5 6 a 3 , n = a < 0 a < 3 7 > 3 * 7 < 7 , n 0 a a 3 @.M < < 7 7 2 , < S { -.V.V.-.qXkXgXkXkXkXkXlXlXqX}.%X X}.%XXX%X%X&X%X;.3X3X3X3X7X7XgXr.2.<.,.q p ' : + : i ' i : : ",
"; ; ; : e i i p p p 2.<.,.q aXfX).).).!.!.z.j.j.( W Q % & & h.e.c x c c b c h h h h c b U v m 7 3 M 7 3 < * , , , < , 7 a , n , < 7 9 < V | a 0 , , o o V 3 0 n n.V Z.qXV.kXkXkXkXlXlXlXlXlX'.XXXX Xt.%X%X%XXX X%X3X3X3X&X3X3Xt.3X3X2.<.,.q p ' : + : i ' i e : ",
"; ; ; ; e e i p i i 2.<.,.q aXfX8X)./.S.!.j.z.b.j.j.h.& & % ( c.x x c b x h h h h x x x b ^ b 0 n 3 0 o 3 , , n 3 * , , , m , , 7 a 0 < 0 3 V 0 * S , , < V 7 o.V qXkX:XqXkXgXgXkXlXgXlXlXkX}.}. X}.}. X XoX%XoX}.}.%X&X&X&X&X&X3X3X2.<.,.q p ' : + : i ' i e : ",
"; ; ; ; e e i p i e 2.<.,.q ).fX).)./.S.!.c.b.b.b.b.b.# # # U v.c c c h h h c c b b b b c c P #.n a 3 , 7 a < , , , , , o 7 , , * 0 , V < 3 0 V < , , , V { M OX:XqXlXgXgXlXgXkXlXlXlXlXlX*X}.XX}.t.%X%X%XXX X}. Xt.}. X%X%XXX%X&X&X2.<.,.q p ' : + : i ' i e : ",
"; ; ; ; : : e i i e 2.<.,.q 8XfX)././.!.!.c.j.h.Q Q Q # % # h U.c c c b U U U T Y U Y ^ ^ ^ T Z C a , 0 < o > , o * , o o 3 * o o n < 9 < n M o n 3 7 0 M { { ].:XgXkXgXkXgXhXlXlXlXlXlXgXy.}.}.}.XX%X}.XX%XXX X}. X}.}. X&XXXoX%X%X2.<.,.q p ' : + : i ' i e e ",
"; ; ; ; ; : e i e e 2.<.,.q aXaX).!.!.!.b.c.& % & h x # % % % Q.L c c P P T T Y ^ ^ ^ ^ ( ( ( ( H C < 3 , n 3 , , , o , , > < , * o 7 * 3 0 9 7 0 M M ] { -.qXgXgXgXgXhXhXhXhXlXlXlXlXlX}. XXX}.;.}.XX}.y.}. XXX X X}.}.}.}. X X X X2.<.,.q p ' : + : i ' i i e ",
"; ; ; ; ; : e e e : 2.<.,.q aXuX).C.! !.b.b.!.)././.!.% & % # Q.Y c c b c c b P Y Y ^ ^ ( ( ( ( ^ Z C n 7 3 , , , > , 2 7 , 3 , ] ] M a s M 3 ] { o.o.].m.qXgXgXgXgXhXjXgXgXlXlXlXlXlXqX}.}.}.}.}.%XXX X}. X X XXX%X%X X X X}.}. X X2.<.,.q p ' : + : i ' i i e ",
"; ; ; ; ; : : e e : 2.<.,.q ).).!.h h !.b.b.b.z.z.z.b.& % % # U./ b c b U U U U Y U Y ^ ( ^ ( ( ( ( :.R #.n 3 7 , 3 ] < M , 0 < [ [ M s o.0 -.o.| | ;X*X:XgXgXgXgXjXhXjXgXgXjXlXlXlXgX}.XX}.}.XX}.;.}.XXXXXX&X&X&X&X&X&X&X%XoXXX X X2.<.,.q p ' : + : i ' i i e ",
"; ; ; ; ; ; : e e : 2.<.,.q uX).).# r S.b.Y ( j.j.z.z.% % % # Y.e.b b b b U P U Y Y ^ ^ ^ ^ ( ( ( ( $.$.#.C > M _.[ ) =.6 4 V 0 M ] *. .-.m.@.`.Z.OX].:XOXqXgXgXgXhXgXlXjXjXjXjXlXgXy.}.y.}.y.XX&X%X X X&X%X%X%X}.}.XX X%X%XoX XoX X2.<.,.q p ' : + : i ' i i e ",
"; ; ; ; ; ; : e : : 2.<.,.q uXtXtX).% b.z.Q Q j.j.j.j.% # # # b.i.b b b P U U U T ^ ^ ^ ( ^ ( ( ( h.h.^ X.&XoX;.} ;.=.) j 8 $ ] -.-.8.8.-.m.OXOXZ.OX:X:X5XgXgXgXgXhXjXlXlXjXjXjXgX}.}.}.}.}.y.}.}.y.&X}.&X%X%X%X%X X}.}. X XXX X X X2.<.,.q p ' : + : i ' i i e ",
"; ; ; ; ; ; : : : ; 2.<.,.q aXuXuXtX% x.j.Q U $.$.! ! % % % # b.c.b Z b b P U U Y U T ^ ^ ^ ^ ( ( $.$.1X;.}.oXoX;.;.} [ k 6 $ *.*.8.m.Z.].].OXOX;X:X:X:XqXgXgXgXhXhXjXjXjXjXjXhX}.}.y.}.}.XX%X X%X%X&X&XXXXXXXXX%XoXXX X X XXX}.oX X2.<.,.q p ' : + : i ' i i e ",
"; ; ; ; ; ; ; : : ; 2.<.,.q uXuXuXtX(.z.j.Q Z ! ! R Q % % % # b.Y.P b P U U U U ^ ^ T ^ ^ ( ^ ( $.oX|.;.|.|.|.;.} } } ] k 8 $ o.o.8.m.].OXOXOX;X;X;X:X5XqXqXgXgXhXhXjXhXjXjXgX}.y.}.}.y.}.}.%X%XXXXXXX}.XX X.X}.}. X}.}.}. XXXXX XXX2.<.,.q p ' : + : i ' i i i ",
": ; ; ; ; ; ; ; ; ; 2.<.,.q (.uXuXuXtXj.j.Q v ! ! ! Q % % % # v.Y.b b P P U U U Y Y Y ^ ^ ^ %.oX;.&X.X|.;.;.;.} &.} ) o.8 8 $ . -.*.-.m.OXOXOX;X;X;XOX5X5XgXgXjXhXjXlXjXjXjX}.}.}.}.t.XX;. X}.y.t.}.}.}.XX X X}.XX}.}. XXXXXXX X}.}.2.<.,.q p ' : + : i ' i p i ",
": ; ; ; ; ; ; ; ; ; 2.<.,.q !.(.uXuXtX).4.( c ! ( ! ! % % % # v.Q.c v c c c x c c c b P ].oXoXoX.X|.}.;.;.;.} } } } ;.M k 6 4 $ @.o.8.m.Z.OXOX;X;X;XOX:XgXqXgXjXjXlXlXlXqXy.}.}.y.y.XXXXt.t.t.y.y. X X}.}.XXXX.X}.XXXX X}.}.}. X.X X2.<.,.q p ' : + : i ' i p i ",
": : ; ; ; ; ; ; ; ; 2.<.,.q v.(.uXuX).tX( ( v ! ( ( ! % % % # c.(.b c c c c c c c c 1X|.oXoX|.;.;.;.;.;.;.} } } ;.;.;.j k 5 $ $ $ @.@.m.V.].OXOXV.;XZ.;XqXgXjXjXlXlX$X}.}.y.y.y.y.t.oX;.}.t.y.}.}.XXXXXXXX}.XXXX.X XXX}.}.}. X}.}.}.2.<.,.q p ' : + : i ' i p i ",
": : ; ; ; ; ; ; ; ; 2.<.,.,.1.2.2.2.2.2.2.2.2.2.2.2.2.2.2.2.2.2.2.2.2.2.2.2.2.2.2.2.2.2.2.2.2.2.2.2.2.2.2.2.2.2.2.2.2.2.2.2.2.2.2.2.2.2.2.2.2.2.2.2.2.2.2.2.2.2.2.2.2.2.2.2.2.2.2.2.2.2.2.2.2.2.2.2.2.2.2.2.2.2.2.2.2.2.2.2.2.2.2.2.2.<.,.q p ' : + : i ' i p i ",
"e : ; ; ; ; ; ; ; ; 1.<.<.<.<.<.<.<.<.<.<.<.<.<.<.<.<.<.<.<.<.<.<.<.<.<.<.<.<.<.<.<.<.<.<.<.<.<.<.<.<.<.<.<.<.<.<.<.<.<.<.<.<.<.<.<.<.<.<.<.<.<.<.<.<.<.<.<.<.<.<.<.<.<.<.<.<.<.<.<.<.<.<.<.<.<.<.<.<.<.<.<.<.<.<.<.<.<.<.<.<.<.<.<.<.<.,.q p ' : + : i ' i p i ",
"e : ; ; ; ; ; ; ; ; <.,.,.,.,.,.,.,.,.,.,.,.,.,.,.,.,.,.,.,.,.,.,.,.,.,.,.,.,.,.,.,.,.,.,.,.,.,.,.,.,.,.,.,.,.,.,.,.,.,.,.,.,.,.,.,.,.,.,.,.,.,.,.,.,.,.,.,.,.,.,.,.,.,.,.,.,.,.,.,.,.,.,.,.,.,.,.,.,.,.,.,.,.,.,.,.,.,.,.,.,.,.,.,.,.,.,.q p ' : + : i ' i p i ",
"e : : ; ; ; ; ; ; ; q q q q q q q q q q q q q q q q q q q q q q q q q q q q q q q q q q q q q q q q q q q q q q q q q q q q q q q q q q q q q q q q q q q q q q q q q q q q q q q q q q q q q q q q q q q q q q q q q q q q q q q q q q q q p ' : + : i ' i p i ",
"e e : ; ; ; ; ; ; ; ; : e i : : p ' : + : i ' i ; ; ; ; e e i i i p i i e : ; ; ; ; ; ; : i p i ; ; e e p ' : + : i ' i p p i i e : : : p ' : + : i ' i ; ; ; ; ; ; ; ; ; ; ; : p ' : + : i ' i : ; : e i i : ; ; ; ; ; ; ; ; : : e i e : : p ' : + : i ' i p i ",
"i e : : ; ; ; ; ; ; ; : e i : : p ' : + : i ' i ; ; ; ; : e e i i i i e : ; ; ; ; ; ; ; e i p i ; ; e e p ' : + : i ' i p i i e e ; : : p ' : + : i ' i ; ; ; ; ; ; ; ; ; ; : : p ' : + : i ' i : ; : e i i : : ; ; ; ; ; ; ; : : e e e : : p ' : + : i ' i p i ",
"i e : : ; ; ; ; ; ; ; : i i : : p ' : + : i ' i ; ; ; ; ; : e e i i e e : ; ; ; ; ; ; : e i p e ; ; : e p ' : + : i ' i p i i e : ; : : p ' : + : i ' i ; ; ; ; ; ; ; ; ; ; : : p ' : + : i ' i : ; ; e i i : : ; ; ; ; ; ; ; ; : : e e : : p ' : + : i ' i p i ",
"i e e : ; ; ; ; ; ; ; : i i : : p ' : + : i ' i ; ; ; ; ; ; : e e e e : ; ; ; ; ; ; ; : e i p e ; ; : : p ' : + : i ' i i i e : ; ; : : p ' : + : i ' i ; ; ; ; ; ; ; ; ; ; : : p ' : + : i ' i : ; ; : e i e : ; ; ; ; ; ; ; ; ; : : e : : p ' : + : i ' i p i ",
"i i e : ; ; ; ; ; ; : : i i : : p ' : + : i ' i ; ; ; ; ; ; ; : e e : ; ; ; ; ; ; ; ; : i p i : ; ; : : p ' : + : i ' i i e : ; ; ; : : p ' : + : i ' i ; ; ; ; ; ; ; ; ; ; : : p ' : + : i ' i e ; ; : e e e : ; ; ; ; ; ; ; ; ; ; : : : : p ' : + : i ' i p i ",
"i i e e : ; ; ; ; : e e i i : : p ' : + : i ' i ; ; ; ; ; ; ; ; : : ; ; ; ; ; ; ; ; : e i i e : ; ; : : p ' : + : i ' i e : ; ; ; ; : : p ' : + : i ' i : ; ; ; ; ; ; ; ; : : : p ' : + : i ' i e : ; ; e e e : : ; ; ; ; ; ; ; ; ; ; : : : p ' : + : i ' i i i ",
"i i e e : : ; ; : : e e e e : : p ' : + : i ' i : ; ; ; ; ; ; ; ; ; ; ; ; ; ; ; ; ; : e e e e ; ; ; : : p ' : + : i ' i : ; ; ; ; ; : : p ' : + : i ' i : : ; ; ; ; ; ; : : : : p ' : + : i ' i e : ; ; : e e e : ; ; ; ; ; ; ; ; ; ; ; : : p ' : + : i ' i i i "
};
